; G-Code generated by Simplify3D(R) Version 4.1.2
; Jan 19, 2021 at 6:40:39 PM
; Settings Summary
;   processName,Process1
;   applyToModels,nozzle_probe
;   profileName,Monoprice Maker Select (modified)
;   profileVersion,2016-06-08 08:00:00
;   baseProfile,
;   printMaterial,ABS
;   printQuality,High
;   printExtruders,
;   extruderName,Primary Extruder
;   extruderToolheadNumber,0
;   extruderDiameter,0.4
;   extruderAutoWidth,0
;   extruderWidth,0.4
;   extrusionMultiplier,1.02
;   extruderUseRetract,1
;   extruderRetractionDistance,1
;   extruderExtraRestartDistance,0
;   extruderRetractionZLift,0
;   extruderRetractionSpeed,1800
;   extruderUseCoasting,0
;   extruderCoastingDistance,0.2
;   extruderUseWipe,0
;   extruderWipeDistance,5
;   primaryExtruder,0
;   layerHeight,0.2
;   topSolidLayers,5
;   bottomSolidLayers,5
;   perimeterOutlines,4
;   printPerimetersInsideOut,1
;   startPointOption,2
;   startPointOriginX,0
;   startPointOriginY,0
;   sequentialIslands,0
;   spiralVaseMode,0
;   firstLayerHeightPercentage,200
;   firstLayerWidthPercentage,150
;   firstLayerUnderspeed,0.2
;   useRaft,0
;   raftExtruder,0
;   raftTopLayers,3
;   raftBaseLayers,2
;   raftOffset,3
;   raftSeparationDistance,0.14
;   raftTopInfill,100
;   aboveRaftSpeedMultiplier,0.3
;   useSkirt,1
;   skirtExtruder,0
;   skirtLayers,1
;   skirtOutlines,2
;   skirtOffset,5
;   usePrimePillar,0
;   primePillarExtruder,999
;   primePillarWidth,12
;   primePillarLocation,7
;   primePillarSpeedMultiplier,1
;   useOozeShield,0
;   oozeShieldExtruder,999
;   oozeShieldOffset,2
;   oozeShieldOutlines,1
;   oozeShieldSidewallShape,1
;   oozeShieldSidewallAngle,20
;   oozeShieldSpeedMultiplier,1
;   infillExtruder,0
;   internalInfillPattern,Rectilinear
;   externalInfillPattern,Rectilinear
;   infillPercentage,40
;   outlineOverlapPercentage,25
;   infillExtrusionWidthPercentage,150
;   minInfillLength,5
;   infillLayerInterval,1
;   internalInfillAngles,45,-45
;   overlapInternalInfillAngles,0
;   externalInfillAngles,45,-45
;   generateSupport,0
;   supportExtruder,0
;   supportInfillPercentage,40
;   supportExtraInflation,0
;   supportBaseLayers,0
;   denseSupportExtruder,0
;   denseSupportLayers,0
;   denseSupportInfillPercentage,70
;   supportLayerInterval,1
;   supportHorizontalPartOffset,0.3
;   supportUpperSeparationLayers,1
;   supportLowerSeparationLayers,1
;   supportType,0
;   supportGridSpacing,4
;   maxOverhangAngle,45
;   supportAngles,0
;   temperatureName,Primary Extruder,Heated Bed
;   temperatureNumber,0,0
;   temperatureSetpointCount,1,1
;   temperatureSetpointLayers,1,1
;   temperatureSetpointTemperatures,240,109
;   temperatureStabilizeAtStartup,1,1
;   temperatureHeatedBed,0,1
;   fanLayers,1
;   fanSpeeds,0
;   blipFanToFullPower,0
;   adjustSpeedForCooling,1
;   minSpeedLayerTime,15
;   minCoolingSpeedSlowdown,20
;   increaseFanForCooling,0
;   minFanLayerTime,45
;   maxCoolingFanSpeed,100
;   increaseFanForBridging,0
;   bridgingFanSpeed,100
;   use5D,1
;   relativeEdistances,0
;   allowEaxisZeroing,1
;   independentExtruderAxes,0
;   includeM10123,0
;   stickySupport,1
;   applyToolheadOffsets,0
;   gcodeXoffset,0
;   gcodeYoffset,0
;   gcodeZoffset,0
;   overrideMachineDefinition,1
;   machineTypeOverride,0
;   strokeXoverride,190
;   strokeYoverride,195
;   strokeZoverride,180
;   originOffsetXoverride,0
;   originOffsetYoverride,0
;   originOffsetZoverride,0
;   homeXdirOverride,-1
;   homeYdirOverride,-1
;   homeZdirOverride,-1
;   flipXoverride,1
;   flipYoverride,-1
;   flipZoverride,1
;   toolheadOffsets,0,0|0,0|0,0|0,0|0,0|0,0
;   overrideFirmwareConfiguration,1
;   firmwareTypeOverride,RepRap (Marlin/Repetier/Sprinter)
;   GPXconfigOverride,r2
;   baudRateOverride,115200
;   overridePrinterModels,1
;   printerModelsOverride
;   startingGcode,G28 ; home all axes
;   layerChangeGcode,
;   retractionGcode,
;   toolChangeGcode,
;   endingGcode,G28 X0 ; home X-axis,M104 S0 ; turn off extruder,M140 S0 ; turn off bed,M84 ; disable motors
;   exportFileFormat,gcode
;   celebration,0
;   celebrationSong,Random Song
;   postProcessing,
;   defaultSpeed,3600
;   outlineUnderspeed,0.5
;   solidInfillUnderspeed,0.8
;   supportUnderspeed,0.8
;   rapidXYspeed,4800
;   rapidZspeed,1002
;   minBridgingArea,50
;   bridgingExtraInflation,0
;   bridgingExtrusionMultiplier,1
;   bridgingSpeedMultiplier,1
;   useFixedBridgingAngle,0
;   fixedBridgingAngle,0
;   applyBridgingToPerimeters,0
;   filamentDiameters,1.75|1.75|1.75|1.75|1.75|1.75
;   filamentPricesPerKg,46|46|46|46|46|46
;   filamentDensities,1.25|1.25|1.25|1.25|1.25|1.25
;   useMinPrintHeight,0
;   minPrintHeight,0
;   useMaxPrintHeight,0
;   maxPrintHeight,0
;   useDiaphragm,0
;   diaphragmLayerInterval,20
;   robustSlicing,1
;   mergeAllIntoSolid,0
;   onlyRetractWhenCrossingOutline,1
;   retractBetweenLayers,1
;   useRetractionMinTravel,0
;   retractionMinTravel,3
;   retractWhileWiping,0
;   onlyWipeOutlines,1
;   avoidCrossingOutline,0
;   maxMovementDetourFactor,3
;   toolChangeRetractionDistance,12
;   toolChangeExtraRestartDistance,-0.5
;   toolChangeRetractionSpeed,600
;   externalThinWallType,0
;   internalThinWallType,2
;   thinWallAllowedOverlapPercentage,10
;   singleExtrusionMinLength,1
;   singleExtrusionMinPrintingWidthPercentage,50
;   singleExtrusionMaxPrintingWidthPercentage,200
;   singleExtrusionEndpointExtension,0.2
;   horizontalSizeCompensation,0
G90
M82
M106 S0
M140 S109
M190 S109
M104 S240 T0
M109 S240 T0
G28 ; home all axes
; process Process1
; layer 1, Z = 0.400
T0
G92 E0.0000
G1 E-1.0000 F1800
; feature skirt
; tool H0.400 W0.600
G1 Z0.400 F1002
G1 X80.857 Y79.953 F4800
G1 E0.0000 F1800
G92 E0.0000
G1 X81.395 Y79.415 E0.0774 F720
G1 X81.807 Y79.072 E0.1320
G1 X82.755 Y78.419 E0.2491
G1 X83.334 Y78.108 E0.3160
G1 X84.331 Y77.709 E0.4254
G1 X84.887 Y77.547 E0.4843
G1 X85.898 Y77.358 E0.5890
G1 X86.440 Y77.308 E0.6444
G1 X104.000 Y77.300 E2.4315
G1 X104.403 Y77.327 E2.4727
G1 X105.159 Y77.431 E2.5503
G1 X105.829 Y77.605 E2.6208
G1 X106.643 Y77.922 E2.7097
G1 X107.277 Y78.263 E2.7829
G1 X108.031 Y78.795 E2.8769
G1 X108.550 Y79.261 E2.9479
G1 X109.126 Y79.918 E3.0368
G1 X109.529 Y80.508 E3.1095
G1 X109.999 Y81.416 E3.2136
G1 X110.287 Y82.270 E3.3053
G1 X110.456 Y83.236 E3.4051
G1 X110.500 Y83.745 E3.4570
G1 X110.500 Y111.255 E6.2570
G1 X110.456 Y111.764 E6.3089
G1 X110.287 Y112.729 E6.4087
G1 X109.999 Y113.584 E6.5004
G1 X109.529 Y114.492 E6.6045
G1 X109.126 Y115.082 E6.6773
G1 X108.549 Y115.739 E6.7662
G1 X108.031 Y116.205 E6.8371
G1 X107.277 Y116.737 E6.9311
G1 X106.643 Y117.078 E7.0043
G1 X105.829 Y117.395 E7.0932
G1 X105.159 Y117.569 E7.1637
G1 X104.404 Y117.672 E7.2412
G1 X104.002 Y117.700 E7.2823
G1 X86.781 Y117.700 E9.0349
G1 X86.544 Y117.690 E9.0591
G1 X85.821 Y117.632 E9.1329
G1 X85.352 Y117.556 E9.1813
G1 X84.531 Y117.354 E9.2673
G1 X84.081 Y117.204 E9.3156
G1 X83.327 Y116.883 E9.3990
G1 X82.950 Y116.689 E9.4421
G1 X82.301 Y116.295 E9.5195
G1 X81.874 Y115.980 E9.5735
G1 X81.017 Y115.219 E9.6901
G1 X80.578 Y114.734 E9.7566
G1 X79.950 Y113.860 E9.8661
G1 X79.657 Y113.353 E9.9258
G1 X79.207 Y112.359 E10.0368
G1 X79.003 Y111.730 E10.1041
G1 X78.767 Y110.573 E10.2243
G1 X78.708 Y109.983 E10.2846
G1 X78.700 Y85.323 E12.7944
G1 X78.721 Y84.967 E12.8308
G1 X78.843 Y83.968 E12.9332
G1 X78.959 Y83.431 E12.9891
G1 X79.196 Y82.682 E13.0691
G1 X79.368 Y82.257 E13.1157
G1 X79.793 Y81.403 E13.2128
G1 X80.075 Y80.946 E13.2675
G1 X80.584 Y80.268 E13.3537
G1 X80.857 Y79.953 E13.3962
G92 E0.0000
G1 E-1.0000 F1800
G1 X81.296 Y80.362 F4800
G1 E0.0000 F1800
G92 E0.0000
G1 X81.800 Y79.859 E0.0724 F720
G1 X82.170 Y79.550 E0.1215
G1 X83.068 Y78.932 E0.2325
G1 X83.588 Y78.653 E0.2926
G1 X84.527 Y78.277 E0.3955
G1 X85.026 Y78.131 E0.4484
G1 X85.981 Y77.953 E0.5473
G1 X86.468 Y77.908 E0.5971
G1 X103.979 Y77.900 E2.3793
G1 X104.342 Y77.925 E2.4163
G1 X105.042 Y78.021 E2.4882
G1 X105.644 Y78.177 E2.5515
G1 X106.392 Y78.468 E2.6331
G1 X106.961 Y78.774 E2.6989
G1 X107.656 Y79.265 E2.7855
G1 X108.122 Y79.684 E2.8493
G1 X108.651 Y80.287 E2.9309
G1 X109.013 Y80.817 E2.9962
G1 X109.445 Y81.652 E3.0919
G1 X109.704 Y82.419 E3.1743
G1 X109.860 Y83.314 E3.2668
G1 X109.900 Y83.771 E3.3135
G1 X109.900 Y111.229 E6.1081
G1 X109.860 Y111.686 E6.1548
G1 X109.704 Y112.581 E6.2472
G1 X109.445 Y113.348 E6.3297
G1 X109.013 Y114.183 E6.4254
G1 X108.650 Y114.714 E6.4907
G1 X108.122 Y115.317 E6.5723
G1 X107.656 Y115.735 E6.6361
G1 X106.961 Y116.226 E6.7227
G1 X106.392 Y116.532 E6.7885
G1 X105.644 Y116.823 E6.8701
G1 X105.042 Y116.979 E6.9334
G1 X104.343 Y117.075 E7.0053
G1 X103.981 Y117.100 E7.0421
G1 X86.793 Y117.100 E8.7914
G1 X86.580 Y117.091 E8.8131
G1 X85.893 Y117.036 E8.8833
G1 X85.472 Y116.968 E8.9268
G1 X84.698 Y116.777 E9.0078
G1 X84.293 Y116.642 E9.0513
G1 X83.582 Y116.339 E9.1300
G1 X83.243 Y116.166 E9.1687
G1 X82.635 Y115.796 E9.2411
G1 X82.252 Y115.513 E9.2896
G1 X81.440 Y114.792 E9.4001
G1 X81.046 Y114.356 E9.4599
G1 X80.455 Y113.534 E9.5630
G1 X80.191 Y113.078 E9.6166
G1 X79.767 Y112.142 E9.7211
G1 X79.584 Y111.577 E9.7816
G1 X79.361 Y110.483 E9.8953
G1 X79.308 Y109.953 E9.9495
G1 X79.300 Y85.341 E12.4544
G1 X79.319 Y85.021 E12.4870
G1 X79.435 Y84.068 E12.5848
G1 X79.539 Y83.586 E12.6349
G1 X79.761 Y82.885 E12.7097
G1 X79.916 Y82.503 E12.7516
G1 X80.318 Y81.695 E12.8435
G1 X80.571 Y81.284 E12.8927
G1 X81.051 Y80.646 E12.9739
G1 X81.296 Y80.362 E13.0121
G92 E0.0000
G1 E-1.0000 F1800
; feature inner perimeter
G1 X86.722 Y85.307 F4800
G1 E0.0000 F1800
G92 E0.0000
G1 X102.500 Y85.301 E1.6058 F540
G1 X102.500 Y92.787 E2.3677
G1 X102.118 Y92.903 E2.4084
G1 X101.864 Y92.526 E2.4547
G1 X101.716 Y92.343 E2.4786
G1 X101.542 Y92.018 E2.5161
G1 X100.795 Y91.259 E2.6245
G1 X100.328 Y90.968 E2.6805
G1 X100.073 Y90.766 E2.7136
G1 X99.817 Y90.598 E2.7448
G1 X99.479 Y90.294 E2.7911
G1 X98.479 Y89.791 E2.9050
G1 X98.107 Y89.725 E2.9434
G1 X97.838 Y89.623 E2.9727
G1 X97.461 Y89.517 E3.0126
G1 X97.127 Y89.354 E3.0504
G1 X96.430 Y89.227 E3.1225
G1 X95.899 Y89.166 E3.1769
G1 X95.538 Y89.216 E3.2140
G1 X95.071 Y89.200 E3.2616
G1 X94.866 Y89.211 E3.2824
G1 X94.429 Y89.165 E3.3271
G1 X93.325 Y89.346 E3.4411
G1 X92.973 Y89.517 E3.4809
G1 X92.596 Y89.623 E3.5207
G1 X92.333 Y89.723 E3.5494
G1 X91.901 Y89.814 E3.5943
G1 X91.000 Y90.270 E3.6970
G1 X90.593 Y90.614 E3.7512
G1 X90.361 Y90.766 E3.7795
G1 X90.106 Y90.968 E3.8126
G1 X89.643 Y91.256 E3.8681
G1 X88.929 Y91.975 E3.9712
G1 X88.692 Y92.388 E4.0196
G1 X88.379 Y92.793 E4.0718
G1 X88.297 Y92.921 E4.0873
G1 X88.060 Y93.167 E4.1220
G1 X87.723 Y93.793 E4.1944
G1 X87.501 Y94.276 E4.2485
G1 X87.439 Y94.627 E4.2847
G1 X87.295 Y95.018 E4.3272
G1 X87.172 Y95.473 E4.3751
G1 X86.703 Y95.411 E4.4232
G1 X86.700 Y85.584 E5.4233
G1 X86.722 Y85.307 E5.4516
G1 X87.173 Y99.533 F4800
G92 E0.0000
G1 X87.295 Y99.982 E0.0473 F540
G1 X87.439 Y100.373 E0.0898
G1 X87.501 Y100.724 E0.1261
G1 X87.724 Y101.210 E0.1805
G1 X88.060 Y101.833 E0.2525
G1 X88.323 Y102.107 E0.2912
G1 X88.570 Y102.474 E0.3362
G1 X88.718 Y102.657 E0.3602
G1 X88.892 Y102.982 E0.3976
G1 X89.639 Y103.741 E0.5061
G1 X90.106 Y104.032 E0.5621
G1 X90.361 Y104.234 E0.5952
G1 X90.617 Y104.402 E0.6264
G1 X90.955 Y104.706 E0.6726
G1 X91.955 Y105.209 E0.7866
G1 X92.327 Y105.275 E0.8250
G1 X92.596 Y105.377 E0.8543
G1 X92.973 Y105.483 E0.8941
G1 X93.307 Y105.646 E0.9320
G1 X94.004 Y105.773 E1.0041
G1 X94.535 Y105.834 E1.0585
G1 X94.896 Y105.784 E1.0955
G1 X95.363 Y105.800 E1.1431
G1 X95.568 Y105.789 E1.1640
G1 X96.000 Y105.835 E1.2082
G1 X97.054 Y105.667 E1.3168
G1 X97.469 Y105.481 E1.3632
G1 X97.838 Y105.377 E1.4021
G1 X98.107 Y105.275 E1.4314
G1 X98.441 Y105.216 E1.4659
G1 X98.927 Y104.993 E1.5203
G1 X99.550 Y104.657 E1.5924
G1 X99.811 Y104.406 E1.6292
G1 X100.073 Y104.234 E1.6612
G1 X100.360 Y104.006 E1.6984
G1 X100.698 Y103.825 E1.7375
G1 X101.458 Y103.078 E1.8460
G1 X101.734 Y102.634 E1.8991
G1 X101.864 Y102.474 E1.9201
G1 X102.118 Y102.097 E1.9664
G1 X102.500 Y102.213 E2.0071
G1 X102.500 Y109.700 E2.7691
G1 X86.985 Y109.700 E4.3481
G1 X86.707 Y109.678 E4.3765
G1 X86.704 Y99.595 E5.4026
G1 X87.173 Y99.533 E5.4508
G1 X87.630 Y99.164 F4800
G92 E0.0000
G1 X87.795 Y99.532 E0.0410 F540
G1 X87.867 Y99.800 E0.0692
G1 X88.020 Y100.216 E0.1144
G1 X88.078 Y100.543 E0.1483
G1 X88.261 Y100.942 E0.1929
G1 X88.549 Y101.476 E0.2547
G1 X88.792 Y101.728 E0.2903
G1 X89.053 Y102.117 E0.3379
G1 X89.221 Y102.324 E0.3650
G1 X89.380 Y102.623 E0.3995
G1 X90.016 Y103.270 E0.4918
G1 X90.452 Y103.540 E0.5441
G1 X90.713 Y103.747 E0.5779
G1 X90.985 Y103.926 E0.6110
G1 X91.296 Y104.206 E0.6537
G1 X92.146 Y104.634 E0.7505
G1 X92.487 Y104.694 E0.7858
G1 X92.784 Y104.807 E0.8180
G1 X93.187 Y104.920 E0.8606
G1 X93.496 Y105.070 E0.8956
G1 X94.093 Y105.179 E0.9574
G1 X94.528 Y105.230 E1.0020
G1 X94.864 Y105.183 E1.0365
G1 X95.357 Y105.200 E1.0867
G1 X95.583 Y105.188 E1.1097
G1 X95.983 Y105.230 E1.1507
G1 X96.881 Y105.087 E1.2432
G1 X97.265 Y104.915 E1.2860
G1 X97.650 Y104.807 E1.3267
G1 X97.947 Y104.694 E1.3590
G1 X98.261 Y104.638 E1.3915
G1 X98.659 Y104.456 E1.4361
G1 X99.193 Y104.168 E1.4978
G1 X99.435 Y103.935 E1.5320
G1 X99.721 Y103.747 E1.5668
G1 X100.029 Y103.503 E1.6069
G1 X100.340 Y103.337 E1.6427
G1 X100.987 Y102.700 E1.7350
G1 X101.244 Y102.286 E1.7847
G1 X101.381 Y102.117 E1.8068
G1 X101.630 Y101.747 E1.8523
G1 X101.923 Y101.421 E1.8969
G1 X102.351 Y100.570 E1.9937
G1 X102.414 Y100.216 E2.0304
G1 X102.567 Y99.800 E2.0755
G1 X102.631 Y99.563 E2.1005
G1 X103.100 Y99.625 E2.1487
G1 X103.100 Y110.300 E3.2351
G1 X86.961 Y110.300 E4.8778
G1 X86.773 Y110.285 E4.8969
G1 X86.649 Y110.254 E4.9099
G1 X86.519 Y110.199 E4.9242
G1 X86.445 Y110.154 E4.9331
G1 X86.373 Y110.098 E4.9424
G1 X86.291 Y110.016 E4.9541
G1 X86.271 Y109.991 E4.9574
G1 X86.211 Y109.901 E4.9684
G1 X86.157 Y109.793 E4.9807
G1 X86.148 Y109.767 E4.9836
G1 X86.121 Y109.663 E4.9945
G1 X86.107 Y109.574 E5.0036
G1 X86.100 Y85.560 E7.4477
G1 X86.118 Y85.335 E7.4706
G1 X86.156 Y85.215 E7.4835
G1 X86.205 Y85.107 E7.4955
G1 X86.313 Y84.963 E7.5139
G1 X86.391 Y84.884 E7.5251
G1 X86.564 Y84.775 E7.5459
G1 X86.675 Y84.736 E7.5580
G1 X86.799 Y84.707 E7.5709
G1 X103.100 Y84.700 E9.2299
G1 X103.100 Y95.375 E10.3164
G1 X102.631 Y95.437 E10.3645
G1 X102.567 Y95.200 E10.3895
G1 X102.414 Y94.784 E10.4346
G1 X102.355 Y94.456 E10.4685
G1 X102.173 Y94.058 E10.5132
G1 X101.885 Y93.524 E10.5749
G1 X101.642 Y93.272 E10.6105
G1 X101.381 Y92.883 E10.6582
G1 X101.213 Y92.676 E10.6853
G1 X101.054 Y92.377 E10.7197
G1 X100.418 Y91.730 E10.8121
G1 X99.982 Y91.460 E10.8643
G1 X99.721 Y91.253 E10.8982
G1 X99.449 Y91.074 E10.9313
G1 X99.138 Y90.794 E10.9740
G1 X98.287 Y90.366 E11.0708
G1 X97.947 Y90.306 E11.1060
G1 X97.650 Y90.193 E11.1383
G1 X97.247 Y90.080 E11.1809
G1 X96.938 Y89.930 E11.2159
G1 X96.341 Y89.821 E11.2776
G1 X95.906 Y89.770 E11.3223
G1 X95.570 Y89.817 E11.3568
G1 X95.077 Y89.800 E11.4070
G1 X94.851 Y89.812 E11.4300
G1 X94.447 Y89.770 E11.4713
G1 X93.508 Y89.924 E11.5682
G1 X93.187 Y90.080 E11.6045
G1 X92.784 Y90.193 E11.6471
G1 X92.502 Y90.300 E11.6777
G1 X92.102 Y90.385 E11.7194
G1 X91.334 Y90.774 E11.8070
G1 X90.953 Y91.095 E11.8578
G1 X90.713 Y91.253 E11.8870
G1 X90.452 Y91.460 E11.9208
G1 X90.020 Y91.729 E11.9727
G1 X89.410 Y92.342 E12.0607
G1 X89.192 Y92.722 E12.1053
G1 X88.870 Y93.139 E12.1589
G1 X88.770 Y93.294 E12.1777
G1 X88.549 Y93.524 E12.2101
G1 X88.260 Y94.060 E12.2722
G1 X88.078 Y94.457 E12.3165
G1 X88.020 Y94.784 E12.3504
G1 X87.867 Y95.200 E12.3955
G1 X87.795 Y95.467 E12.4236
G1 X87.629 Y95.840 E12.4652
G1 X87.487 Y96.738 E12.5577
G1 X87.531 Y97.148 E12.5997
G1 X87.515 Y97.500 E12.6355
G1 X87.531 Y97.850 E12.6712
G1 X87.487 Y98.266 E12.7138
G1 X87.630 Y99.164 E12.8063
G1 X85.507 Y109.618 F4800
G92 E0.0000
G1 X85.500 Y85.536 E2.4510 F540
G1 X85.522 Y85.258 E2.4794
G1 X85.539 Y85.177 E2.4878
G1 X85.595 Y85.001 E2.5066
G1 X85.666 Y84.842 E2.5243
G1 X85.708 Y84.769 E2.5329
G1 X85.859 Y84.568 E2.5584
G1 X85.981 Y84.446 E2.5761
G1 X86.047 Y84.392 E2.5847
G1 X86.267 Y84.253 E2.6113
G1 X86.343 Y84.217 E2.6198
G1 X86.508 Y84.159 E2.6375
G1 X86.687 Y84.117 E2.6563
