; G-Code generated by Simplify3D(R) Version 4.1.2
; Jan 16, 2021 at 9:35:13 PM
; Settings Summary
;   processName,Process1
;   applyToModels,z_chain_guide,z_chain_bottom_anchor
;   profileName,Monoprice Maker Select (modified)
;   profileVersion,2016-06-08 08:00:00
;   baseProfile,
;   printMaterial,ABS
;   printQuality,High
;   printExtruders,
;   extruderName,Primary Extruder
;   extruderToolheadNumber,0
;   extruderDiameter,0.4
;   extruderAutoWidth,0
;   extruderWidth,0.4
;   extrusionMultiplier,1.02
;   extruderUseRetract,1
;   extruderRetractionDistance,1
;   extruderExtraRestartDistance,0
;   extruderRetractionZLift,0
;   extruderRetractionSpeed,1800
;   extruderUseCoasting,0
;   extruderCoastingDistance,0.2
;   extruderUseWipe,0
;   extruderWipeDistance,5
;   primaryExtruder,0
;   layerHeight,0.2
;   topSolidLayers,5
;   bottomSolidLayers,5
;   perimeterOutlines,4
;   printPerimetersInsideOut,1
;   startPointOption,2
;   startPointOriginX,0
;   startPointOriginY,0
;   sequentialIslands,0
;   spiralVaseMode,0
;   firstLayerHeightPercentage,200
;   firstLayerWidthPercentage,150
;   firstLayerUnderspeed,0.2
;   useRaft,0
;   raftExtruder,0
;   raftTopLayers,3
;   raftBaseLayers,2
;   raftOffset,3
;   raftSeparationDistance,0.14
;   raftTopInfill,100
;   aboveRaftSpeedMultiplier,0.3
;   useSkirt,1
;   skirtExtruder,0
;   skirtLayers,1
;   skirtOutlines,2
;   skirtOffset,5
;   usePrimePillar,0
;   primePillarExtruder,999
;   primePillarWidth,12
;   primePillarLocation,7
;   primePillarSpeedMultiplier,1
;   useOozeShield,0
;   oozeShieldExtruder,999
;   oozeShieldOffset,2
;   oozeShieldOutlines,1
;   oozeShieldSidewallShape,1
;   oozeShieldSidewallAngle,20
;   oozeShieldSpeedMultiplier,1
;   infillExtruder,0
;   internalInfillPattern,Rectilinear
;   externalInfillPattern,Rectilinear
;   infillPercentage,40
;   outlineOverlapPercentage,25
;   infillExtrusionWidthPercentage,150
;   minInfillLength,5
;   infillLayerInterval,1
;   internalInfillAngles,45,-45
;   overlapInternalInfillAngles,0
;   externalInfillAngles,45,-45
;   generateSupport,0
;   supportExtruder,0
;   supportInfillPercentage,40
;   supportExtraInflation,0
;   supportBaseLayers,0
;   denseSupportExtruder,0
;   denseSupportLayers,0
;   denseSupportInfillPercentage,70
;   supportLayerInterval,1
;   supportHorizontalPartOffset,0.3
;   supportUpperSeparationLayers,1
;   supportLowerSeparationLayers,1
;   supportType,0
;   supportGridSpacing,4
;   maxOverhangAngle,45
;   supportAngles,0
;   temperatureName,Primary Extruder,Heated Bed
;   temperatureNumber,0,0
;   temperatureSetpointCount,1,1
;   temperatureSetpointLayers,1,1
;   temperatureSetpointTemperatures,240,109
;   temperatureStabilizeAtStartup,1,1
;   temperatureHeatedBed,0,1
;   fanLayers,1
;   fanSpeeds,0
;   blipFanToFullPower,0
;   adjustSpeedForCooling,1
;   minSpeedLayerTime,15
;   minCoolingSpeedSlowdown,20
;   increaseFanForCooling,0
;   minFanLayerTime,45
;   maxCoolingFanSpeed,100
;   increaseFanForBridging,0
;   bridgingFanSpeed,100
;   use5D,1
;   relativeEdistances,0
;   allowEaxisZeroing,1
;   independentExtruderAxes,0
;   includeM10123,0
;   stickySupport,1
;   applyToolheadOffsets,0
;   gcodeXoffset,0
;   gcodeYoffset,0
;   gcodeZoffset,0
;   overrideMachineDefinition,1
;   machineTypeOverride,0
;   strokeXoverride,190
;   strokeYoverride,195
;   strokeZoverride,180
;   originOffsetXoverride,0
;   originOffsetYoverride,0
;   originOffsetZoverride,0
;   homeXdirOverride,-1
;   homeYdirOverride,-1
;   homeZdirOverride,-1
;   flipXoverride,1
;   flipYoverride,-1
;   flipZoverride,1
;   toolheadOffsets,0,0|0,0|0,0|0,0|0,0|0,0
;   overrideFirmwareConfiguration,1
;   firmwareTypeOverride,RepRap (Marlin/Repetier/Sprinter)
;   GPXconfigOverride,r2
;   baudRateOverride,115200
;   overridePrinterModels,1
;   printerModelsOverride
;   startingGcode,G28 ; home all axes
;   layerChangeGcode,
;   retractionGcode,
;   toolChangeGcode,
;   endingGcode,G28 X0 ; home X-axis,M104 S0 ; turn off extruder,M140 S0 ; turn off bed,M84 ; disable motors
;   exportFileFormat,gcode
;   celebration,0
;   celebrationSong,Random Song
;   postProcessing,
;   defaultSpeed,3600
;   outlineUnderspeed,0.5
;   solidInfillUnderspeed,0.8
;   supportUnderspeed,0.8
;   rapidXYspeed,4800
;   rapidZspeed,1002
;   minBridgingArea,50
;   bridgingExtraInflation,0
;   bridgingExtrusionMultiplier,1
;   bridgingSpeedMultiplier,1
;   useFixedBridgingAngle,0
;   fixedBridgingAngle,0
;   applyBridgingToPerimeters,0
;   filamentDiameters,1.75|1.75|1.75|1.75|1.75|1.75
;   filamentPricesPerKg,46|46|46|46|46|46
;   filamentDensities,1.25|1.25|1.25|1.25|1.25|1.25
;   useMinPrintHeight,0
;   minPrintHeight,0
;   useMaxPrintHeight,0
;   maxPrintHeight,0
;   useDiaphragm,0
;   diaphragmLayerInterval,20
;   robustSlicing,1
;   mergeAllIntoSolid,0
;   onlyRetractWhenCrossingOutline,1
;   retractBetweenLayers,1
;   useRetractionMinTravel,0
;   retractionMinTravel,3
;   retractWhileWiping,0
;   onlyWipeOutlines,1
;   avoidCrossingOutline,0
;   maxMovementDetourFactor,3
;   toolChangeRetractionDistance,12
;   toolChangeExtraRestartDistance,-0.5
;   toolChangeRetractionSpeed,600
;   externalThinWallType,0
;   internalThinWallType,2
;   thinWallAllowedOverlapPercentage,10
;   singleExtrusionMinLength,1
;   singleExtrusionMinPrintingWidthPercentage,50
;   singleExtrusionMaxPrintingWidthPercentage,200
;   singleExtrusionEndpointExtension,0.2
;   horizontalSizeCompensation,0
G90
M82
M106 S0
M140 S109
M190 S109
M104 S240 T0
M109 S240 T0
G28 ; home all axes
; process Process1
; layer 1, Z = 0.400
T0
G92 E0.0000
G1 E-1.0000 F1800
; feature skirt
; tool H0.400 W0.600
G1 Z0.400 F1002
G1 X69.155 Y66.842 F4800
G1 E0.0000 F1800
G92 E0.0000
G1 X69.780 Y66.292 E0.0847 F720
G1 X70.671 Y65.706 E0.1933
G1 X71.501 Y65.327 E0.2861
G1 X72.614 Y65.015 E0.4038
G1 X73.412 Y64.905 E0.4857
G1 X77.102 Y64.902 E0.8613
G1 X77.135 Y64.875 E0.8657
G1 X78.612 Y64.186 E1.0316
G1 X79.874 Y63.906 E1.1632
G1 X85.906 Y63.906 E1.7770
G1 X87.167 Y64.186 E1.9085
G1 X88.645 Y64.875 E2.0744
G1 X88.675 Y64.900 E2.0784
G1 X92.216 Y64.900 E2.4389
G1 X92.525 Y64.916 E2.4704
G1 X93.360 Y65.004 E2.5558
G1 X93.966 Y65.133 E2.6188
G1 X94.871 Y65.427 E2.7157
G1 X95.361 Y65.638 E2.7699
G1 X96.087 Y66.030 E2.8540
G1 X96.542 Y66.333 E2.9097
G1 X97.167 Y66.839 E2.9914
G1 X97.397 Y67.046 E3.0229
G1 X100.251 Y69.900 E3.4337
G1 X112.582 Y69.911 E4.6888
G1 X112.875 Y69.926 E4.7186
G1 X113.487 Y69.987 E4.7812
G1 X113.780 Y70.032 E4.8113
G1 X114.746 Y70.228 E4.9117
G1 X115.127 Y70.332 E4.9519
G1 X116.130 Y70.681 E5.0599
G1 X116.540 Y70.859 E5.1055
G1 X117.665 Y71.453 E5.2349
G1 X118.076 Y71.715 E5.2846
G1 X119.101 Y72.497 E5.4157
G1 X119.468 Y72.828 E5.4660
G1 X120.304 Y73.722 E5.5906
G1 X120.525 Y73.988 E5.6258
G1 X120.905 Y74.504 E5.6911
G1 X121.069 Y74.751 E5.7212
G1 X121.546 Y75.557 E5.8165
G1 X121.684 Y75.818 E5.8466
G1 X121.935 Y76.359 E5.9073
G1 X122.033 Y76.596 E5.9334
G1 X122.286 Y77.294 E6.0090
G1 X122.368 Y77.558 E6.0370
G1 X122.556 Y78.284 E6.1134
G1 X122.610 Y78.536 E6.1396
G1 X122.710 Y79.125 E6.2004
G1 X122.744 Y79.419 E6.2306
G1 X122.804 Y80.305 E6.3210
G1 X122.810 Y80.505 E6.3413
G1 X122.799 Y95.921 E7.9103
G1 X122.773 Y96.312 E7.9502
G1 X122.642 Y97.289 E8.0505
G1 X122.588 Y97.580 E8.0806
G1 X122.445 Y98.179 E8.1433
G1 X122.362 Y98.463 E8.1734
G1 X122.030 Y99.420 E8.2765
G1 X121.851 Y99.830 E8.3221
G1 X121.281 Y100.910 E8.4464
G1 X121.078 Y101.240 E8.4858
G1 X120.602 Y101.910 E8.5694
G1 X120.416 Y102.146 E8.6000
G1 X119.885 Y102.753 E8.6821
G1 X119.644 Y102.998 E8.7170
G1 X118.912 Y103.660 E8.8175
G1 X118.640 Y103.878 E8.8530
G1 X117.950 Y104.368 E8.9390
G1 X117.621 Y104.571 E8.9785
G1 X116.516 Y105.154 E9.1056
G1 X116.053 Y105.350 E9.1568
G1 X114.828 Y105.750 E9.2879
G1 X114.362 Y105.861 E9.3367
G1 X113.107 Y106.055 E9.4659
G1 X112.657 Y106.089 E9.5119
G1 X102.683 Y106.090 E10.5269
G1 X102.706 Y106.140 E10.5326
G1 X103.096 Y107.180 E10.6456
G1 X103.218 Y107.595 E10.6896
G1 X103.450 Y108.671 E10.8017
G1 X103.508 Y109.074 E10.8431
G1 X103.582 Y110.072 E10.9450
G1 X103.590 Y110.291 E10.9672
G1 X103.590 Y115.923 E11.5404
G1 X103.904 Y116.000 E11.5733
G1 X104.562 Y116.247 E11.6449
G1 X105.513 Y116.740 E11.7539
G1 X106.318 Y117.350 E11.8568
G1 X107.288 Y118.389 E12.0013
G1 X107.910 Y119.403 E12.1225
G1 X108.403 Y120.760 E12.2694
G1 X108.582 Y121.775 E12.3743
G1 X108.583 Y124.197 E12.6208
G1 X108.503 Y124.883 E12.6911
G1 X108.284 Y125.802 E12.7872
G1 X107.960 Y126.610 E12.8759
G1 X107.361 Y127.636 E12.9967
G1 X106.806 Y128.325 E13.0868
G1 X106.111 Y128.964 E13.1828
G1 X105.564 Y129.361 E13.2517
G1 X104.871 Y129.753 E13.3327
G1 X104.415 Y129.961 E13.3837
G1 X103.368 Y130.337 E13.4970
G1 X103.153 Y130.405 E13.5199
G1 X102.212 Y130.663 E13.6192
G1 X101.992 Y130.714 E13.6422
G1 X101.035 Y130.899 E13.7414
G1 X100.812 Y130.934 E13.7644
G1 X99.843 Y131.045 E13.8636
G1 X99.618 Y131.063 E13.8866
G1 X98.700 Y131.098 E13.9801
G1 X98.586 Y131.100 E13.9917
G1 X76.732 Y131.093 E16.2160
G1 X76.451 Y131.079 E16.2446
G1 X75.052 Y130.945 E16.3876
G1 X74.772 Y130.905 E16.4164
G1 X73.760 Y130.709 E16.5213
G1 X73.486 Y130.642 E16.5501
G1 X72.164 Y130.252 E16.6903
G1 X71.950 Y130.180 E16.7133
G1 X71.236 Y129.908 E16.7910
G1 X70.739 Y129.664 E16.8474
G1 X69.823 Y129.101 E16.9568
G1 X69.030 Y128.390 E17.0652
G1 X68.242 Y127.375 E17.1960
G1 X67.810 Y126.603 E17.2860
G1 X67.477 Y125.720 E17.3821
G1 X67.312 Y125.064 E17.4509
G1 X67.214 Y124.324 E17.5269
G1 X67.189 Y123.922 E17.5679
G1 X67.200 Y121.818 E17.7820
G1 X67.338 Y120.939 E17.8726
G1 X67.692 Y119.818 E17.9922
G1 X68.097 Y119.001 E18.0851
G1 X68.743 Y118.087 E18.1990
G1 X69.366 Y117.440 E18.2904
G1 X70.347 Y116.690 E18.4161
G1 X71.255 Y116.219 E18.5202
G1 X72.190 Y115.923 E18.6200
G1 X72.190 Y110.316 E19.1907
G1 X72.195 Y110.147 E19.2078
G1 X72.243 Y109.306 E19.2936
G1 X72.297 Y108.888 E19.3365
G1 X72.552 Y107.629 E19.4672
G1 X72.694 Y107.144 E19.5187
G1 X73.176 Y105.907 E19.6538
G1 X73.399 Y105.453 E19.7052
G1 X74.062 Y104.353 E19.8360
G1 X74.305 Y104.008 E19.8789
G1 X74.879 Y103.307 E19.9711
G1 X75.076 Y103.088 E20.0011
G1 X75.608 Y102.557 E20.0776
G1 X75.893 Y102.306 E20.1162
G1 X76.160 Y102.100 E20.1506
G1 X76.031 Y102.100 E20.1638
G1 X75.115 Y101.955 E20.2582
G1 X74.161 Y101.645 E20.3602
G1 X73.811 Y101.507 E20.3986
G1 X72.638 Y100.952 E20.5307
G1 X72.247 Y100.729 E20.5765
G1 X71.412 Y100.166 E20.6789
G1 X71.182 Y99.994 E20.7082
G1 X70.712 Y99.604 E20.7703
G1 X70.507 Y99.418 E20.7986
G1 X69.838 Y98.749 E20.8947
G1 X69.592 Y98.470 E20.9327
G1 X68.965 Y97.661 E21.0369
G1 X68.752 Y97.345 E21.0756
G1 X68.243 Y96.477 E21.1780
G1 X68.082 Y96.160 E21.2142
G1 X67.730 Y95.348 E21.3043
G1 X67.630 Y95.084 E21.3330
G1 X67.335 Y94.174 E21.4303
G1 X67.190 Y93.258 E21.5247
G1 X67.190 Y71.369 E23.7525
G1 X67.226 Y70.910 E23.7994
G1 X67.363 Y70.038 E23.8892
G1 X67.597 Y69.262 E23.9717
G1 X68.018 Y68.346 E24.0744
G1 X68.459 Y67.657 E24.1576
G1 X69.155 Y66.842 E24.2667
G92 E0.0000
G1 E-1.0000 F1800
G1 X69.584 Y67.264 F4800
G1 E0.0000 F1800
G92 E0.0000
G1 X70.145 Y66.770 E0.0761 F720
G1 X70.962 Y66.232 E0.1757
G1 X71.708 Y65.892 E0.2591
G1 X72.737 Y65.604 E0.3678
G1 X73.453 Y65.505 E0.4414
G1 X77.321 Y65.502 E0.8351
G1 X77.460 Y65.385 E0.8536
G1 X78.807 Y64.757 E1.0048
G1 X79.940 Y64.506 E1.1229
G1 X85.840 Y64.506 E1.7234
G1 X86.973 Y64.757 E1.8416
G1 X88.319 Y65.385 E1.9927
G1 X88.456 Y65.500 E2.0109
G1 X92.200 Y65.500 E2.3920
G1 X92.478 Y65.515 E2.4203
G1 X93.266 Y65.598 E2.5009
G1 X93.810 Y65.713 E2.5575
G1 X94.659 Y65.990 E2.6484
G1 X95.099 Y66.178 E2.6972
G1 X95.778 Y66.545 E2.7756
G1 X96.187 Y66.817 E2.8256
G1 X96.777 Y67.295 E2.9030
G1 X96.984 Y67.481 E2.9312
G1 X99.914 Y70.411 E3.3530
G1 X100.006 Y70.492 E3.3654
G1 X100.130 Y70.500 E3.3781
G1 X112.567 Y70.511 E4.6439
G1 X112.830 Y70.524 E4.6707
G1 X113.412 Y70.583 E4.7303
G1 X113.675 Y70.623 E4.7573
G1 X114.607 Y70.812 E4.8541
G1 X114.949 Y70.906 E4.8902
G1 X115.912 Y71.240 E4.9939
G1 X116.280 Y71.400 E5.0348
G1 X117.363 Y71.972 E5.1594
G1 X117.732 Y72.208 E5.2040
G1 X118.717 Y72.959 E5.3301
G1 X119.047 Y73.256 E5.3753
G1 X119.854 Y74.119 E5.4955
G1 X120.052 Y74.358 E5.5271
G1 X120.413 Y74.848 E5.5891
G1 X120.560 Y75.069 E5.6161
G1 X121.022 Y75.849 E5.7084
G1 X121.146 Y76.085 E5.7354
G1 X121.385 Y76.600 E5.7933
G1 X121.473 Y76.813 E5.8167
G1 X121.717 Y77.486 E5.8896
G1 X121.790 Y77.722 E5.9147
G1 X121.972 Y78.422 E5.9884
G1 X122.021 Y78.649 E6.0119
G1 X122.116 Y79.210 E6.0699
G1 X122.147 Y79.474 E6.0969
G1 X122.204 Y80.335 E6.1848
G1 X122.210 Y80.514 E6.2030
G1 X122.199 Y95.900 E7.7690
G1 X122.176 Y96.252 E7.8048
G1 X122.049 Y97.194 E7.9015
G1 X122.000 Y97.455 E7.9286
G1 X121.864 Y98.026 E7.9883
G1 X121.790 Y98.281 E8.0153
G1 X121.470 Y99.201 E8.1145
G1 X121.310 Y99.570 E8.1554
G1 X120.759 Y100.613 E8.2754
G1 X120.577 Y100.909 E8.3108
G1 X120.122 Y101.551 E8.3909
G1 X119.955 Y101.763 E8.4184
G1 X119.445 Y102.345 E8.4971
G1 X119.228 Y102.565 E8.5285
G1 X118.523 Y103.203 E8.6254
G1 X118.278 Y103.399 E8.6573
G1 X117.619 Y103.867 E8.7395
G1 X117.323 Y104.049 E8.7749
G1 X116.258 Y104.611 E8.8975
G1 X115.842 Y104.788 E8.9435
G1 X114.665 Y105.172 E9.0695
G1 X114.246 Y105.272 E9.1133
G1 X113.038 Y105.458 E9.2377
G1 X112.634 Y105.489 E9.2790
G1 X101.702 Y105.490 E10.3916
G1 X101.997 Y106.032 E10.4545
G1 X102.152 Y106.370 E10.4923
G1 X102.527 Y107.370 E10.6010
G1 X102.636 Y107.742 E10.6405
G1 X102.859 Y108.777 E10.7482
G1 X102.911 Y109.140 E10.7855
G1 X102.983 Y110.106 E10.8841
G1 X102.990 Y110.302 E10.9041
G1 X102.990 Y116.394 E11.5241
G1 X103.726 Y116.574 E11.6013
G1 X104.318 Y116.796 E11.6655
G1 X105.191 Y117.249 E11.7657
G1 X105.915 Y117.797 E11.8581
G1 X106.808 Y118.754 E11.9913
G1 X107.367 Y119.665 E12.1001
G1 X107.822 Y120.916 E12.2355
G1 X107.982 Y121.828 E12.3298
G1 X107.983 Y124.162 E12.5673
G1 X107.911 Y124.779 E12.6305
G1 X107.711 Y125.620 E12.7185
G1 X107.420 Y126.346 E12.7981
G1 X106.866 Y127.295 E12.9099
G1 X106.367 Y127.914 E12.9908
G1 X105.731 Y128.499 E13.0788
G1 X105.239 Y128.856 E13.1406
G1 X104.598 Y129.218 E13.2156
G1 X104.189 Y129.405 E13.2614
G1 X103.176 Y129.768 E13.3709
G1 X102.983 Y129.829 E13.3915
G1 X102.065 Y130.081 E13.4884
G1 X101.867 Y130.127 E13.5091
G1 X100.932 Y130.308 E13.6060
G1 X100.732 Y130.339 E13.6266
G1 X99.786 Y130.448 E13.7235
G1 X99.584 Y130.464 E13.7442
G1 X98.683 Y130.498 E13.8360
G1 X98.580 Y130.500 E13.8464
G1 X76.746 Y130.493 E16.0686
G1 X76.494 Y130.481 E16.0943
G1 X75.123 Y130.349 E16.2344
G1 X74.872 Y130.313 E16.2602
G1 X73.888 Y130.122 E16.3623
G1 X73.642 Y130.062 E16.3881
G1 X72.345 Y129.680 E16.5257
G1 X72.153 Y129.615 E16.5463
G1 X71.475 Y129.358 E16.6201
G1 X71.029 Y129.138 E16.6706
G1 X70.183 Y128.618 E16.7717
G1 X69.471 Y127.980 E16.8691
G1 X68.744 Y127.043 E16.9898
G1 X68.356 Y126.349 E17.0707
G1 X68.051 Y125.541 E17.1586
G1 X67.903 Y124.952 E17.2204
G1 X67.812 Y124.266 E17.2909
G1 X67.789 Y123.904 E17.3277
G1 X67.799 Y121.866 E17.5351
G1 X67.923 Y121.076 E17.6165
G1 X68.250 Y120.043 E17.7268
G1 X68.614 Y119.309 E17.8102
G1 X69.207 Y118.470 E17.9148
G1 X69.766 Y117.889 E17.9969
G1 X70.670 Y117.199 E18.1126
G1 X71.485 Y116.775 E18.2061
G1 X72.566 Y116.433 E18.3214
G1 X72.790 Y116.398 E18.3445
G1 X72.790 Y110.324 E18.9627
G1 X72.794 Y110.173 E18.9781
G1 X72.841 Y109.362 E19.0608
G1 X72.889 Y108.986 E19.0994
G1 X73.135 Y107.773 E19.2253
G1 X73.263 Y107.337 E19.2716
G1 X73.726 Y106.149 E19.4014
G1 X73.926 Y105.741 E19.4476
G1 X74.565 Y104.681 E19.5736
G1 X74.783 Y104.372 E19.6121
G1 X75.334 Y103.698 E19.7006
G1 X75.511 Y103.502 E19.7276
G1 X76.018 Y102.995 E19.8006
G1 X76.274 Y102.770 E19.8353
G1 X77.226 Y102.036 E19.9575
G1 X77.577 Y101.807 E20.0001
G1 X78.141 Y101.500 E20.0656
G1 X76.079 Y101.500 E20.2755
G1 X75.256 Y101.370 E20.3603
G1 X74.365 Y101.081 E20.4556
G1 X74.050 Y100.956 E20.4901
G1 X72.915 Y100.419 E20.6179
G1 X72.563 Y100.219 E20.6590
G1 X71.760 Y99.677 E20.7577
G1 X71.553 Y99.522 E20.7840
G1 X71.105 Y99.151 E20.8432
G1 X70.921 Y98.983 E20.8685
G1 X70.276 Y98.339 E20.9613
G1 X70.055 Y98.087 E20.9954
G1 X69.451 Y97.308 E21.0957
