; G-Code generated by Simplify3D(R) Version 4.1.2
; Feb 5, 2021 at 12:26:27 PM
; Settings Summary
;   processName,Process1
;   applyToModels,[a]_z_drive_baseplate_a_x2
;   profileName,Monoprice Maker Select (modified)
;   profileVersion,2016-06-08 08:00:00
;   baseProfile,
;   printMaterial,ABS
;   printQuality,High
;   printExtruders,
;   extruderName,Primary Extruder
;   extruderToolheadNumber,0
;   extruderDiameter,0.4
;   extruderAutoWidth,0
;   extruderWidth,0.4
;   extrusionMultiplier,1.02
;   extruderUseRetract,1
;   extruderRetractionDistance,1
;   extruderExtraRestartDistance,0
;   extruderRetractionZLift,0
;   extruderRetractionSpeed,1800
;   extruderUseCoasting,0
;   extruderCoastingDistance,0.2
;   extruderUseWipe,0
;   extruderWipeDistance,5
;   primaryExtruder,0
;   layerHeight,0.2
;   topSolidLayers,5
;   bottomSolidLayers,5
;   perimeterOutlines,4
;   printPerimetersInsideOut,1
;   startPointOption,2
;   startPointOriginX,0
;   startPointOriginY,0
;   sequentialIslands,0
;   spiralVaseMode,0
;   firstLayerHeightPercentage,200
;   firstLayerWidthPercentage,150
;   firstLayerUnderspeed,0.2
;   useRaft,0
;   raftExtruder,0
;   raftTopLayers,3
;   raftBaseLayers,2
;   raftOffset,3
;   raftSeparationDistance,0.14
;   raftTopInfill,100
;   aboveRaftSpeedMultiplier,0.3
;   useSkirt,1
;   skirtExtruder,0
;   skirtLayers,1
;   skirtOutlines,2
;   skirtOffset,5
;   usePrimePillar,0
;   primePillarExtruder,999
;   primePillarWidth,12
;   primePillarLocation,7
;   primePillarSpeedMultiplier,1
;   useOozeShield,0
;   oozeShieldExtruder,999
;   oozeShieldOffset,2
;   oozeShieldOutlines,1
;   oozeShieldSidewallShape,1
;   oozeShieldSidewallAngle,20
;   oozeShieldSpeedMultiplier,1
;   infillExtruder,0
;   internalInfillPattern,Rectilinear
;   externalInfillPattern,Rectilinear
;   infillPercentage,40
;   outlineOverlapPercentage,25
;   infillExtrusionWidthPercentage,150
;   minInfillLength,5
;   infillLayerInterval,1
;   internalInfillAngles,45,-45
;   overlapInternalInfillAngles,0
;   externalInfillAngles,45,-45
;   generateSupport,0
;   supportExtruder,0
;   supportInfillPercentage,40
;   supportExtraInflation,0
;   supportBaseLayers,0
;   denseSupportExtruder,0
;   denseSupportLayers,0
;   denseSupportInfillPercentage,70
;   supportLayerInterval,1
;   supportHorizontalPartOffset,0.3
;   supportUpperSeparationLayers,1
;   supportLowerSeparationLayers,1
;   supportType,0
;   supportGridSpacing,4
;   maxOverhangAngle,45
;   supportAngles,0
;   temperatureName,Primary Extruder,Heated Bed
;   temperatureNumber,0,0
;   temperatureSetpointCount,1,1
;   temperatureSetpointLayers,1,1
;   temperatureSetpointTemperatures,240,109
;   temperatureStabilizeAtStartup,1,1
;   temperatureHeatedBed,0,1
;   fanLayers,1
;   fanSpeeds,0
;   blipFanToFullPower,0
;   adjustSpeedForCooling,1
;   minSpeedLayerTime,15
;   minCoolingSpeedSlowdown,20
;   increaseFanForCooling,0
;   minFanLayerTime,45
;   maxCoolingFanSpeed,100
;   increaseFanForBridging,0
;   bridgingFanSpeed,100
;   use5D,1
;   relativeEdistances,0
;   allowEaxisZeroing,1
;   independentExtruderAxes,0
;   includeM10123,0
;   stickySupport,1
;   applyToolheadOffsets,0
;   gcodeXoffset,0
;   gcodeYoffset,0
;   gcodeZoffset,0
;   overrideMachineDefinition,1
;   machineTypeOverride,0
;   strokeXoverride,190
;   strokeYoverride,195
;   strokeZoverride,180
;   originOffsetXoverride,0
;   originOffsetYoverride,0
;   originOffsetZoverride,0
;   homeXdirOverride,-1
;   homeYdirOverride,-1
;   homeZdirOverride,-1
;   flipXoverride,1
;   flipYoverride,-1
;   flipZoverride,1
;   toolheadOffsets,0,0|0,0|0,0|0,0|0,0|0,0
;   overrideFirmwareConfiguration,1
;   firmwareTypeOverride,RepRap (Marlin/Repetier/Sprinter)
;   GPXconfigOverride,r2
;   baudRateOverride,115200
;   overridePrinterModels,1
;   printerModelsOverride
;   startingGcode,G28 ; home all axes
;   layerChangeGcode,
;   retractionGcode,
;   toolChangeGcode,
;   endingGcode,G28 X0 ; home X-axis,M104 S0 ; turn off extruder,M140 S0 ; turn off bed,M84 ; disable motors
;   exportFileFormat,gcode
;   celebration,0
;   celebrationSong,Random Song
;   postProcessing,
;   defaultSpeed,3600
;   outlineUnderspeed,0.5
;   solidInfillUnderspeed,0.8
;   supportUnderspeed,0.8
;   rapidXYspeed,4800
;   rapidZspeed,1002
;   minBridgingArea,50
;   bridgingExtraInflation,0
;   bridgingExtrusionMultiplier,1
;   bridgingSpeedMultiplier,1
;   useFixedBridgingAngle,0
;   fixedBridgingAngle,0
;   applyBridgingToPerimeters,0
;   filamentDiameters,1.75|1.75|1.75|1.75|1.75|1.75
;   filamentPricesPerKg,46|46|46|46|46|46
;   filamentDensities,1.25|1.25|1.25|1.25|1.25|1.25
;   useMinPrintHeight,0
;   minPrintHeight,0
;   useMaxPrintHeight,0
;   maxPrintHeight,0
;   useDiaphragm,0
;   diaphragmLayerInterval,20
;   robustSlicing,1
;   mergeAllIntoSolid,0
;   onlyRetractWhenCrossingOutline,1
;   retractBetweenLayers,1
;   useRetractionMinTravel,0
;   retractionMinTravel,3
;   retractWhileWiping,0
;   onlyWipeOutlines,1
;   avoidCrossingOutline,0
;   maxMovementDetourFactor,3
;   toolChangeRetractionDistance,12
;   toolChangeExtraRestartDistance,-0.5
;   toolChangeRetractionSpeed,600
;   externalThinWallType,0
;   internalThinWallType,2
;   thinWallAllowedOverlapPercentage,10
;   singleExtrusionMinLength,1
;   singleExtrusionMinPrintingWidthPercentage,50
;   singleExtrusionMaxPrintingWidthPercentage,200
;   singleExtrusionEndpointExtension,0.2
;   horizontalSizeCompensation,0
G90
M82
M106 S0
M140 S109
M190 S109
M104 S240 T0
M109 S240 T0
G28 ; home all axes
; process Process1
; layer 1, Z = 0.400
T0
G92 E0.0000
G1 E-1.0000 F1800
; feature skirt
; tool H0.400 W0.600
G1 Z0.400 F1002
G1 X74.826 Y73.020 F4800
G1 E0.0000 F1800
G92 E0.0000
G1 X75.493 Y72.403 E0.0925 F720
G1 X75.920 Y72.074 E0.1474
G1 X76.975 Y71.406 E0.2744
G1 X77.602 Y71.106 E0.3452
G1 X78.807 Y70.695 E0.4748
G1 X79.403 Y70.558 E0.5370
G1 X80.510 Y70.422 E0.6506
G1 X80.870 Y70.400 E0.6872
G1 X109.060 Y70.400 E3.5563
G1 X109.281 Y70.409 E3.5788
G1 X110.029 Y70.465 E3.6551
G1 X110.466 Y70.531 E3.7001
G1 X111.304 Y70.722 E3.7876
G1 X111.727 Y70.853 E3.8326
G1 X112.527 Y71.167 E3.9201
G1 X112.925 Y71.359 E3.9651
G1 X113.718 Y71.817 E4.0583
G1 X114.169 Y72.138 E4.1146
G1 X115.063 Y72.909 E4.2349
G1 X115.442 Y73.303 E4.2905
G1 X116.012 Y74.016 E4.3833
G1 X116.261 Y74.381 E4.4283
G1 X116.691 Y75.125 E4.5158
G1 X116.883 Y75.523 E4.5608
G1 X117.198 Y76.324 E4.6483
G1 X117.328 Y76.746 E4.6933
G1 X117.520 Y77.584 E4.7808
G1 X117.586 Y78.022 E4.8258
G1 X117.642 Y78.769 E4.9021
G1 X117.650 Y78.990 E4.9246
G1 X117.650 Y117.036 E8.7968
G1 X117.637 Y117.309 E8.8246
G1 X117.569 Y118.046 E8.8999
G1 X117.469 Y118.582 E8.9554
G1 X117.229 Y119.425 E9.0447
G1 X117.032 Y119.934 E9.1002
G1 X116.641 Y120.719 E9.1895
G1 X116.353 Y121.183 E9.2450
G1 X115.785 Y121.935 E9.3409
G1 X115.319 Y122.424 E9.4097
G1 X114.408 Y123.183 E9.5304
G1 X113.833 Y123.559 E9.6003
G1 X112.985 Y123.981 E9.6967
G1 X112.476 Y124.178 E9.7523
G1 X111.632 Y124.419 E9.8415
G1 X111.096 Y124.519 E9.8970
G1 X110.359 Y124.587 E9.9724
G1 X110.086 Y124.600 E10.0001
G1 X80.940 Y124.600 E12.9666
G1 X80.719 Y124.591 E12.9891
G1 X79.971 Y124.535 E13.0654
G1 X79.534 Y124.469 E13.1103
G1 X78.696 Y124.278 E13.1979
G1 X78.274 Y124.147 E13.2429
G1 X77.473 Y123.833 E13.3304
G1 X77.075 Y123.641 E13.3754
G1 X76.282 Y123.183 E13.4686
G1 X75.831 Y122.862 E13.5249
G1 X74.937 Y122.091 E13.6451
G1 X74.558 Y121.697 E13.7007
G1 X73.988 Y120.984 E13.7936
G1 X73.739 Y120.619 E13.8385
G1 X73.309 Y119.875 E13.9261
G1 X73.117 Y119.477 E13.9710
G1 X72.802 Y118.676 E14.0586
G1 X72.672 Y118.254 E14.1036
G1 X72.480 Y117.415 E14.1911
G1 X72.414 Y116.978 E14.2361
G1 X72.358 Y116.231 E14.3124
G1 X72.350 Y116.010 E14.3348
G1 X72.350 Y78.990 E18.1026
G1 X72.358 Y78.769 E18.1251
G1 X72.414 Y78.022 E18.2014
G1 X72.480 Y77.584 E18.2464
G1 X72.672 Y76.746 E18.3339
G1 X72.802 Y76.324 E18.3789
G1 X73.117 Y75.523 E18.4664
G1 X73.309 Y75.125 E18.5114
G1 X73.739 Y74.381 E18.5989
G1 X73.988 Y74.016 E18.6439
G1 X74.525 Y73.344 E18.7314
G1 X74.826 Y73.020 E18.7764
G92 E0.0000
G1 E-1.0000 F1800
G1 X75.250 Y73.445 F4800
G1 E0.0000 F1800
G92 E0.0000
G1 X75.880 Y72.862 E0.0874 F720
G1 X76.264 Y72.566 E0.1367
G1 X77.266 Y71.932 E0.2574
G1 X77.829 Y71.662 E0.3209
G1 X78.972 Y71.273 E0.4438
G1 X79.507 Y71.150 E0.4996
G1 X80.565 Y71.020 E0.6082
G1 X80.888 Y71.000 E0.6411
G1 X109.049 Y71.000 E3.5073
G1 X109.248 Y71.008 E3.5275
G1 X109.961 Y71.061 E3.6003
G1 X110.354 Y71.120 E3.6407
G1 X111.149 Y71.302 E3.7237
G1 X111.528 Y71.419 E3.7641
G1 X112.286 Y71.717 E3.8470
G1 X112.644 Y71.890 E3.8874
G1 X113.393 Y72.323 E3.9755
G1 X113.798 Y72.611 E4.0261
G1 X114.650 Y73.346 E4.1406
G1 X114.991 Y73.699 E4.1906
G1 X115.529 Y74.373 E4.2783
G1 X115.753 Y74.701 E4.3187
G1 X116.160 Y75.406 E4.4016
G1 X116.333 Y75.764 E4.4420
G1 X116.631 Y76.522 E4.5250
G1 X116.748 Y76.902 E4.5654
G1 X116.930 Y77.696 E4.6484
G1 X116.989 Y78.089 E4.6888
G1 X117.043 Y78.803 E4.7616
G1 X117.050 Y79.001 E4.7818
G1 X117.050 Y117.022 E8.6515
G1 X117.039 Y117.267 E8.6764
G1 X116.974 Y117.963 E8.7475
G1 X116.884 Y118.445 E8.7974
G1 X116.659 Y119.235 E8.8810
G1 X116.482 Y119.692 E8.9309
G1 X116.116 Y120.427 E9.0145
G1 X115.858 Y120.844 E9.0644
G1 X115.327 Y121.546 E9.1539
G1 X114.908 Y121.985 E9.2158
G1 X114.050 Y122.700 E9.3294
G1 X113.534 Y123.037 E9.3922
G1 X112.742 Y123.432 E9.4822
G1 X112.285 Y123.609 E9.5321
G1 X111.495 Y123.834 E9.6157
G1 X111.013 Y123.924 E9.6656
G1 X110.317 Y123.988 E9.7367
G1 X110.073 Y124.000 E9.7616
G1 X80.951 Y124.000 E12.7255
G1 X80.752 Y123.992 E12.7457
G1 X80.039 Y123.939 E12.8186
G1 X79.646 Y123.880 E12.8590
G1 X78.851 Y123.698 E12.9420
G1 X78.472 Y123.581 E12.9824
G1 X77.713 Y123.283 E13.0653
G1 X77.356 Y123.110 E13.1057
G1 X76.607 Y122.677 E13.1938
G1 X76.202 Y122.389 E13.2444
G1 X75.350 Y121.654 E13.3589
G1 X75.009 Y121.301 E13.4089
G1 X74.471 Y120.627 E13.4966
G1 X74.247 Y120.299 E13.5370
G1 X73.840 Y119.594 E13.6199
G1 X73.667 Y119.236 E13.6603
G1 X73.369 Y118.478 E13.7433
G1 X73.252 Y118.098 E13.7837
G1 X73.070 Y117.304 E13.8666
G1 X73.011 Y116.911 E13.9071
G1 X72.957 Y116.197 E13.9799
G1 X72.950 Y115.999 E14.0001
G1 X72.950 Y79.001 E17.7656
G1 X72.957 Y78.803 E17.7858
G1 X73.011 Y78.089 E17.8587
G1 X73.070 Y77.696 E17.8991
G1 X73.252 Y76.902 E17.9820
G1 X73.369 Y76.522 E18.0224
G1 X73.667 Y75.764 E18.1054
G1 X73.840 Y75.406 E18.1458
G1 X74.247 Y74.701 E18.2287
G1 X74.471 Y74.373 E18.2691
G1 X74.980 Y73.736 E18.3521
G1 X75.250 Y73.445 E18.3925
G92 E0.0000
G1 E-1.0000 F1800
; feature inner perimeter
G1 X80.502 Y78.668 F4800
G1 E0.0000 F1800
G92 E0.0000
G1 X80.642 Y78.538 E0.0195 F540
G1 X80.751 Y78.474 E0.0323
G1 X80.858 Y78.432 E0.0440
G1 X80.891 Y78.424 E0.0475
G1 X80.936 Y78.415 E0.0522
G1 X81.129 Y78.400 E0.0718
G1 X103.990 Y78.400 E2.3986
G1 X103.669 Y78.938 E2.4624
G1 X103.501 Y79.252 E2.4985
G1 X103.363 Y79.621 E2.5387
G1 X103.260 Y79.961 E2.5749
G1 X103.179 Y80.403 E2.6206
G1 X103.147 Y81.095 E2.6910
G1 X103.253 Y81.837 E2.7673
G1 X103.495 Y82.546 E2.8436
G1 X103.865 Y83.198 E2.9199
G1 X104.350 Y83.769 E2.9961
G1 X104.933 Y84.241 E3.0724
G1 X105.593 Y84.595 E3.1487
G1 X106.308 Y84.820 E3.2250
G1 X107.053 Y84.908 E3.3013
G1 X107.800 Y84.856 E3.3776
G1 X108.525 Y84.665 E3.4539
G1 X109.155 Y84.365 E3.5249
G1 X109.650 Y84.038 E3.5852
G1 X109.650 Y110.962 E6.3255
G1 X109.155 Y110.635 E6.3859
G1 X108.525 Y110.335 E6.4569
G1 X107.800 Y110.144 E6.5332
G1 X107.053 Y110.092 E6.6094
G1 X106.308 Y110.180 E6.6857
G1 X105.593 Y110.405 E6.7620
G1 X104.933 Y110.759 E6.8383
G1 X104.350 Y111.231 E6.9146
G1 X103.865 Y111.802 E6.9909
G1 X103.495 Y112.454 E7.0672
G1 X103.253 Y113.163 E7.1434
G1 X103.154 Y113.857 E7.2147
G1 X103.154 Y114.342 E7.2642
G1 X103.253 Y115.036 E7.3355
G1 X103.495 Y115.745 E7.4117
G1 X103.980 Y116.600 E7.5117
G1 X86.058 Y116.600 E9.3357
G1 X86.581 Y115.566 E9.4536
G1 X86.789 Y114.846 E9.5299
G1 X86.859 Y114.100 E9.6062
G1 X86.789 Y113.353 E9.6825
G1 X86.581 Y112.633 E9.7588
G1 X86.243 Y111.964 E9.8351
G1 X85.786 Y111.371 E9.9113
G1 X85.260 Y110.903 E9.9829
G1 X84.855 Y110.635 E10.0323
G1 X84.225 Y110.335 E10.1034
G1 X83.500 Y110.144 E10.1796
G1 X82.753 Y110.092 E10.2559
G1 X82.008 Y110.180 E10.3322
G1 X81.293 Y110.405 E10.4085
G1 X80.350 Y110.911 E10.5174
G1 X80.350 Y79.179 E13.7470
G1 X80.364 Y78.998 E13.7655
G1 X80.387 Y78.897 E13.7760
G1 X80.424 Y78.802 E13.7864
G1 X80.502 Y78.668 E13.8022
G1 X80.037 Y78.291 F4800
G92 E0.0000
G1 X80.081 Y78.240 E0.0069 F540
G1 X80.265 Y78.069 E0.0325
G1 X80.303 Y78.041 E0.0373
G1 X80.490 Y77.932 E0.0593
G1 X80.677 Y77.859 E0.0798
G1 X80.758 Y77.839 E0.0882
G1 X80.850 Y77.820 E0.0978
G1 X81.106 Y77.800 E0.1240
G1 X105.579 Y77.800 E2.6147
G1 X104.776 Y78.460 E2.7205
G1 X104.555 Y78.712 E2.7546
G1 X104.363 Y78.946 E2.7853
G1 X104.191 Y79.234 E2.8195
G1 X104.049 Y79.500 E2.8502
G1 X103.931 Y79.814 E2.8843
G1 X103.844 Y80.102 E2.9150
G1 X103.777 Y80.471 E2.9532
G1 X103.749 Y81.066 E3.0138
G1 X103.839 Y81.696 E3.0786
G1 X104.045 Y82.299 E3.1434
G1 X104.359 Y82.853 E3.2082
G1 X104.771 Y83.338 E3.2730
G1 X105.266 Y83.739 E3.3378
G1 X105.827 Y84.040 E3.4026
G1 X106.435 Y84.231 E3.4674
G1 X107.067 Y84.305 E3.5322
G1 X107.702 Y84.261 E3.5970
G1 X108.318 Y84.099 E3.6618
G1 X108.859 Y83.841 E3.7229
G1 X109.194 Y83.620 E3.7636
G1 X109.644 Y83.219 E3.8251
G1 X109.884 Y82.908 E3.8650
G1 X110.250 Y83.032 E3.9044
G1 X110.250 Y111.968 E6.8494
G1 X109.884 Y112.092 E6.8887
G1 X109.644 Y111.781 E6.9287
G1 X109.194 Y111.380 E6.9901
G1 X108.859 Y111.159 E7.0309
G1 X108.318 Y110.901 E7.0919
G1 X107.702 Y110.739 E7.1567
G1 X107.067 Y110.695 E7.2215
G1 X106.435 Y110.769 E7.2863
G1 X105.827 Y110.960 E7.3511
G1 X105.266 Y111.261 E7.4160
G1 X104.771 Y111.662 E7.4808
G1 X104.359 Y112.147 E7.5456
G1 X104.045 Y112.701 E7.6104
G1 X103.839 Y113.304 E7.6752
G1 X103.754 Y113.899 E7.7364
G1 X103.754 Y114.300 E7.7772
G1 X103.839 Y114.896 E7.8384
G1 X104.045 Y115.498 E7.9032
G1 X104.359 Y116.052 E7.9680
G1 X104.771 Y116.538 E8.0328
G1 X105.590 Y117.200 E8.1400
G1 X84.467 Y117.200 E10.2899
G1 X85.344 Y116.418 E10.4095
G1 X85.733 Y115.914 E10.4743
G1 X86.020 Y115.346 E10.5391
G1 X86.197 Y114.734 E10.6039
G1 X86.257 Y114.100 E10.6687
G1 X86.197 Y113.466 E10.7335
G1 X86.020 Y112.854 E10.7984
G1 X85.733 Y112.286 E10.8632
G1 X85.344 Y111.781 E10.9280
G1 X84.893 Y111.380 E10.9894
G1 X84.559 Y111.159 E11.0302
G1 X84.018 Y110.901 E11.0912
G1 X83.402 Y110.739 E11.1560
G1 X82.767 Y110.695 E11.2208
G1 X82.135 Y110.769 E11.2856
G1 X81.527 Y110.960 E11.3504
G1 X80.966 Y111.261 E11.4152
G1 X80.471 Y111.662 E11.4801
G1 X79.750 Y112.511 E11.5934
G1 X79.750 Y79.156 E14.9882
G1 X79.769 Y78.908 E15.0135
G1 X79.812 Y78.720 E15.0332
G1 X79.882 Y78.540 E15.0528
G1 X79.990 Y78.353 E15.0748
G1 X80.037 Y78.291 E15.0827
G92 E0.0000
G1 E-1.0000 F1800
G1 X109.884 Y116.107 F4800
G1 E0.0000 F1800
G92 E0.0000
G1 X110.250 Y116.232 E0.0394 F540
G1 X110.250 Y116.830 E0.1003
G1 X110.239 Y116.952 E0.1128
G1 X110.224 Y117.003 E0.1181
G1 X110.201 Y117.051 E0.1236
G1 X110.158 Y117.108 E0.1308
G1 X110.101 Y117.150 E0.1380
G1 X110.054 Y117.174 E0.1434
G1 X110.003 Y117.188 E0.1488
G1 X109.880 Y117.200 E0.1613
G1 X108.767 Y117.200 E0.2747
G1 X109.644 Y116.418 E0.3943
G1 X109.884 Y116.107 E0.4342
G1 X110.850 Y116.858 F4800
G92 E0.0000
G1 X110.831 Y117.063 E0.0210 F540
G1 X110.786 Y117.221 E0.0377
G1 X110.713 Y117.368 E0.0544
G1 X110.601 Y117.516 E0.0732
G1 X110.566 Y117.551 E0.0783
G1 X110.418 Y117.663 E0.0971
G1 X110.272 Y117.736 E0.1138
G1 X110.114 Y117.781 E0.1305
G1 X109.908 Y117.800 E0.1515
G1 X81.084 Y117.800 E3.0852
G1 X80.768 Y117.776 E3.1174
G1 X80.484 Y117.711 E3.1470
G1 X80.355 Y117.663 E3.1611
G1 X80.236 Y117.614 E3.1742
G1 X79.984 Y117.468 E3.2038
G1 X79.749 Y117.281 E3.2344
G1 X79.669 Y117.200 E3.2459
G1 X79.482 Y116.966 E3.2765
G1 X79.340 Y116.721 E3.3053
G1 X79.237 Y116.458 E3.3340
G1 X79.174 Y116.182 E3.3628
G1 X79.150 Y115.866 E3.3951
G1 X79.150 Y79.134 E7.1335
G1 X79.174 Y78.818 E7.1658
G1 X79.237 Y78.542 E7.1946
G1 X79.340 Y78.279 E7.2234
G1 X79.489 Y78.022 E7.2536
G1 X79.568 Y77.916 E7.2670
