; G-Code generated by Simplify3D(R) Version 4.1.2
; Feb 6, 2021 at 9:54:38 PM
; Settings Summary
;   processName,Process1
;   applyToModels,[a]_xy_joint_cable_bridge_generic
;   profileName,Monoprice Maker Select (modified)
;   profileVersion,2016-06-08 08:00:00
;   baseProfile,
;   printMaterial,ABS
;   printQuality,High
;   printExtruders,
;   extruderName,Primary Extruder
;   extruderToolheadNumber,0
;   extruderDiameter,0.4
;   extruderAutoWidth,0
;   extruderWidth,0.4
;   extrusionMultiplier,1.02
;   extruderUseRetract,1
;   extruderRetractionDistance,1
;   extruderExtraRestartDistance,0
;   extruderRetractionZLift,0
;   extruderRetractionSpeed,1800
;   extruderUseCoasting,0
;   extruderCoastingDistance,0.2
;   extruderUseWipe,0
;   extruderWipeDistance,5
;   primaryExtruder,0
;   layerHeight,0.2
;   topSolidLayers,5
;   bottomSolidLayers,5
;   perimeterOutlines,4
;   printPerimetersInsideOut,1
;   startPointOption,2
;   startPointOriginX,0
;   startPointOriginY,0
;   sequentialIslands,0
;   spiralVaseMode,0
;   firstLayerHeightPercentage,200
;   firstLayerWidthPercentage,150
;   firstLayerUnderspeed,0.2
;   useRaft,0
;   raftExtruder,0
;   raftTopLayers,3
;   raftBaseLayers,2
;   raftOffset,3
;   raftSeparationDistance,0.14
;   raftTopInfill,100
;   aboveRaftSpeedMultiplier,0.3
;   useSkirt,1
;   skirtExtruder,0
;   skirtLayers,1
;   skirtOutlines,2
;   skirtOffset,5
;   usePrimePillar,0
;   primePillarExtruder,999
;   primePillarWidth,12
;   primePillarLocation,7
;   primePillarSpeedMultiplier,1
;   useOozeShield,0
;   oozeShieldExtruder,999
;   oozeShieldOffset,2
;   oozeShieldOutlines,1
;   oozeShieldSidewallShape,1
;   oozeShieldSidewallAngle,20
;   oozeShieldSpeedMultiplier,1
;   infillExtruder,0
;   internalInfillPattern,Rectilinear
;   externalInfillPattern,Rectilinear
;   infillPercentage,40
;   outlineOverlapPercentage,25
;   infillExtrusionWidthPercentage,150
;   minInfillLength,5
;   infillLayerInterval,1
;   internalInfillAngles,45,-45
;   overlapInternalInfillAngles,0
;   externalInfillAngles,45,-45
;   generateSupport,0
;   supportExtruder,0
;   supportInfillPercentage,40
;   supportExtraInflation,0
;   supportBaseLayers,0
;   denseSupportExtruder,0
;   denseSupportLayers,0
;   denseSupportInfillPercentage,70
;   supportLayerInterval,1
;   supportHorizontalPartOffset,0.3
;   supportUpperSeparationLayers,1
;   supportLowerSeparationLayers,1
;   supportType,0
;   supportGridSpacing,4
;   maxOverhangAngle,45
;   supportAngles,0
;   temperatureName,Primary Extruder,Heated Bed
;   temperatureNumber,0,0
;   temperatureSetpointCount,1,1
;   temperatureSetpointLayers,1,1
;   temperatureSetpointTemperatures,240,109
;   temperatureStabilizeAtStartup,1,1
;   temperatureHeatedBed,0,1
;   fanLayers,1
;   fanSpeeds,0
;   blipFanToFullPower,0
;   adjustSpeedForCooling,1
;   minSpeedLayerTime,15
;   minCoolingSpeedSlowdown,20
;   increaseFanForCooling,0
;   minFanLayerTime,45
;   maxCoolingFanSpeed,100
;   increaseFanForBridging,0
;   bridgingFanSpeed,100
;   use5D,1
;   relativeEdistances,0
;   allowEaxisZeroing,1
;   independentExtruderAxes,0
;   includeM10123,0
;   stickySupport,1
;   applyToolheadOffsets,0
;   gcodeXoffset,0
;   gcodeYoffset,0
;   gcodeZoffset,0
;   overrideMachineDefinition,1
;   machineTypeOverride,0
;   strokeXoverride,190
;   strokeYoverride,195
;   strokeZoverride,180
;   originOffsetXoverride,0
;   originOffsetYoverride,0
;   originOffsetZoverride,0
;   homeXdirOverride,-1
;   homeYdirOverride,-1
;   homeZdirOverride,-1
;   flipXoverride,1
;   flipYoverride,-1
;   flipZoverride,1
;   toolheadOffsets,0,0|0,0|0,0|0,0|0,0|0,0
;   overrideFirmwareConfiguration,1
;   firmwareTypeOverride,RepRap (Marlin/Repetier/Sprinter)
;   GPXconfigOverride,r2
;   baudRateOverride,115200
;   overridePrinterModels,1
;   printerModelsOverride
;   startingGcode,G28 ; home all axes
;   layerChangeGcode,
;   retractionGcode,
;   toolChangeGcode,
;   endingGcode,G28 X0 ; home X-axis,M104 S0 ; turn off extruder,M140 S0 ; turn off bed,M84 ; disable motors
;   exportFileFormat,gcode
;   celebration,0
;   celebrationSong,Random Song
;   postProcessing,
;   defaultSpeed,3600
;   outlineUnderspeed,0.5
;   solidInfillUnderspeed,0.8
;   supportUnderspeed,0.8
;   rapidXYspeed,4800
;   rapidZspeed,1002
;   minBridgingArea,50
;   bridgingExtraInflation,0
;   bridgingExtrusionMultiplier,1
;   bridgingSpeedMultiplier,1
;   useFixedBridgingAngle,0
;   fixedBridgingAngle,0
;   applyBridgingToPerimeters,0
;   filamentDiameters,1.75|1.75|1.75|1.75|1.75|1.75
;   filamentPricesPerKg,46|46|46|46|46|46
;   filamentDensities,1.25|1.25|1.25|1.25|1.25|1.25
;   useMinPrintHeight,0
;   minPrintHeight,0
;   useMaxPrintHeight,0
;   maxPrintHeight,0
;   useDiaphragm,0
;   diaphragmLayerInterval,20
;   robustSlicing,1
;   mergeAllIntoSolid,0
;   onlyRetractWhenCrossingOutline,1
;   retractBetweenLayers,1
;   useRetractionMinTravel,0
;   retractionMinTravel,3
;   retractWhileWiping,0
;   onlyWipeOutlines,1
;   avoidCrossingOutline,0
;   maxMovementDetourFactor,3
;   toolChangeRetractionDistance,12
;   toolChangeExtraRestartDistance,-0.5
;   toolChangeRetractionSpeed,600
;   externalThinWallType,0
;   internalThinWallType,2
;   thinWallAllowedOverlapPercentage,10
;   singleExtrusionMinLength,1
;   singleExtrusionMinPrintingWidthPercentage,50
;   singleExtrusionMaxPrintingWidthPercentage,200
;   singleExtrusionEndpointExtension,0.2
;   horizontalSizeCompensation,0
G90
M82
M106 S0
M140 S109
M190 S109
M104 S240 T0
M109 S240 T0
G28 ; home all axes
; process Process1
; layer 1, Z = 0.400
T0
G92 E0.0000
G1 E-1.0000 F1800
; feature skirt
; tool H0.400 W0.600
G1 Z0.400 F1002
G1 X68.600 Y63.458 F4800
G1 E0.0000 F1800
G92 E0.0000
G1 X72.056 Y60.002 E0.4975 F720
G1 X78.667 Y60.002 E1.1703
G1 X79.002 Y60.021 E1.2044
G1 X81.603 Y60.317 E1.4708
G1 X84.599 Y63.672 E1.9286
G1 X84.612 Y87.803 E4.3845
G1 X84.615 Y87.830 E4.3873
G1 X84.671 Y88.126 E4.4180
G1 X84.745 Y88.352 E4.4421
G1 X84.854 Y88.583 E4.4681
G1 X84.987 Y88.794 E4.4936
G1 X85.194 Y89.020 E4.5248
G1 X85.376 Y89.173 E4.5490
G1 X85.576 Y89.303 E4.5732
G1 X114.389 Y103.209 E7.8293
G1 X114.520 Y103.276 E7.8443
G1 X115.158 Y103.624 E7.9183
G1 X115.437 Y103.798 E7.9518
G1 X116.355 Y104.441 E8.0659
G1 X116.713 Y104.736 E8.1130
G1 X117.695 Y105.685 E8.2520
G1 X118.014 Y106.048 E8.3012
G1 X118.777 Y107.076 E8.4315
G1 X119.022 Y107.466 E8.4784
G1 X119.617 Y108.600 E8.6087
G1 X119.805 Y109.045 E8.6579
G1 X120.236 Y110.350 E8.7978
G1 X120.349 Y110.817 E8.8467
G1 X120.548 Y112.079 E8.9768
G1 X120.584 Y112.536 E9.0234
G1 X120.600 Y129.957 E10.7964
G1 X120.499 Y130.727 E10.8754
G1 X120.137 Y132.079 E11.0179
G1 X119.161 Y133.610 E11.2027
G1 X117.565 Y134.950 E11.4148
G1 X115.613 Y135.661 E11.6262
G1 X102.817 Y135.675 E12.9286
G1 X102.638 Y135.669 E12.9468
G1 X101.964 Y135.629 E13.0155
G1 X101.590 Y135.583 E13.0539
G1 X100.639 Y135.402 E13.1524
G1 X100.243 Y135.298 E13.1940
G1 X99.485 Y135.042 E13.2755
G1 X99.117 Y134.889 E13.3160
G1 X98.189 Y134.428 E13.4215
G1 X97.742 Y134.154 E13.4748
G1 X96.727 Y133.400 E13.6036
G1 X96.307 Y133.021 E13.6612
G1 X95.499 Y132.137 E13.7830
G1 X95.177 Y131.713 E13.8372
G1 X94.551 Y130.713 E13.9573
G1 X94.309 Y130.238 E14.0115
G1 X93.893 Y129.195 E14.1258
G1 X93.766 Y128.795 E14.1685
G1 X93.575 Y128.004 E14.2514
G1 X93.506 Y127.594 E14.2937
G1 X93.417 Y126.674 E14.3877
G1 X93.403 Y126.392 E14.4165
G1 X93.400 Y122.177 E14.8455
G1 X72.201 Y111.958 E17.2407
G1 X70.917 Y110.780 E17.4180
G1 X69.975 Y109.192 E17.6059
G1 X69.798 Y108.842 E17.6459
G1 X69.348 Y107.785 E17.7628
G1 X69.245 Y107.506 E17.7930
G1 X69.037 Y106.839 E17.8642
G1 X68.963 Y106.551 E17.8944
G1 X68.733 Y105.424 E18.0115
G1 X68.680 Y105.031 E18.0518
G1 X68.607 Y103.933 E18.1639
G1 X68.600 Y103.735 E18.1840
G1 X68.600 Y63.458 E22.2832
G92 E0.0000
G1 E-1.0000 F1800
G1 X69.200 Y63.706 F4800
G1 E0.0000 F1800
G92 E0.0000
G1 X72.305 Y60.602 E0.4469 F720
G1 X78.650 Y60.602 E1.0927
G1 X78.951 Y60.619 E1.1233
G1 X81.307 Y60.887 E1.3647
G1 X83.999 Y63.901 E1.7760
G1 X84.012 Y87.829 E4.2112
G1 X84.019 Y87.912 E4.2197
G1 X84.089 Y88.276 E4.2574
G1 X84.186 Y88.573 E4.2893
G1 X84.327 Y88.871 E4.3228
G1 X84.506 Y89.157 E4.3572
G1 X84.510 Y89.162 E4.3578
G1 X84.778 Y89.454 E4.3982
G1 X85.018 Y89.656 E4.4300
G1 X85.281 Y89.827 E4.4620
G1 X114.121 Y103.746 E7.7212
G1 X114.239 Y103.806 E7.7346
G1 X114.855 Y104.143 E7.8061
G1 X115.107 Y104.299 E7.8362
G1 X115.992 Y104.919 E7.9462
G1 X116.313 Y105.184 E7.9886
G1 X117.260 Y106.099 E8.1227
G1 X117.547 Y106.425 E8.1669
G1 X118.282 Y107.415 E8.2923
G1 X118.502 Y107.765 E8.3344
G1 X119.074 Y108.856 E8.4598
G1 X119.243 Y109.256 E8.5040
G1 X119.659 Y110.515 E8.6389
G1 X119.761 Y110.935 E8.6828
G1 X119.952 Y112.150 E8.8080
G1 X119.984 Y112.560 E8.8499
G1 X120.000 Y129.918 E10.6166
G1 X119.910 Y130.610 E10.6875
G1 X119.581 Y131.834 E10.8166
G1 X118.705 Y133.210 E10.9826
G1 X117.260 Y134.422 E11.1745
G1 X115.507 Y135.061 E11.3645
G1 X102.825 Y135.075 E12.6552
G1 X102.665 Y135.070 E12.6715
G1 X102.019 Y135.031 E12.7373
G1 X101.683 Y134.990 E12.7719
G1 X100.771 Y134.817 E12.8663
G1 X100.416 Y134.723 E12.9037
G1 X99.697 Y134.480 E12.9809
G1 X99.366 Y134.343 E13.0174
G1 X98.480 Y133.903 E13.1180
G1 X98.079 Y133.657 E13.1660
G1 X97.108 Y132.936 E13.2891
G1 X96.730 Y132.595 E13.3408
G1 X95.961 Y131.752 E13.4569
G1 X95.671 Y131.371 E13.5056
G1 X95.073 Y130.418 E13.6202
G1 X94.857 Y129.991 E13.6689
G1 X94.459 Y128.993 E13.7783
G1 X94.344 Y128.633 E13.8167
G1 X94.163 Y127.883 E13.8952
G1 X94.101 Y127.515 E13.9332
G1 X94.015 Y126.631 E14.0236
G1 X94.003 Y126.378 E14.0494
G1 X94.000 Y122.053 E14.4895
G1 X93.986 Y121.855 E14.5098
G1 X93.979 Y121.833 E14.5122
G1 X93.974 Y121.822 E14.5134
G1 X93.967 Y121.812 E14.5146
G1 X93.950 Y121.794 E14.5172
G1 X93.763 Y121.685 E14.5392
G1 X72.541 Y111.456 E16.9369
G1 X71.388 Y110.398 E17.0961
G1 X70.501 Y108.903 E17.2730
G1 X70.342 Y108.589 E17.3089
G1 X69.906 Y107.564 E17.4222
G1 X69.814 Y107.314 E17.4494
G1 X69.615 Y106.675 E17.5175
G1 X69.548 Y106.417 E17.5446
G1 X69.325 Y105.324 E17.6581
G1 X69.278 Y104.971 E17.6943
G1 X69.206 Y103.902 E17.8033
G1 X69.200 Y103.725 E17.8214
G1 X69.200 Y63.706 E21.8943
G92 E0.0000
G1 E-1.0000 F1800
; feature inner perimeter
G1 X76.600 Y90.693 F4800
G1 E0.0000 F1800
G92 E0.0000
G1 X77.047 Y90.614 E0.0462 F540
G1 X77.298 Y91.309 E0.1213
G1 X77.546 Y91.881 E0.1848
G1 X77.827 Y92.430 E0.2476
G1 X78.089 Y92.877 E0.3003
G1 X78.430 Y93.391 E0.3631
G1 X78.806 Y93.888 E0.4265
G1 X79.214 Y94.360 E0.4900
G1 X79.650 Y94.805 E0.5534
G1 X80.113 Y95.222 E0.6168
G1 X80.602 Y95.609 E0.6803
G1 X81.114 Y95.964 E0.7438
G1 X81.648 Y96.287 E0.8072
G1 X82.171 Y96.560 E0.8673
G1 X88.407 Y99.566 E1.5718
G1 X87.693 Y99.966 E1.6552
G1 X87.307 Y100.281 E1.7059
G1 X86.982 Y100.659 E1.7566
G1 X86.727 Y101.087 E1.8073
G1 X86.551 Y101.553 E1.8580
G1 X86.458 Y102.042 E1.9087
G1 X86.452 Y102.541 E1.9594
G1 X86.532 Y103.032 E2.0101
G1 X86.696 Y103.502 E2.0608
G1 X86.940 Y103.937 E2.1115
G1 X87.255 Y104.323 E2.1622
G1 X87.632 Y104.648 E2.2129
G1 X87.986 Y104.858 E2.2548
G1 X89.780 Y105.711 E2.4570
G1 X89.385 Y106.531 E2.5496
G1 X87.591 Y105.666 E2.7523
G1 X87.211 Y105.522 E2.7936
G1 X86.721 Y105.430 E2.8444
G1 X86.223 Y105.423 E2.8951
G1 X85.732 Y105.503 E2.9458
G1 X85.261 Y105.668 E2.9965
G1 X84.827 Y105.911 E3.0472
G1 X84.441 Y106.227 E3.0979
G1 X84.116 Y106.604 E3.1486
G1 X83.861 Y107.032 E3.1993
G1 X83.685 Y107.498 E3.2500
G1 X83.592 Y107.988 E3.3007
G1 X83.585 Y108.564 E3.3594
G1 X77.024 Y105.402 E4.1006
G1 X76.913 Y105.163 E4.1274
G1 X76.818 Y104.919 E4.1540
G1 X76.741 Y104.669 E4.1807
G1 X76.680 Y104.415 E4.2072
G1 X76.636 Y104.157 E4.2339
G1 X76.610 Y103.897 E4.2605
G1 X76.600 Y103.601 E4.2906
G1 X76.600 Y90.693 E5.6044
G92 E0.0000
G1 E-1.0000 F1800
G1 X104.924 Y107.995 F4800
G1 E0.0000 F1800
G92 E0.0000
G1 X105.193 Y107.657 E0.0439 F540
G1 X106.435 Y108.256 E0.1843
G1 X105.545 Y109.080 E0.3078
G1 X105.333 Y108.608 E0.3605
G1 X105.060 Y108.164 E0.4135
G1 X104.924 Y107.995 E0.4356
G1 X105.449 Y112.300 F4800
G92 E0.0000
G1 X106.916 Y114.189 E0.2434 F540
G1 X107.193 Y114.489 E0.2850
G1 X107.591 Y114.791 E0.3358
G1 X108.034 Y115.019 E0.3865
G1 X108.510 Y115.166 E0.4372
G1 X109.004 Y115.228 E0.4879
G1 X109.502 Y115.204 E0.5386
G1 X109.987 Y115.093 E0.5893
G1 X110.447 Y114.900 E0.6400
G1 X110.865 Y114.630 E0.6907
G1 X111.231 Y114.292 E0.7414
G1 X111.532 Y113.895 E0.7922
G1 X111.760 Y113.451 E0.8429
G1 X111.907 Y112.975 E0.8936
G1 X111.969 Y112.481 E0.9442
G1 X111.958 Y112.256 E0.9672
G1 X112.432 Y112.177 E1.0162
G1 X112.516 Y112.467 E1.0469
G1 X112.561 Y112.695 E1.0705
G1 X112.589 Y112.934 E1.0950
G1 X112.600 Y113.215 E1.1237
G1 X112.600 Y127.674 E2.5953
G1 X108.793 Y127.674 E2.9828
G1 X109.575 Y126.892 E3.0953
G1 X109.871 Y126.515 E3.1442
G1 X110.139 Y126.071 E3.1969
G1 X110.336 Y125.633 E3.2458
G1 X110.487 Y125.148 E3.2975
G1 X110.574 Y124.663 E3.3476
G1 X110.600 Y124.237 E3.3911
G1 X110.600 Y119.399 E3.8835
G1 X110.573 Y118.956 E3.9286
G1 X110.479 Y118.457 E3.9803
G1 X110.324 Y117.973 E4.0321
G1 X110.110 Y117.511 E4.0838
G1 X109.841 Y117.080 E4.1355
G1 X109.521 Y116.686 E4.1873
G1 X109.154 Y116.333 E4.2390
G1 X108.747 Y116.029 E4.2908
G1 X108.305 Y115.778 E4.3425
G1 X107.836 Y115.583 E4.3942
G1 X107.346 Y115.448 E4.4459
G1 X106.843 Y115.374 E4.4977
G1 X106.334 Y115.363 E4.5494
G1 X105.829 Y115.415 E4.6011
G1 X105.334 Y115.529 E4.6529
G1 X104.856 Y115.703 E4.7046
G1 X104.555 Y115.858 E4.7390
G1 X103.416 Y114.389 E4.9282
G1 X104.271 Y113.725 E5.0384
G1 X104.611 Y113.425 E5.0846
G1 X104.955 Y113.033 E5.1377
G1 X105.449 Y112.300 E5.2276
G1 X105.892 Y111.845 F4800
G92 E0.0000
G1 X106.069 Y112.120 E0.0333 F540
G1 X107.374 Y113.801 E0.2499
G1 X107.598 Y114.043 E0.2834
G1 X107.912 Y114.281 E0.3236
G1 X108.261 Y114.461 E0.3636
G1 X108.637 Y114.577 E0.4036
G1 X109.027 Y114.626 E0.4436
G1 X109.420 Y114.607 E0.4836
G1 X109.803 Y114.520 E0.5236
G1 X110.166 Y114.367 E0.5637
G1 X110.496 Y114.154 E0.6037
G1 X110.784 Y113.887 E0.6437
G1 X111.022 Y113.574 E0.6837
G1 X111.202 Y113.224 E0.7238
G1 X111.318 Y112.848 E0.7638
G1 X111.367 Y112.458 E0.8038
G1 X111.348 Y112.066 E0.8438
G1 X111.261 Y111.682 E0.8838
G1 X111.108 Y111.320 E0.9238
G1 X110.929 Y111.041 E0.9576
G1 X109.892 Y109.720 E1.1285
G1 X110.160 Y109.385 E1.1722
G1 X111.072 Y109.825 E1.2752
G1 X111.422 Y110.016 E1.3158
G1 X111.601 Y110.130 E1.3373
G1 X111.828 Y110.301 E1.3663
G1 X112.096 Y110.541 E1.4030
G1 X112.290 Y110.746 E1.4316
G1 X112.470 Y110.970 E1.4609
G1 X112.632 Y111.207 E1.4901
G1 X112.776 Y111.456 E1.5194
G1 X112.899 Y111.716 E1.5486
G1 X113.000 Y111.979 E1.5773
G1 X113.099 Y112.325 E1.6140
G1 X113.154 Y112.602 E1.6427
G1 X113.188 Y112.887 E1.6719
G1 X113.200 Y113.204 E1.7042
G1 X113.200 Y128.274 E3.2380
G1 X102.945 Y128.274 E4.2817
G1 X102.653 Y128.257 E4.3115
G1 X102.527 Y128.240 E4.3244
G1 X102.349 Y128.199 E4.3431
G1 X102.114 Y128.119 E4.3682
G1 X101.944 Y128.042 E4.3873
G1 X101.834 Y127.981 E4.4000
G1 X101.622 Y127.838 E4.4261
G1 X101.484 Y127.723 E4.4443
G1 X101.351 Y127.590 E4.4635
G1 X101.230 Y127.445 E4.4827
G1 X101.123 Y127.290 E4.5019
G1 X101.030 Y127.126 E4.5211
G1 X100.953 Y126.954 E4.5403
G1 X100.892 Y126.781 E4.5589
G1 X100.834 Y126.541 E4.5841
G1 X100.810 Y126.362 E4.6025
G1 X100.803 Y126.212 E4.6177
G1 X100.800 Y122.042 E5.0422
G1 X101.306 Y122.009 E5.0937
G1 X101.357 Y122.409 E5.1348
G1 X101.387 Y122.793 E5.1740
G1 X101.400 Y124.227 E5.3199
G1 X101.423 Y124.597 E5.3576
G1 X101.499 Y125.013 E5.4007
G1 X101.625 Y125.417 E5.4438
G1 X101.798 Y125.802 E5.4868
G1 X102.017 Y126.164 E5.5298
G1 X102.278 Y126.497 E5.5729
G1 X102.577 Y126.796 E5.6159
G1 X102.910 Y127.057 E5.6590
G1 X103.272 Y127.276 E5.7020
G1 X103.658 Y127.450 E5.7451
G1 X104.062 Y127.575 E5.7881
G1 X104.478 Y127.652 E5.8312
G1 X104.855 Y127.674 E5.8696
G1 X106.548 Y127.674 E6.0420
G1 X106.937 Y127.649 E6.0817
G1 X107.349 Y127.572 E6.1243
G1 X107.748 Y127.447 E6.1668
G1 X108.114 Y127.283 E6.2077
G1 X108.485 Y127.061 E6.2517
G1 X108.819 Y126.800 E6.2948
G1 X109.125 Y126.494 E6.3388
G1 X109.376 Y126.173 E6.3803
