; G-Code generated by Simplify3D(R) Version 4.1.2
; Jan 11, 2021 at 12:15:54 PM
; Settings Summary
;   processName,Process1
;   applyToModels,z_drive_retainer_a_x2
;   profileName,Monoprice Maker Select (modified)
;   profileVersion,2016-06-08 08:00:00
;   baseProfile,
;   printMaterial,ABS
;   printQuality,High
;   printExtruders,
;   extruderName,Primary Extruder
;   extruderToolheadNumber,0
;   extruderDiameter,0.4
;   extruderAutoWidth,0
;   extruderWidth,0.4
;   extrusionMultiplier,1
;   extruderUseRetract,1
;   extruderRetractionDistance,1
;   extruderExtraRestartDistance,0
;   extruderRetractionZLift,0
;   extruderRetractionSpeed,1800
;   extruderUseCoasting,0
;   extruderCoastingDistance,0.2
;   extruderUseWipe,0
;   extruderWipeDistance,5
;   primaryExtruder,0
;   layerHeight,0.2
;   topSolidLayers,5
;   bottomSolidLayers,5
;   perimeterOutlines,4
;   printPerimetersInsideOut,1
;   startPointOption,2
;   startPointOriginX,0
;   startPointOriginY,0
;   sequentialIslands,0
;   spiralVaseMode,0
;   firstLayerHeightPercentage,200
;   firstLayerWidthPercentage,150
;   firstLayerUnderspeed,0.2
;   useRaft,0
;   raftExtruder,0
;   raftTopLayers,3
;   raftBaseLayers,2
;   raftOffset,3
;   raftSeparationDistance,0.14
;   raftTopInfill,100
;   aboveRaftSpeedMultiplier,0.3
;   useSkirt,1
;   skirtExtruder,0
;   skirtLayers,1
;   skirtOutlines,2
;   skirtOffset,1
;   usePrimePillar,0
;   primePillarExtruder,999
;   primePillarWidth,12
;   primePillarLocation,7
;   primePillarSpeedMultiplier,1
;   useOozeShield,0
;   oozeShieldExtruder,999
;   oozeShieldOffset,2
;   oozeShieldOutlines,1
;   oozeShieldSidewallShape,1
;   oozeShieldSidewallAngle,20
;   oozeShieldSpeedMultiplier,1
;   infillExtruder,0
;   internalInfillPattern,Rectilinear
;   externalInfillPattern,Rectilinear
;   infillPercentage,40
;   outlineOverlapPercentage,25
;   infillExtrusionWidthPercentage,150
;   minInfillLength,5
;   infillLayerInterval,1
;   internalInfillAngles,45,-45
;   overlapInternalInfillAngles,0
;   externalInfillAngles,45,-45
;   generateSupport,0
;   supportExtruder,0
;   supportInfillPercentage,40
;   supportExtraInflation,0
;   supportBaseLayers,0
;   denseSupportExtruder,0
;   denseSupportLayers,0
;   denseSupportInfillPercentage,70
;   supportLayerInterval,1
;   supportHorizontalPartOffset,0.3
;   supportUpperSeparationLayers,1
;   supportLowerSeparationLayers,1
;   supportType,0
;   supportGridSpacing,4
;   maxOverhangAngle,45
;   supportAngles,0
;   temperatureName,Primary Extruder,Heated Bed
;   temperatureNumber,0,0
;   temperatureSetpointCount,1,1
;   temperatureSetpointLayers,1,1
;   temperatureSetpointTemperatures,240,109
;   temperatureStabilizeAtStartup,1,1
;   temperatureHeatedBed,0,1
;   fanLayers,1
;   fanSpeeds,0
;   blipFanToFullPower,0
;   adjustSpeedForCooling,1
;   minSpeedLayerTime,15
;   minCoolingSpeedSlowdown,20
;   increaseFanForCooling,0
;   minFanLayerTime,45
;   maxCoolingFanSpeed,100
;   increaseFanForBridging,0
;   bridgingFanSpeed,100
;   use5D,1
;   relativeEdistances,0
;   allowEaxisZeroing,1
;   independentExtruderAxes,0
;   includeM10123,0
;   stickySupport,1
;   applyToolheadOffsets,0
;   gcodeXoffset,0
;   gcodeYoffset,0
;   gcodeZoffset,0
;   overrideMachineDefinition,1
;   machineTypeOverride,0
;   strokeXoverride,190
;   strokeYoverride,195
;   strokeZoverride,180
;   originOffsetXoverride,0
;   originOffsetYoverride,0
;   originOffsetZoverride,0
;   homeXdirOverride,-1
;   homeYdirOverride,-1
;   homeZdirOverride,-1
;   flipXoverride,1
;   flipYoverride,-1
;   flipZoverride,1
;   toolheadOffsets,0,0|0,0|0,0|0,0|0,0|0,0
;   overrideFirmwareConfiguration,1
;   firmwareTypeOverride,RepRap (Marlin/Repetier/Sprinter)
;   GPXconfigOverride,r2
;   baudRateOverride,115200
;   overridePrinterModels,1
;   printerModelsOverride
;   startingGcode,G28 ; home all axes
;   layerChangeGcode,
;   retractionGcode,
;   toolChangeGcode,
;   endingGcode,G28 X0 ; home X-axis,M104 S0 ; turn off extruder,M140 S0 ; turn off bed,M84 ; disable motors
;   exportFileFormat,gcode
;   celebration,0
;   celebrationSong,Random Song
;   postProcessing,
;   defaultSpeed,3600
;   outlineUnderspeed,0.5
;   solidInfillUnderspeed,0.8
;   supportUnderspeed,0.8
;   rapidXYspeed,4800
;   rapidZspeed,1002
;   minBridgingArea,50
;   bridgingExtraInflation,0
;   bridgingExtrusionMultiplier,1
;   bridgingSpeedMultiplier,1
;   useFixedBridgingAngle,0
;   fixedBridgingAngle,0
;   applyBridgingToPerimeters,0
;   filamentDiameters,1.75|1.75|1.75|1.75|1.75|1.75
;   filamentPricesPerKg,46|46|46|46|46|46
;   filamentDensities,1.25|1.25|1.25|1.25|1.25|1.25
;   useMinPrintHeight,0
;   minPrintHeight,0
;   useMaxPrintHeight,0
;   maxPrintHeight,0
;   useDiaphragm,0
;   diaphragmLayerInterval,20
;   robustSlicing,1
;   mergeAllIntoSolid,0
;   onlyRetractWhenCrossingOutline,1
;   retractBetweenLayers,1
;   useRetractionMinTravel,0
;   retractionMinTravel,3
;   retractWhileWiping,0
;   onlyWipeOutlines,1
;   avoidCrossingOutline,0
;   maxMovementDetourFactor,3
;   toolChangeRetractionDistance,12
;   toolChangeExtraRestartDistance,-0.5
;   toolChangeRetractionSpeed,600
;   externalThinWallType,0
;   internalThinWallType,2
;   thinWallAllowedOverlapPercentage,10
;   singleExtrusionMinLength,1
;   singleExtrusionMinPrintingWidthPercentage,50
;   singleExtrusionMaxPrintingWidthPercentage,200
;   singleExtrusionEndpointExtension,0.2
;   horizontalSizeCompensation,0
G90
M82
M106 S0
M140 S109
M190 S109
M104 S240 T0
M109 S240 T0
G28 ; home all axes
; process Process1
; layer 1, Z = 0.400
T0
G92 E0.0000
G1 E-1.0000 F1800
; feature skirt
; tool H0.400 W0.600
G1 Z0.400 F1002
G1 X62.450 Y81.177 F4800
G1 E0.0000 F1800
G92 E0.0000
G1 X63.141 Y80.690 E0.0844 F720
G1 X63.260 Y80.618 E0.0983
G1 X64.015 Y80.237 E0.1827
G1 X64.144 Y80.183 E0.1966
G1 X64.914 Y79.928 E0.2775
G1 X64.981 Y79.909 E0.2845
G1 X86.439 Y74.508 E2.4923
G1 X87.039 Y74.314 E2.5553
G1 X87.552 Y74.069 E2.6120
G1 X88.029 Y73.759 E2.6688
G1 X88.460 Y73.388 E2.7255
G1 X88.838 Y72.964 E2.7822
G1 X89.157 Y72.493 E2.8389
G1 X89.411 Y71.985 E2.8956
G1 X89.596 Y71.447 E2.9524
G1 X89.708 Y70.890 E3.0091
G1 X89.750 Y70.260 E3.0721
G1 X89.750 Y68.438 E3.2539
G1 X89.758 Y68.314 E3.2663
G1 X89.810 Y67.921 E3.3058
G1 X89.874 Y67.681 E3.3306
G1 X90.049 Y67.258 E3.3763
G1 X90.174 Y67.042 E3.4012
G1 X90.453 Y66.679 E3.4469
G1 X90.629 Y66.503 E3.4717
G1 X90.992 Y66.224 E3.5174
G1 X91.208 Y66.099 E3.5423
G1 X91.631 Y65.924 E3.5880
G1 X91.871 Y65.860 E3.6128
G1 X92.264 Y65.808 E3.6523
G1 X92.388 Y65.800 E3.6647
G1 X127.412 Y65.800 E7.1594
G1 X127.536 Y65.808 E7.1719
G1 X127.928 Y65.860 E7.2113
G1 X128.169 Y65.924 E7.2362
G1 X128.592 Y66.099 E7.2819
G1 X128.808 Y66.224 E7.3067
G1 X129.171 Y66.503 E7.3524
G1 X129.347 Y66.679 E7.3772
G1 X129.626 Y67.042 E7.4229
G1 X129.751 Y67.258 E7.4478
G1 X129.926 Y67.681 E7.4935
G1 X129.990 Y67.921 E7.5183
G1 X130.042 Y68.315 E7.5580
G1 X130.050 Y68.442 E7.5707
G1 X130.032 Y74.408 E8.1660
G1 X129.948 Y74.797 E8.2057
G1 X129.662 Y75.437 E8.2756
G1 X129.473 Y75.716 E8.3092
G1 X128.700 Y76.506 E8.4195
G1 X128.298 Y77.023 E8.4848
G1 X127.965 Y77.579 E8.5495
G1 X127.700 Y78.170 E8.6141
G1 X127.508 Y78.789 E8.6788
G1 X127.392 Y79.427 E8.7435
G1 X127.350 Y80.131 E8.8138
G1 X127.350 Y112.869 E12.0805
G1 X127.392 Y113.573 E12.1509
G1 X127.509 Y114.211 E12.2155
G1 X127.700 Y114.830 E12.2802
G1 X127.965 Y115.421 E12.3448
G1 X128.298 Y115.977 E12.4095
G1 X128.700 Y116.494 E12.4748
G1 X129.473 Y117.284 E12.5851
G1 X129.662 Y117.563 E12.6187
G1 X129.948 Y118.203 E12.6887
G1 X130.032 Y118.592 E12.7284
G1 X130.050 Y125.559 E13.4235
G1 X130.042 Y125.685 E13.4362
G1 X129.990 Y126.079 E13.4758
G1 X129.926 Y126.319 E13.5006
G1 X129.751 Y126.742 E13.5463
G1 X129.626 Y126.958 E13.5712
G1 X129.347 Y127.321 E13.6169
G1 X129.171 Y127.497 E13.6417
G1 X128.808 Y127.776 E13.6874
G1 X128.592 Y127.901 E13.7122
G1 X128.169 Y128.076 E13.7579
G1 X127.929 Y128.140 E13.7828
G1 X127.536 Y128.192 E13.8222
G1 X127.412 Y128.200 E13.8347
G1 X122.786 Y128.200 E14.2962
G1 X122.753 Y128.258 E14.3029
G1 X122.506 Y128.580 E14.3434
G1 X122.330 Y128.756 E14.3682
G1 X122.008 Y129.003 E14.4087
G1 X121.792 Y129.127 E14.4336
G1 X121.361 Y129.306 E14.4801
G1 X120.999 Y129.379 E14.5170
G1 X115.994 Y129.400 E15.0164
G1 X115.866 Y129.392 E15.0292
G1 X115.523 Y129.347 E15.0637
G1 X115.283 Y129.283 E15.0885
G1 X114.908 Y129.127 E15.1290
G1 X114.692 Y129.003 E15.1539
G1 X114.370 Y128.756 E15.1943
G1 X114.194 Y128.580 E15.2192
G1 X113.947 Y128.258 E15.2597
G1 X113.914 Y128.200 E15.2663
G1 X63.592 Y128.200 E20.2874
G1 X63.477 Y128.193 E20.2989
G1 X62.876 Y128.120 E20.3594
G1 X62.652 Y128.064 E20.3824
G1 X62.033 Y127.829 E20.4485
G1 X61.828 Y127.721 E20.4716
G1 X61.308 Y127.361 E20.5347
G1 X61.178 Y127.251 E20.5517
G1 X60.899 Y126.972 E20.5911
G1 X60.789 Y126.842 E20.6081
G1 X60.429 Y126.322 E20.6712
G1 X60.321 Y126.117 E20.6942
G1 X60.086 Y125.498 E20.7604
G1 X60.030 Y125.274 E20.7834
G1 X59.957 Y124.673 E20.8438
G1 X59.950 Y124.558 E20.8553
G1 X59.950 Y86.363 E24.6664
G1 X59.953 Y86.293 E24.6734
G1 X60.012 Y85.484 E24.7543
G1 X60.033 Y85.346 E24.7682
G1 X60.218 Y84.521 E24.8526
G1 X60.258 Y84.387 E24.8666
G1 X60.562 Y83.598 E24.9509
G1 X60.622 Y83.472 E24.9649
G1 X61.038 Y82.736 E25.0492
G1 X61.116 Y82.620 E25.0632
G1 X61.636 Y81.953 E25.1475
G1 X61.730 Y81.849 E25.1615
G1 X62.342 Y81.266 E25.2459
G1 X62.450 Y81.177 E25.2598
G92 E0.0000
G1 E-1.0000 F1800
G1 X62.814 Y81.655 F4800
G1 E0.0000 F1800
G92 E0.0000
G1 X63.468 Y81.193 E0.0800 F720
G1 X63.550 Y81.143 E0.0895
G1 X64.266 Y80.783 E0.1695
G1 X64.354 Y80.746 E0.1790
G1 X65.092 Y80.501 E0.2566
G1 X65.138 Y80.488 E0.2613
G1 X86.604 Y75.085 E2.4701
G1 X87.262 Y74.873 E2.5390
G1 X87.847 Y74.594 E2.6037
G1 X88.390 Y74.240 E2.6683
G1 X88.881 Y73.817 E2.7330
G1 X89.312 Y73.334 E2.7976
G1 X89.676 Y72.797 E2.8623
G1 X89.966 Y72.218 E2.9270
G1 X90.176 Y71.605 E2.9916
G1 X90.304 Y70.970 E3.0563
G1 X90.350 Y70.280 E3.1253
G1 X90.350 Y68.457 E3.3071
G1 X90.356 Y68.373 E3.3156
G1 X90.399 Y68.039 E3.3492
G1 X90.444 Y67.874 E3.3662
G1 X90.589 Y67.524 E3.4040
G1 X90.674 Y67.376 E3.4210
G1 X90.905 Y67.075 E3.4589
G1 X91.025 Y66.955 E3.4759
G1 X91.326 Y66.724 E3.5137
G1 X91.474 Y66.639 E3.5307
G1 X91.824 Y66.494 E3.5686
G1 X91.989 Y66.450 E3.5856
G1 X92.322 Y66.406 E3.6192
G1 X92.407 Y66.400 E3.6276
G1 X127.393 Y66.400 E7.1185
G1 X127.477 Y66.406 E7.1270
G1 X127.811 Y66.450 E7.1606
G1 X127.976 Y66.494 E7.1776
G1 X128.326 Y66.639 E7.2154
G1 X128.474 Y66.724 E7.2324
G1 X128.775 Y66.955 E7.2702
G1 X128.895 Y67.075 E7.2872
G1 X129.126 Y67.376 E7.3251
G1 X129.211 Y67.524 E7.3421
G1 X129.356 Y67.874 E7.3799
G1 X129.400 Y68.039 E7.3969
G1 X129.445 Y68.374 E7.4306
G1 X129.450 Y68.460 E7.4393
G1 X129.432 Y74.343 E8.0263
G1 X129.375 Y74.610 E8.0535
G1 X129.136 Y75.144 E8.1119
G1 X129.006 Y75.334 E8.1349
G1 X128.247 Y76.111 E8.2432
G1 X127.802 Y76.683 E8.3156
G1 X127.432 Y77.301 E8.3874
G1 X127.138 Y77.958 E8.4593
G1 X126.925 Y78.646 E8.5311
G1 X126.796 Y79.355 E8.6030
G1 X126.750 Y80.113 E8.6788
G1 X126.750 Y112.887 E11.9490
G1 X126.796 Y113.645 E12.0248
G1 X126.925 Y114.354 E12.0967
G1 X127.138 Y115.042 E12.1685
G1 X127.432 Y115.699 E12.2404
G1 X127.802 Y116.317 E12.3122
G1 X128.247 Y116.889 E12.3846
G1 X129.006 Y117.666 E12.4929
G1 X129.136 Y117.856 E12.5159
G1 X129.375 Y118.390 E12.5743
G1 X129.432 Y118.657 E12.6015
G1 X129.450 Y125.540 E13.2883
G1 X129.445 Y125.627 E13.2970
G1 X129.400 Y125.961 E13.3306
G1 X129.356 Y126.126 E13.3476
G1 X129.211 Y126.476 E13.3855
G1 X129.126 Y126.624 E13.4025
G1 X128.895 Y126.925 E13.4403
G1 X128.775 Y127.045 E13.4573
G1 X128.474 Y127.276 E13.4952
G1 X128.326 Y127.361 E13.5122
G1 X127.976 Y127.506 E13.5500
G1 X127.811 Y127.550 E13.5670
G1 X127.477 Y127.594 E13.6006
G1 X127.393 Y127.600 E13.6091
G1 X122.411 Y127.600 E14.1062
G1 X122.338 Y127.776 E14.1252
G1 X122.253 Y127.924 E14.1422
G1 X122.054 Y128.183 E14.1748
G1 X121.933 Y128.304 E14.1918
G1 X121.674 Y128.503 E14.2245
G1 X121.526 Y128.588 E14.2415
G1 X121.186 Y128.729 E14.2782
G1 X120.938 Y128.779 E14.3035
G1 X116.012 Y128.800 E14.7950
G1 X115.924 Y128.795 E14.8038
G1 X115.641 Y128.757 E14.8323
G1 X115.476 Y128.713 E14.8493
G1 X115.174 Y128.588 E14.8819
G1 X115.026 Y128.503 E14.8989
G1 X114.767 Y128.304 E14.9316
G1 X114.646 Y128.183 E14.9486
G1 X114.447 Y127.924 E14.9812
G1 X114.362 Y127.776 E14.9982
G1 X114.289 Y127.600 E15.0173
G1 X63.611 Y127.600 E20.0740
G1 X63.532 Y127.595 E20.0818
G1 X62.985 Y127.529 E20.1368
G1 X62.832 Y127.491 E20.1526
G1 X62.280 Y127.281 E20.2115
G1 X62.140 Y127.207 E20.2272
G1 X61.672 Y126.883 E20.2840
G1 X61.583 Y126.808 E20.2957
G1 X61.342 Y126.567 E20.3296
G1 X61.267 Y126.478 E20.3413
G1 X60.943 Y126.010 E20.3981
G1 X60.869 Y125.870 E20.4139
G1 X60.659 Y125.318 E20.4728
G1 X60.621 Y125.165 E20.4885
G1 X60.555 Y124.618 E20.5435
G1 X60.550 Y124.539 E20.5514
G1 X60.550 Y86.374 E24.3596
G1 X60.552 Y86.326 E24.3643
G1 X60.609 Y85.551 E24.4419
G1 X60.623 Y85.456 E24.4514
G1 X60.798 Y84.674 E24.5314
G1 X60.826 Y84.582 E24.5409
G1 X61.114 Y83.835 E24.6209
G1 X61.155 Y83.748 E24.6304
G1 X61.550 Y83.051 E24.7104
G1 X61.603 Y82.971 E24.7199
G1 X62.096 Y82.339 E24.7999
G1 X62.160 Y82.268 E24.8094
G1 X62.740 Y81.715 E24.8894
G1 X62.814 Y81.655 E24.8989
G92 E0.0000
G1 E-1.0000 F1800
; feature inner perimeter
G1 X69.283 Y82.951 F4800
G1 E0.0000 F1800
G92 E0.0000
G1 X87.543 Y78.355 E1.8788 F540
G1 X88.522 Y78.038 E1.9815
G1 X89.514 Y77.565 E2.0912
G1 X90.435 Y76.965 E2.2008
G1 X91.268 Y76.249 E2.3105
G1 X92.000 Y75.429 E2.4201
G1 X92.316 Y74.963 E2.4763
G1 X92.617 Y74.519 E2.5298
G1 X93.108 Y73.536 E2.6394
G1 X93.465 Y72.497 E2.7491
G1 X93.682 Y71.419 E2.8587
G1 X93.750 Y70.392 E2.9614
G1 X93.750 Y69.800 E3.0206
G1 X98.560 Y69.800 E3.5005
G1 X98.645 Y70.238 E3.5450
G1 X98.026 Y70.485 E3.6114
G1 X97.695 Y70.648 E3.6483
G1 X97.201 Y71.030 E3.7106
G1 X96.838 Y71.426 E3.7642
G1 X96.505 Y71.962 E3.8271
G1 X96.285 Y72.530 E3.8879
G1 X96.181 Y73.056 E3.9415
G1 X96.150 Y73.447 E3.9806
G1 X96.150 Y81.568 E4.7909
G1 X95.092 Y81.394 E4.8979
G1 X94.128 Y81.446 E4.9942
G1 X93.198 Y81.705 E5.0905
G1 X92.346 Y82.156 E5.1867
G1 X91.610 Y82.781 E5.2830
G1 X91.073 Y83.488 E5.3716
G1 X90.806 Y83.279 E5.4055
G1 X89.923 Y82.797 E5.5058
G1 X88.948 Y82.460 E5.6088
G1 X87.954 Y82.295 E5.7093
G1 X86.950 Y82.294 E5.8095
G1 X86.045 Y82.444 E5.9010
G1 X71.657 Y86.067 E7.3814
G1 X70.808 Y86.357 E7.4710
G1 X70.223 Y86.673 E7.5373
G1 X70.312 Y85.850 E7.6200
G1 X70.207 Y84.882 E7.7171
G1 X69.885 Y83.951 E7.8154
G1 X69.283 Y82.951 E7.9319
G1 X67.445 Y90.084 F4800
G92 E0.0000
G1 X67.225 Y90.957 E0.0898 F540
G1 X67.150 Y91.868 E0.1811
G1 X67.150 Y102.868 E1.2786
G1 X66.092 Y102.694 E1.3856
G1 X65.128 Y102.746 E1.4819
G1 X63.950 Y103.073 E1.6039
G1 X63.950 Y89.927 E2.9157
G1 X65.128 Y90.254 E3.0377
G1 X66.092 Y90.306 E3.1340
G1 X67.445 Y90.084 E3.2709
G92 E0.0000
G1 E-1.0000 F1800
G1 X67.150 Y111.432 F4800
G1 E0.0000 F1800
G92 E0.0000
G1 X67.150 Y115.593 E0.4152 F540
G1 X67.221 Y116.396 E0.4956
G1 X67.451 Y117.249 E0.5838
G1 X67.825 Y118.052 E0.6721
G1 X68.343 Y118.790 E0.7621
G1 X68.971 Y119.416 E0.8506
G1 X69.696 Y119.924 E0.9389
G1 X70.503 Y120.300 E1.0277
G1 X71.363 Y120.530 E1.1166
G1 X72.158 Y120.600 E1.1962
G1 X87.533 Y120.600 E2.7303
G1 X88.406 Y120.531 E2.8177
G1 X89.309 Y120.315 E2.9103
G1 X90.220 Y119.943 E3.0085
G1 X91.042 Y119.438 E3.1047
G1 X91.766 Y118.820 E3.1997
G1 X92.384 Y118.097 E3.2947
G1 X92.884 Y117.285 E3.3899
G1 X93.261 Y116.374 E3.4882
G1 X93.482 Y115.448 E3.5832
G1 X93.550 Y114.582 E3.6699
G1 X93.550 Y111.393 E3.9881
G1 X94.128 Y111.554 E4.0479
G1 X95.092 Y111.606 E4.1442
G1 X96.150 Y111.432 E4.2512
G1 X96.150 Y119.561 E5.0623
G1 X96.190 Y120.025 E5.1088
G1 X96.294 Y120.494 E5.1567
G1 X96.506 Y121.039 E5.2151
G1 X96.854 Y121.601 E5.2810
G1 X97.306 Y122.065 E5.3456
G1 X97.773 Y122.400 E5.4030
G1 X98.466 Y122.698 E5.4782
G1 X99.118 Y122.780 E5.5439
G1 X117.581 Y122.780 E7.3861
G1 X118.208 Y122.701 E7.4491
G1 X118.674 Y122.515 E7.4992
G1 X119.005 Y122.352 E7.5360
G1 X119.499 Y121.970 E7.5983
