; G-Code generated by Simplify3D(R) Version 4.1.2
; Jan 11, 2021 at 9:37:45 PM
; Settings Summary
;   processName,Process1
;   applyToModels,z_drive_retainer_b_x2
;   profileName,Monoprice Maker Select (modified)
;   profileVersion,2016-06-08 08:00:00
;   baseProfile,
;   printMaterial,ABS
;   printQuality,High
;   printExtruders,
;   extruderName,Primary Extruder
;   extruderToolheadNumber,0
;   extruderDiameter,0.4
;   extruderAutoWidth,0
;   extruderWidth,0.4
;   extrusionMultiplier,1.02
;   extruderUseRetract,1
;   extruderRetractionDistance,1
;   extruderExtraRestartDistance,0
;   extruderRetractionZLift,0
;   extruderRetractionSpeed,1800
;   extruderUseCoasting,0
;   extruderCoastingDistance,0.2
;   extruderUseWipe,0
;   extruderWipeDistance,5
;   primaryExtruder,0
;   layerHeight,0.2
;   topSolidLayers,5
;   bottomSolidLayers,5
;   perimeterOutlines,4
;   printPerimetersInsideOut,1
;   startPointOption,2
;   startPointOriginX,0
;   startPointOriginY,0
;   sequentialIslands,0
;   spiralVaseMode,0
;   firstLayerHeightPercentage,200
;   firstLayerWidthPercentage,150
;   firstLayerUnderspeed,0.2
;   useRaft,0
;   raftExtruder,0
;   raftTopLayers,3
;   raftBaseLayers,2
;   raftOffset,3
;   raftSeparationDistance,0.14
;   raftTopInfill,100
;   aboveRaftSpeedMultiplier,0.3
;   useSkirt,1
;   skirtExtruder,0
;   skirtLayers,1
;   skirtOutlines,2
;   skirtOffset,1
;   usePrimePillar,0
;   primePillarExtruder,999
;   primePillarWidth,12
;   primePillarLocation,7
;   primePillarSpeedMultiplier,1
;   useOozeShield,0
;   oozeShieldExtruder,999
;   oozeShieldOffset,2
;   oozeShieldOutlines,1
;   oozeShieldSidewallShape,1
;   oozeShieldSidewallAngle,20
;   oozeShieldSpeedMultiplier,1
;   infillExtruder,0
;   internalInfillPattern,Rectilinear
;   externalInfillPattern,Rectilinear
;   infillPercentage,40
;   outlineOverlapPercentage,25
;   infillExtrusionWidthPercentage,150
;   minInfillLength,5
;   infillLayerInterval,1
;   internalInfillAngles,45,-45
;   overlapInternalInfillAngles,0
;   externalInfillAngles,45,-45
;   generateSupport,0
;   supportExtruder,0
;   supportInfillPercentage,40
;   supportExtraInflation,0
;   supportBaseLayers,0
;   denseSupportExtruder,0
;   denseSupportLayers,0
;   denseSupportInfillPercentage,70
;   supportLayerInterval,1
;   supportHorizontalPartOffset,0.3
;   supportUpperSeparationLayers,1
;   supportLowerSeparationLayers,1
;   supportType,0
;   supportGridSpacing,4
;   maxOverhangAngle,45
;   supportAngles,0
;   temperatureName,Primary Extruder,Heated Bed
;   temperatureNumber,0,0
;   temperatureSetpointCount,1,1
;   temperatureSetpointLayers,1,1
;   temperatureSetpointTemperatures,240,109
;   temperatureStabilizeAtStartup,1,1
;   temperatureHeatedBed,0,1
;   fanLayers,1
;   fanSpeeds,0
;   blipFanToFullPower,0
;   adjustSpeedForCooling,1
;   minSpeedLayerTime,15
;   minCoolingSpeedSlowdown,20
;   increaseFanForCooling,0
;   minFanLayerTime,45
;   maxCoolingFanSpeed,100
;   increaseFanForBridging,0
;   bridgingFanSpeed,100
;   use5D,1
;   relativeEdistances,0
;   allowEaxisZeroing,1
;   independentExtruderAxes,0
;   includeM10123,0
;   stickySupport,1
;   applyToolheadOffsets,0
;   gcodeXoffset,0
;   gcodeYoffset,0
;   gcodeZoffset,0
;   overrideMachineDefinition,1
;   machineTypeOverride,0
;   strokeXoverride,190
;   strokeYoverride,195
;   strokeZoverride,180
;   originOffsetXoverride,0
;   originOffsetYoverride,0
;   originOffsetZoverride,0
;   homeXdirOverride,-1
;   homeYdirOverride,-1
;   homeZdirOverride,-1
;   flipXoverride,1
;   flipYoverride,-1
;   flipZoverride,1
;   toolheadOffsets,0,0|0,0|0,0|0,0|0,0|0,0
;   overrideFirmwareConfiguration,1
;   firmwareTypeOverride,RepRap (Marlin/Repetier/Sprinter)
;   GPXconfigOverride,r2
;   baudRateOverride,115200
;   overridePrinterModels,1
;   printerModelsOverride
;   startingGcode,G28 ; home all axes
;   layerChangeGcode,
;   retractionGcode,
;   toolChangeGcode,
;   endingGcode,G28 X0 ; home X-axis,M104 S0 ; turn off extruder,M140 S0 ; turn off bed,M84 ; disable motors
;   exportFileFormat,gcode
;   celebration,0
;   celebrationSong,Random Song
;   postProcessing,
;   defaultSpeed,3600
;   outlineUnderspeed,0.5
;   solidInfillUnderspeed,0.8
;   supportUnderspeed,0.8
;   rapidXYspeed,4800
;   rapidZspeed,1002
;   minBridgingArea,50
;   bridgingExtraInflation,0
;   bridgingExtrusionMultiplier,1
;   bridgingSpeedMultiplier,1
;   useFixedBridgingAngle,0
;   fixedBridgingAngle,0
;   applyBridgingToPerimeters,0
;   filamentDiameters,1.75|1.75|1.75|1.75|1.75|1.75
;   filamentPricesPerKg,46|46|46|46|46|46
;   filamentDensities,1.25|1.25|1.25|1.25|1.25|1.25
;   useMinPrintHeight,0
;   minPrintHeight,0
;   useMaxPrintHeight,0
;   maxPrintHeight,0
;   useDiaphragm,0
;   diaphragmLayerInterval,20
;   robustSlicing,1
;   mergeAllIntoSolid,0
;   onlyRetractWhenCrossingOutline,1
;   retractBetweenLayers,1
;   useRetractionMinTravel,0
;   retractionMinTravel,3
;   retractWhileWiping,0
;   onlyWipeOutlines,1
;   avoidCrossingOutline,0
;   maxMovementDetourFactor,3
;   toolChangeRetractionDistance,12
;   toolChangeExtraRestartDistance,-0.5
;   toolChangeRetractionSpeed,600
;   externalThinWallType,0
;   internalThinWallType,2
;   thinWallAllowedOverlapPercentage,10
;   singleExtrusionMinLength,1
;   singleExtrusionMinPrintingWidthPercentage,50
;   singleExtrusionMaxPrintingWidthPercentage,200
;   singleExtrusionEndpointExtension,0.2
;   horizontalSizeCompensation,0
G90
M82
M106 S0
M140 S109
M190 S109
M104 S240 T0
M109 S240 T0
G28 ; home all axes
; process Process1
; layer 1, Z = 0.400
T0
G92 E0.0000
G1 E-1.0000 F1800
; feature skirt
; tool H0.400 W0.600
G1 Z0.400 F1002
G1 X60.960 Y67.961 F4800
G1 E0.0000 F1800
G92 E0.0000
G1 X61.428 Y67.549 E0.0635 F720
G1 X61.551 Y67.457 E0.0791
G1 X61.885 Y67.248 E0.1192
G1 X62.053 Y67.164 E0.1383
G1 X62.652 Y66.936 E0.2036
G1 X62.876 Y66.880 E0.2271
G1 X63.477 Y66.807 E0.2887
G1 X63.592 Y66.800 E0.3005
G1 X113.914 Y66.800 E5.4220
G1 X113.947 Y66.742 E5.4288
G1 X114.194 Y66.420 E5.4701
G1 X114.370 Y66.244 E5.4954
G1 X114.692 Y65.997 E5.5367
G1 X114.908 Y65.873 E5.5621
G1 X115.339 Y65.694 E5.6095
G1 X115.701 Y65.621 E5.6472
G1 X120.706 Y65.600 E6.1565
G1 X120.834 Y65.608 E6.1696
G1 X121.177 Y65.653 E6.2048
G1 X121.417 Y65.717 E6.2301
G1 X121.792 Y65.873 E6.2714
G1 X122.008 Y65.997 E6.2967
G1 X122.330 Y66.244 E6.3380
G1 X122.506 Y66.420 E6.3634
G1 X122.753 Y66.742 E6.4047
G1 X122.786 Y66.800 E6.4115
G1 X127.412 Y66.800 E6.8823
G1 X127.536 Y66.808 E6.8949
G1 X127.928 Y66.860 E6.9352
G1 X128.169 Y66.924 E6.9605
G1 X128.592 Y67.099 E7.0072
G1 X128.808 Y67.224 E7.0325
G1 X129.171 Y67.503 E7.0791
G1 X129.347 Y67.679 E7.1044
G1 X129.626 Y68.042 E7.1510
G1 X129.751 Y68.258 E7.1764
G1 X129.926 Y68.681 E7.2230
G1 X129.990 Y68.922 E7.2484
G1 X130.042 Y69.315 E7.2888
G1 X130.050 Y69.441 E7.3017
G1 X130.032 Y76.408 E8.0106
G1 X129.948 Y76.797 E8.0512
G1 X129.662 Y77.437 E8.1226
G1 X129.473 Y77.716 E8.1568
G1 X128.700 Y78.506 E8.2693
G1 X128.298 Y79.023 E8.3360
G1 X127.965 Y79.579 E8.4019
G1 X127.700 Y80.170 E8.4679
G1 X127.509 Y80.789 E8.5338
G1 X127.392 Y81.427 E8.5998
G1 X127.350 Y82.131 E8.6715
G1 X127.350 Y114.869 E12.0035
G1 X127.392 Y115.573 E12.0753
G1 X127.508 Y116.211 E12.1413
G1 X127.700 Y116.830 E12.2072
G1 X127.965 Y117.421 E12.2732
G1 X128.298 Y117.977 E12.3391
G1 X128.700 Y118.494 E12.4058
G1 X129.473 Y119.284 E12.5183
G1 X129.662 Y119.563 E12.5525
G1 X129.948 Y120.203 E12.6239
G1 X130.032 Y120.592 E12.6644
G1 X130.050 Y126.558 E13.2716
G1 X130.042 Y126.685 E13.2845
G1 X129.990 Y127.079 E13.3249
G1 X129.926 Y127.319 E13.3503
G1 X129.751 Y127.742 E13.3969
G1 X129.626 Y127.958 E13.4222
G1 X129.347 Y128.321 E13.4688
G1 X129.171 Y128.497 E13.4942
G1 X128.808 Y128.776 E13.5408
G1 X128.592 Y128.901 E13.5661
G1 X128.169 Y129.076 E13.6128
G1 X127.928 Y129.140 E13.6381
G1 X127.536 Y129.192 E13.6783
G1 X127.412 Y129.200 E13.6910
G1 X92.388 Y129.200 E17.2557
G1 X92.264 Y129.192 E17.2683
G1 X91.871 Y129.140 E17.3086
G1 X91.631 Y129.076 E17.3339
G1 X91.208 Y128.901 E17.3805
G1 X90.992 Y128.776 E17.4059
G1 X90.629 Y128.497 E17.4525
G1 X90.453 Y128.321 E17.4778
G1 X90.174 Y127.958 E17.5244
G1 X90.049 Y127.742 E17.5498
G1 X89.874 Y127.319 E17.5964
G1 X89.810 Y127.079 E17.6217
G1 X89.758 Y126.686 E17.6620
G1 X89.750 Y126.562 E17.6747
G1 X89.750 Y124.740 E17.8601
G1 X89.708 Y124.110 E17.9244
G1 X89.596 Y123.553 E17.9822
G1 X89.411 Y123.015 E18.0401
G1 X89.157 Y122.507 E18.0980
G1 X88.838 Y122.036 E18.1558
G1 X88.460 Y121.612 E18.2137
G1 X88.029 Y121.241 E18.2715
G1 X87.552 Y120.931 E18.3294
G1 X87.039 Y120.686 E18.3872
G1 X86.439 Y120.492 E18.4515
G1 X64.981 Y115.091 E20.7035
G1 X64.914 Y115.072 E20.7106
G1 X64.144 Y114.817 E20.7931
G1 X64.015 Y114.763 E20.8073
G1 X63.260 Y114.382 E20.8934
G1 X63.141 Y114.310 E20.9076
G1 X62.450 Y113.823 E20.9936
G1 X62.342 Y113.734 E21.0079
G1 X61.730 Y113.151 E21.0939
G1 X61.636 Y113.047 E21.1082
G1 X61.116 Y112.380 E21.1942
G1 X61.038 Y112.264 E21.2084
G1 X60.622 Y111.528 E21.2945
G1 X60.562 Y111.402 E21.3087
G1 X60.258 Y110.613 E21.3948
G1 X60.218 Y110.479 E21.4090
G1 X60.033 Y109.654 E21.4950
G1 X60.012 Y109.516 E21.5093
G1 X59.953 Y108.707 E21.5918
G1 X59.950 Y108.637 E21.5989
G1 X59.950 Y70.442 E25.4862
G1 X59.957 Y70.327 E25.4979
G1 X60.030 Y69.726 E25.5596
G1 X60.086 Y69.502 E25.5831
G1 X60.321 Y68.883 E25.6506
G1 X60.429 Y68.679 E25.6740
G1 X60.807 Y68.134 E25.7415
G1 X60.960 Y67.961 E25.7650
G92 E0.0000
G1 E-1.0000 F1800
G1 X61.384 Y68.388 F4800
G1 E0.0000 F1800
G92 E0.0000
G1 X61.806 Y68.015 E0.0573 F720
G1 X61.890 Y67.953 E0.0680
G1 X62.179 Y67.771 E0.1026
G1 X62.294 Y67.714 E0.1157
G1 X62.832 Y67.509 E0.1743
G1 X62.985 Y67.471 E0.1904
G1 X63.532 Y67.405 E0.2464
G1 X63.611 Y67.400 E0.2545
G1 X114.289 Y67.400 E5.4123
G1 X114.362 Y67.224 E5.4317
G1 X114.447 Y67.076 E5.4491
G1 X114.646 Y66.817 E5.4824
G1 X114.767 Y66.696 E5.4997
G1 X115.026 Y66.497 E5.5330
G1 X115.174 Y66.412 E5.5503
G1 X115.514 Y66.271 E5.5878
G1 X115.763 Y66.221 E5.6136
G1 X120.688 Y66.200 E6.1149
G1 X120.776 Y66.205 E6.1239
G1 X121.059 Y66.243 E6.1530
G1 X121.224 Y66.287 E6.1703
G1 X121.526 Y66.412 E6.2036
G1 X121.674 Y66.497 E6.2209
G1 X121.933 Y66.696 E6.2542
G1 X122.054 Y66.817 E6.2716
G1 X122.253 Y67.076 E6.3049
G1 X122.338 Y67.224 E6.3222
G1 X122.411 Y67.400 E6.3416
G1 X127.393 Y67.400 E6.8486
G1 X127.477 Y67.406 E6.8573
G1 X127.811 Y67.450 E6.8915
G1 X127.976 Y67.494 E6.9089
G1 X128.326 Y67.639 E6.9475
G1 X128.474 Y67.724 E6.9648
G1 X128.775 Y67.955 E7.0034
G1 X128.895 Y68.075 E7.0208
G1 X129.126 Y68.376 E7.0594
G1 X129.211 Y68.524 E7.0767
G1 X129.356 Y68.874 E7.1153
G1 X129.400 Y69.039 E7.1327
G1 X129.445 Y69.373 E7.1670
G1 X129.450 Y69.460 E7.1758
G1 X129.432 Y76.343 E7.8764
G1 X129.375 Y76.610 E7.9041
G1 X129.136 Y77.144 E7.9637
G1 X129.006 Y77.334 E7.9871
G1 X128.247 Y78.111 E8.0976
G1 X127.803 Y78.683 E8.1714
G1 X127.432 Y79.301 E8.2447
G1 X127.138 Y79.958 E8.3180
G1 X126.925 Y80.646 E8.3913
G1 X126.796 Y81.355 E8.4646
G1 X126.750 Y82.113 E8.5419
G1 X126.750 Y114.887 E11.8776
G1 X126.796 Y115.645 E11.9548
G1 X126.925 Y116.354 E12.0281
G1 X127.138 Y117.042 E12.1014
G1 X127.432 Y117.699 E12.1747
G1 X127.802 Y118.317 E12.2480
G1 X128.247 Y118.889 E12.3218
G1 X129.006 Y119.666 E12.4323
G1 X129.136 Y119.856 E12.4558
G1 X129.375 Y120.390 E12.5153
G1 X129.432 Y120.657 E12.5430
G1 X129.450 Y126.540 E13.1418
G1 X129.445 Y126.626 E13.1507
G1 X129.400 Y126.961 E13.1850
G1 X129.356 Y127.126 E13.2024
G1 X129.211 Y127.476 E13.2410
G1 X129.126 Y127.624 E13.2583
G1 X128.895 Y127.925 E13.2969
G1 X128.775 Y128.045 E13.3143
G1 X128.474 Y128.276 E13.3529
G1 X128.326 Y128.361 E13.3702
G1 X127.976 Y128.506 E13.4088
G1 X127.811 Y128.550 E13.4261
G1 X127.477 Y128.594 E13.4604
G1 X127.393 Y128.600 E13.4691
G1 X92.407 Y128.600 E17.0297
G1 X92.322 Y128.594 E17.0384
G1 X91.989 Y128.550 E17.0726
G1 X91.824 Y128.506 E17.0900
G1 X91.474 Y128.361 E17.1286
G1 X91.326 Y128.276 E17.1459
G1 X91.025 Y128.045 E17.1845
G1 X90.905 Y127.925 E17.2019
G1 X90.674 Y127.624 E17.2405
G1 X90.589 Y127.476 E17.2578
G1 X90.444 Y127.126 E17.2964
G1 X90.399 Y126.961 E17.3137
G1 X90.356 Y126.627 E17.3480
G1 X90.350 Y126.543 E17.3567
G1 X90.350 Y124.720 E17.5422
G1 X90.304 Y124.030 E17.6125
G1 X90.176 Y123.395 E17.6784
G1 X89.966 Y122.782 E17.7444
G1 X89.676 Y122.203 E17.8104
G1 X89.312 Y121.666 E17.8763
G1 X88.881 Y121.183 E17.9423
G1 X88.390 Y120.760 E18.0082
G1 X87.847 Y120.406 E18.0742
G1 X87.262 Y120.127 E18.1401
G1 X86.604 Y119.915 E18.2105
G1 X65.138 Y114.512 E20.4633
G1 X65.092 Y114.499 E20.4682
G1 X64.354 Y114.254 E20.5473
G1 X64.266 Y114.217 E20.5571
G1 X63.550 Y113.857 E20.6386
G1 X63.468 Y113.807 E20.6484
G1 X62.814 Y113.345 E20.7299
G1 X62.740 Y113.285 E20.7396
G1 X62.160 Y112.732 E20.8212
G1 X62.096 Y112.661 E20.8309
G1 X61.603 Y112.029 E20.9125
G1 X61.550 Y111.949 E20.9222
G1 X61.155 Y111.252 E21.0038
G1 X61.114 Y111.165 E21.0135
G1 X60.826 Y110.418 E21.0951
G1 X60.798 Y110.326 E21.1048
G1 X60.623 Y109.544 E21.1864
G1 X60.609 Y109.449 E21.1961
G1 X60.552 Y108.674 E21.2752
G1 X60.550 Y108.626 E21.2801
G1 X60.550 Y70.461 E25.1645
G1 X60.555 Y70.382 E25.1725
G1 X60.621 Y69.835 E25.2286
G1 X60.659 Y69.682 E25.2446
G1 X60.869 Y69.130 E25.3047
G1 X60.943 Y68.990 E25.3208
G1 X61.279 Y68.505 E25.3808
G1 X61.384 Y68.388 E25.3969
G92 E0.0000
G1 E-1.0000 F1800
; feature inner perimeter
G1 X63.950 Y70.800 F4800
G1 E0.0000 F1800
G92 E0.0000
G1 X117.550 Y70.800 E5.4552 F540
G1 X117.550 Y69.600 E5.5773
G1 X119.150 Y69.600 E5.7402
G1 X119.150 Y70.800 E5.8623
G1 X126.050 Y70.800 E6.5646
G1 X126.050 Y75.495 E7.0424
G1 X125.681 Y75.873 E7.0961
G1 X124.993 Y76.758 E7.2103
G1 X124.412 Y77.726 E7.3252
G1 X123.951 Y78.757 E7.4401
G1 X123.616 Y79.836 E7.5550
G1 X123.414 Y80.947 E7.6700
G1 X123.350 Y82.011 E7.7785
G1 X123.350 Y83.600 E7.9403
G1 X122.092 Y83.394 E8.0701
G1 X121.128 Y83.446 E8.1683
G1 X120.550 Y83.607 E8.2293
G1 X120.550 Y75.439 E9.0606
G1 X120.510 Y74.974 E9.1081
G1 X120.406 Y74.507 E9.1568
G1 X120.195 Y73.962 E9.2163
G1 X119.846 Y73.401 E9.2835
G1 X119.396 Y72.936 E9.3495
G1 X118.926 Y72.600 E9.4082
G1 X118.235 Y72.302 E9.4847
G1 X117.581 Y72.220 E9.5518
G1 X99.118 Y72.220 E11.4309
G1 X98.466 Y72.302 E11.4979
G1 X97.773 Y72.600 E11.5746
G1 X97.306 Y72.935 E11.6331
G1 X96.854 Y73.399 E11.6991
G1 X96.506 Y73.961 E11.7663
G1 X96.294 Y74.506 E11.8259
G1 X96.190 Y74.975 E11.8747
G1 X96.150 Y75.439 E11.9222
G1 X96.150 Y83.568 E12.7494
G1 X95.092 Y83.394 E12.8586
G1 X94.128 Y83.446 E12.9568
G1 X93.550 Y83.607 E13.0179
G1 X93.550 Y80.418 E13.3424
G1 X93.482 Y79.551 E13.4309
G1 X93.257 Y78.612 E13.5292
G1 X92.893 Y77.733 E13.6260
G1 X92.398 Y76.922 E13.7228
G1 X91.764 Y76.177 E13.8223
G1 X91.015 Y75.545 E13.9220
G1 X90.224 Y75.060 E14.0165
G1 X89.339 Y74.693 E14.1140
G1 X88.406 Y74.469 E14.2116
G1 X87.533 Y74.400 E14.3008
G1 X72.158 Y74.400 E15.8655
G1 X71.363 Y74.470 E15.9468
G1 X70.503 Y74.700 E16.0374
G1 X69.696 Y75.076 E16.1280
G1 X68.971 Y75.584 E16.2181
G1 X68.343 Y76.210 E16.3083
G1 X67.825 Y76.948 E16.4001
G1 X67.451 Y77.751 E16.4903
G1 X67.221 Y78.604 E16.5802
G1 X67.150 Y79.407 E16.6622
G1 X67.150 Y83.568 E17.0857
G1 X66.092 Y83.394 E17.1949
G1 X65.128 Y83.446 E17.2931
G1 X63.950 Y83.773 E17.4175
G1 X63.950 Y70.800 E18.7379
G92 E0.0000
G1 E-1.0000 F1800
G1 X63.950 Y91.926 F4800
G1 E0.0000 F1800
G92 E0.0000
G1 X65.128 Y92.254 E0.1244 F540
G1 X66.092 Y92.306 E0.2226
G1 X67.150 Y92.132 E0.3318
G1 X67.150 Y103.133 E1.4514
G1 X67.228 Y104.059 E1.5460
G1 X67.445 Y104.916 E1.6360
G1 X66.092 Y104.694 E1.7756
G1 X65.128 Y104.746 E1.8738
G1 X63.950 Y105.073 E1.9983
G1 X63.950 Y91.926 E3.3363
G1 X70.223 Y108.327 F4800
G92 E0.0000
G1 X70.808 Y108.643 E0.0677 F540
G1 X71.677 Y108.940 E0.1612
G1 X86.050 Y112.557 E1.6696
G1 X86.979 Y112.706 E1.7653
G1 X87.955 Y112.705 E1.8647
G1 X88.944 Y112.540 E1.9668
G1 X89.897 Y112.215 E2.0692
G1 X90.804 Y111.723 E2.1742
G1 X91.073 Y111.512 E2.2090
G1 X91.610 Y112.219 E2.2994
G1 X92.346 Y112.843 E2.3976
G1 X93.198 Y113.295 E2.4958
G1 X94.128 Y113.554 E2.5940
G1 X95.092 Y113.606 E2.6922
