; G-Code generated by Simplify3D(R) Version 4.1.2
; Jan 26, 2021 at 4:09:50 PM
; Settings Summary
;   processName,Process1
;   applyToModels,[a]_z_drive_baseplate_b_x2,[a]_z_drive_baseplate_a_x2
;   profileName,Monoprice Maker Select (modified)
;   profileVersion,2016-06-08 08:00:00
;   baseProfile,
;   printMaterial,ABS
;   printQuality,High
;   printExtruders,
;   extruderName,Primary Extruder
;   extruderToolheadNumber,0
;   extruderDiameter,0.4
;   extruderAutoWidth,0
;   extruderWidth,0.4
;   extrusionMultiplier,1.02
;   extruderUseRetract,1
;   extruderRetractionDistance,1
;   extruderExtraRestartDistance,0
;   extruderRetractionZLift,0
;   extruderRetractionSpeed,1800
;   extruderUseCoasting,0
;   extruderCoastingDistance,0.2
;   extruderUseWipe,0
;   extruderWipeDistance,5
;   primaryExtruder,0
;   layerHeight,0.2
;   topSolidLayers,5
;   bottomSolidLayers,5
;   perimeterOutlines,4
;   printPerimetersInsideOut,1
;   startPointOption,2
;   startPointOriginX,0
;   startPointOriginY,0
;   sequentialIslands,0
;   spiralVaseMode,0
;   firstLayerHeightPercentage,200
;   firstLayerWidthPercentage,150
;   firstLayerUnderspeed,0.2
;   useRaft,0
;   raftExtruder,0
;   raftTopLayers,3
;   raftBaseLayers,2
;   raftOffset,3
;   raftSeparationDistance,0.14
;   raftTopInfill,100
;   aboveRaftSpeedMultiplier,0.3
;   useSkirt,1
;   skirtExtruder,0
;   skirtLayers,1
;   skirtOutlines,2
;   skirtOffset,5
;   usePrimePillar,0
;   primePillarExtruder,999
;   primePillarWidth,12
;   primePillarLocation,7
;   primePillarSpeedMultiplier,1
;   useOozeShield,0
;   oozeShieldExtruder,999
;   oozeShieldOffset,2
;   oozeShieldOutlines,1
;   oozeShieldSidewallShape,1
;   oozeShieldSidewallAngle,20
;   oozeShieldSpeedMultiplier,1
;   infillExtruder,0
;   internalInfillPattern,Rectilinear
;   externalInfillPattern,Rectilinear
;   infillPercentage,40
;   outlineOverlapPercentage,25
;   infillExtrusionWidthPercentage,150
;   minInfillLength,5
;   infillLayerInterval,1
;   internalInfillAngles,45,-45
;   overlapInternalInfillAngles,0
;   externalInfillAngles,45,-45
;   generateSupport,0
;   supportExtruder,0
;   supportInfillPercentage,40
;   supportExtraInflation,0
;   supportBaseLayers,0
;   denseSupportExtruder,0
;   denseSupportLayers,0
;   denseSupportInfillPercentage,70
;   supportLayerInterval,1
;   supportHorizontalPartOffset,0.3
;   supportUpperSeparationLayers,1
;   supportLowerSeparationLayers,1
;   supportType,0
;   supportGridSpacing,4
;   maxOverhangAngle,45
;   supportAngles,0
;   temperatureName,Primary Extruder,Heated Bed
;   temperatureNumber,0,0
;   temperatureSetpointCount,1,1
;   temperatureSetpointLayers,1,1
;   temperatureSetpointTemperatures,240,109
;   temperatureStabilizeAtStartup,1,1
;   temperatureHeatedBed,0,1
;   fanLayers,1
;   fanSpeeds,0
;   blipFanToFullPower,0
;   adjustSpeedForCooling,1
;   minSpeedLayerTime,15
;   minCoolingSpeedSlowdown,20
;   increaseFanForCooling,0
;   minFanLayerTime,45
;   maxCoolingFanSpeed,100
;   increaseFanForBridging,0
;   bridgingFanSpeed,100
;   use5D,1
;   relativeEdistances,0
;   allowEaxisZeroing,1
;   independentExtruderAxes,0
;   includeM10123,0
;   stickySupport,1
;   applyToolheadOffsets,0
;   gcodeXoffset,0
;   gcodeYoffset,0
;   gcodeZoffset,0
;   overrideMachineDefinition,1
;   machineTypeOverride,0
;   strokeXoverride,190
;   strokeYoverride,195
;   strokeZoverride,180
;   originOffsetXoverride,0
;   originOffsetYoverride,0
;   originOffsetZoverride,0
;   homeXdirOverride,-1
;   homeYdirOverride,-1
;   homeZdirOverride,-1
;   flipXoverride,1
;   flipYoverride,-1
;   flipZoverride,1
;   toolheadOffsets,0,0|0,0|0,0|0,0|0,0|0,0
;   overrideFirmwareConfiguration,1
;   firmwareTypeOverride,RepRap (Marlin/Repetier/Sprinter)
;   GPXconfigOverride,r2
;   baudRateOverride,115200
;   overridePrinterModels,1
;   printerModelsOverride
;   startingGcode,G28 ; home all axes
;   layerChangeGcode,
;   retractionGcode,
;   toolChangeGcode,
;   endingGcode,G28 X0 ; home X-axis,M104 S0 ; turn off extruder,M140 S0 ; turn off bed,M84 ; disable motors
;   exportFileFormat,gcode
;   celebration,0
;   celebrationSong,Random Song
;   postProcessing,
;   defaultSpeed,3600
;   outlineUnderspeed,0.5
;   solidInfillUnderspeed,0.8
;   supportUnderspeed,0.8
;   rapidXYspeed,4800
;   rapidZspeed,1002
;   minBridgingArea,50
;   bridgingExtraInflation,0
;   bridgingExtrusionMultiplier,1
;   bridgingSpeedMultiplier,1
;   useFixedBridgingAngle,0
;   fixedBridgingAngle,0
;   applyBridgingToPerimeters,0
;   filamentDiameters,1.75|1.75|1.75|1.75|1.75|1.75
;   filamentPricesPerKg,46|46|46|46|46|46
;   filamentDensities,1.25|1.25|1.25|1.25|1.25|1.25
;   useMinPrintHeight,0
;   minPrintHeight,0
;   useMaxPrintHeight,0
;   maxPrintHeight,0
;   useDiaphragm,0
;   diaphragmLayerInterval,20
;   robustSlicing,1
;   mergeAllIntoSolid,0
;   onlyRetractWhenCrossingOutline,1
;   retractBetweenLayers,1
;   useRetractionMinTravel,0
;   retractionMinTravel,3
;   retractWhileWiping,0
;   onlyWipeOutlines,1
;   avoidCrossingOutline,0
;   maxMovementDetourFactor,3
;   toolChangeRetractionDistance,12
;   toolChangeExtraRestartDistance,-0.5
;   toolChangeRetractionSpeed,600
;   externalThinWallType,0
;   internalThinWallType,2
;   thinWallAllowedOverlapPercentage,10
;   singleExtrusionMinLength,1
;   singleExtrusionMinPrintingWidthPercentage,50
;   singleExtrusionMaxPrintingWidthPercentage,200
;   singleExtrusionEndpointExtension,0.2
;   horizontalSizeCompensation,0
G90
M82
M106 S0
M140 S109
M190 S109
M104 S240 T0
M109 S240 T0
G28 ; home all axes
; process Process1
; layer 1, Z = 0.400
T0
G92 E0.0000
G1 E-1.0000 F1800
; feature skirt
; tool H0.400 W0.600
G1 Z0.400 F1002
G1 X56.042 Y72.403 F4800
G1 E0.0000 F1800
G92 E0.0000
G1 X56.470 Y72.074 E0.0549 F720
G1 X57.525 Y71.406 E0.1820
G1 X58.152 Y71.106 E0.2527
G1 X59.357 Y70.695 E0.3823
G1 X59.953 Y70.558 E0.4445
G1 X61.060 Y70.422 E0.5581
G1 X61.420 Y70.400 E0.5948
G1 X89.610 Y70.400 E3.4639
G1 X89.831 Y70.409 E3.4864
G1 X90.579 Y70.465 E3.5626
G1 X91.016 Y70.531 E3.6076
G1 X91.854 Y70.722 E3.6952
G1 X92.276 Y70.853 E3.7401
G1 X93.077 Y71.167 E3.8277
G1 X93.475 Y71.359 E3.8726
G1 X94.268 Y71.817 E3.9658
G1 X94.719 Y72.138 E4.0222
G1 X94.994 Y72.375 E4.0592
G1 X95.415 Y72.039 E4.1141
G1 X95.781 Y71.789 E4.1591
G1 X96.583 Y71.325 E4.2534
G1 X97.108 Y71.087 E4.3121
G1 X98.257 Y70.695 E4.4357
G1 X98.853 Y70.558 E4.4978
G1 X99.960 Y70.422 E4.6114
G1 X100.320 Y70.400 E4.6481
G1 X129.536 Y70.400 E7.6216
G1 X129.809 Y70.413 E7.6494
G1 X130.627 Y70.489 E7.7330
G1 X131.319 Y70.638 E7.8050
G1 X132.440 Y71.024 E7.9257
G1 X133.032 Y71.305 E7.9924
G1 X133.823 Y71.795 E8.0872
G1 X134.259 Y72.124 E8.1427
G1 X134.907 Y72.714 E8.2319
G1 X135.275 Y73.118 E8.2875
G1 X135.803 Y73.817 E8.3767
G1 X136.091 Y74.281 E8.4322
G1 X136.481 Y75.065 E8.5214
G1 X136.679 Y75.574 E8.5769
G1 X136.919 Y76.418 E8.6662
G1 X137.019 Y76.954 E8.7218
G1 X137.087 Y77.692 E8.7972
G1 X137.100 Y77.964 E8.8249
G1 X137.100 Y116.010 E12.6971
G1 X137.092 Y116.231 E12.7196
G1 X137.036 Y116.978 E12.7958
G1 X136.970 Y117.415 E12.8408
G1 X136.778 Y118.254 E12.9284
G1 X136.648 Y118.676 E12.9733
G1 X136.333 Y119.477 E13.0609
G1 X136.141 Y119.875 E13.1059
G1 X135.683 Y120.667 E13.1991
G1 X135.362 Y121.119 E13.2554
G1 X134.591 Y122.013 E13.3756
G1 X134.197 Y122.392 E13.4312
G1 X133.484 Y122.961 E13.5240
G1 X133.119 Y123.211 E13.5690
G1 X132.317 Y123.675 E13.6634
G1 X131.792 Y123.913 E13.7221
G1 X130.643 Y124.305 E13.8457
G1 X130.047 Y124.442 E13.9078
G1 X128.939 Y124.578 E14.0214
G1 X128.580 Y124.600 E14.0581
G1 X100.390 Y124.600 E16.9272
G1 X100.169 Y124.591 E16.9497
G1 X99.421 Y124.535 E17.0260
G1 X98.984 Y124.469 E17.0709
G1 X98.146 Y124.278 E17.1585
G1 X97.724 Y124.147 E17.2035
G1 X96.923 Y123.833 E17.2910
G1 X96.525 Y123.641 E17.3360
G1 X95.732 Y123.183 E17.4292
G1 X95.325 Y122.893 E17.4800
G1 X94.783 Y123.303 E17.5491
G1 X94.320 Y123.590 E17.6046
G1 X93.535 Y123.981 E17.6939
G1 X93.026 Y124.178 E17.7494
G1 X92.182 Y124.419 E17.8387
G1 X91.646 Y124.519 E17.8942
G1 X90.909 Y124.587 E17.9696
G1 X90.636 Y124.600 E17.9973
G1 X61.489 Y124.600 E20.9638
G1 X61.269 Y124.591 E20.9863
G1 X60.521 Y124.535 E21.0625
G1 X60.084 Y124.469 E21.1075
G1 X59.246 Y124.278 E21.1950
G1 X58.824 Y124.147 E21.2400
G1 X58.023 Y123.833 E21.3276
G1 X57.625 Y123.641 E21.3726
G1 X56.832 Y123.183 E21.4657
G1 X56.381 Y122.862 E21.5221
G1 X55.487 Y122.091 E21.6423
G1 X55.108 Y121.697 E21.6979
G1 X54.538 Y120.984 E21.7907
G1 X54.289 Y120.619 E21.8357
G1 X53.859 Y119.875 E21.9232
G1 X53.667 Y119.477 E21.9682
G1 X53.352 Y118.676 E22.0558
G1 X53.222 Y118.254 E22.1007
G1 X53.030 Y117.415 E22.1883
G1 X52.964 Y116.978 E22.2333
G1 X52.908 Y116.231 E22.3095
G1 X52.900 Y116.010 E22.3320
G1 X52.900 Y78.990 E26.0998
G1 X52.908 Y78.769 E26.1223
G1 X52.964 Y78.022 E26.1986
G1 X53.030 Y77.584 E26.2436
G1 X53.222 Y76.746 E26.3311
G1 X53.352 Y76.324 E26.3761
G1 X53.667 Y75.523 E26.4636
G1 X53.859 Y75.125 E26.5086
G1 X54.289 Y74.381 E26.5961
G1 X54.538 Y74.016 E26.6411
G1 X55.075 Y73.344 E26.7286
G1 X55.376 Y73.020 E26.7736
G1 X56.042 Y72.403 E26.8661
G92 E0.0000
G1 E-1.0000 F1800
G1 X56.430 Y72.862 F4800
G1 E0.0000 F1800
G92 E0.0000
G1 X56.814 Y72.566 E0.0493 F720
G1 X57.816 Y71.932 E0.1700
G1 X58.379 Y71.662 E0.2335
G1 X59.522 Y71.273 E0.3564
G1 X60.057 Y71.150 E0.4123
G1 X61.115 Y71.020 E0.5208
G1 X61.438 Y71.000 E0.5537
G1 X89.599 Y71.000 E3.4199
G1 X89.798 Y71.008 E3.4401
G1 X90.511 Y71.061 E3.5129
G1 X90.904 Y71.120 E3.5533
G1 X91.699 Y71.302 E3.6363
G1 X92.078 Y71.419 E3.6767
G1 X92.836 Y71.717 E3.7596
G1 X93.194 Y71.890 E3.8000
G1 X93.943 Y72.323 E3.8881
G1 X94.348 Y72.611 E3.9387
G1 X94.990 Y73.164 E4.0249
G1 X95.099 Y73.059 E4.0403
G1 X95.772 Y72.522 E4.1281
G1 X96.100 Y72.298 E4.1685
G1 X96.858 Y71.859 E4.2576
G1 X97.330 Y71.645 E4.3103
G1 X98.422 Y71.273 E4.4277
G1 X98.957 Y71.150 E4.4836
G1 X100.015 Y71.020 E4.5921
G1 X100.338 Y71.000 E4.6250
G1 X129.523 Y71.000 E7.5953
G1 X129.767 Y71.012 E7.6202
G1 X130.536 Y71.083 E7.6988
G1 X131.157 Y71.217 E7.7635
G1 X132.212 Y71.581 E7.8771
G1 X132.744 Y71.833 E7.9370
G1 X133.484 Y72.291 E8.0256
G1 X133.875 Y72.586 E8.0754
G1 X134.482 Y73.139 E8.1590
G1 X134.813 Y73.501 E8.2089
G1 X135.308 Y74.157 E8.2925
G1 X135.566 Y74.573 E8.3424
G1 X135.932 Y75.308 E8.4259
G1 X136.109 Y75.765 E8.4758
G1 X136.334 Y76.555 E8.5594
G1 X136.424 Y77.037 E8.6094
G1 X136.489 Y77.733 E8.6805
G1 X136.500 Y77.978 E8.7054
G1 X136.500 Y115.999 E12.5750
G1 X136.493 Y116.197 E12.5952
G1 X136.439 Y116.911 E12.6681
G1 X136.380 Y117.304 E12.7085
G1 X136.198 Y118.098 E12.7915
G1 X136.081 Y118.478 E12.8319
G1 X135.783 Y119.236 E12.9148
G1 X135.611 Y119.594 E12.9552
G1 X135.178 Y120.343 E13.0433
G1 X134.889 Y120.748 E13.0939
G1 X134.155 Y121.600 E13.2084
G1 X133.801 Y121.941 E13.2584
G1 X133.128 Y122.478 E13.3461
G1 X132.800 Y122.702 E13.3865
G1 X132.042 Y123.140 E13.4756
G1 X131.570 Y123.355 E13.5283
G1 X130.478 Y123.727 E13.6457
G1 X129.943 Y123.850 E13.7016
G1 X128.885 Y123.980 E13.8101
G1 X128.562 Y124.000 E13.8431
G1 X100.401 Y124.000 E16.7092
G1 X100.202 Y123.992 E16.7294
G1 X99.489 Y123.939 E16.8022
G1 X99.096 Y123.879 E16.8426
G1 X98.301 Y123.698 E16.9256
G1 X97.922 Y123.581 E16.9660
G1 X97.164 Y123.283 E17.0489
G1 X96.806 Y123.110 E17.0894
G1 X96.057 Y122.677 E17.1774
G1 X95.652 Y122.389 E17.2280
G1 X95.324 Y122.107 E17.2720
G1 X95.146 Y122.277 E17.2971
G1 X94.444 Y122.807 E17.3867
G1 X94.027 Y123.066 E17.4365
G1 X93.292 Y123.432 E17.5201
G1 X92.835 Y123.609 E17.5700
G1 X92.045 Y123.834 E17.6536
G1 X91.563 Y123.924 E17.7035
G1 X90.867 Y123.988 E17.7746
G1 X90.623 Y124.000 E17.7996
G1 X61.501 Y124.000 E20.7635
G1 X61.302 Y123.992 E20.7837
G1 X60.589 Y123.939 E20.8565
G1 X60.196 Y123.880 E20.8969
G1 X59.401 Y123.698 E20.9799
G1 X59.022 Y123.581 E21.0203
G1 X58.263 Y123.283 E21.1032
G1 X57.906 Y123.110 E21.1436
G1 X57.157 Y122.677 E21.2317
G1 X56.752 Y122.389 E21.2823
G1 X55.900 Y121.654 E21.3968
G1 X55.559 Y121.301 E21.4468
G1 X55.021 Y120.627 E21.5345
G1 X54.797 Y120.299 E21.5749
G1 X54.389 Y119.594 E21.6578
G1 X54.217 Y119.236 E21.6982
G1 X53.919 Y118.478 E21.7812
G1 X53.802 Y118.098 E21.8216
G1 X53.620 Y117.304 E21.9046
G1 X53.561 Y116.911 E21.9450
G1 X53.507 Y116.197 E22.0178
G1 X53.500 Y115.999 E22.0380
G1 X53.500 Y79.001 E25.8035
G1 X53.507 Y78.803 E25.8237
G1 X53.561 Y78.089 E25.8966
G1 X53.620 Y77.696 E25.9370
G1 X53.802 Y76.902 E26.0199
G1 X53.919 Y76.522 E26.0603
G1 X54.217 Y75.764 E26.1433
G1 X54.390 Y75.406 E26.1837
G1 X54.797 Y74.701 E26.2667
G1 X55.021 Y74.373 E26.3071
G1 X55.530 Y73.736 E26.3900
G1 X55.800 Y73.445 E26.4304
G1 X56.430 Y72.862 E26.5178
G92 E0.0000
G1 E-1.0000 F1800
; feature inner perimeter
G1 X61.192 Y78.538 F4800
G1 E0.0000 F1800
G92 E0.0000
G1 X61.301 Y78.474 E0.0129 F540
G1 X61.408 Y78.433 E0.0245
G1 X61.443 Y78.424 E0.0282
G1 X61.486 Y78.415 E0.0327
G1 X61.679 Y78.400 E0.0523
G1 X84.540 Y78.400 E2.3791
G1 X84.219 Y78.938 E2.4429
G1 X84.051 Y79.252 E2.4791
G1 X83.913 Y79.621 E2.5192
G1 X83.810 Y79.961 E2.5554
G1 X83.729 Y80.403 E2.6011
G1 X83.697 Y81.095 E2.6716
G1 X83.803 Y81.837 E2.7478
G1 X84.045 Y82.546 E2.8241
G1 X84.415 Y83.198 E2.9004
G1 X84.900 Y83.769 E2.9767
G1 X85.483 Y84.241 E3.0530
G1 X86.143 Y84.595 E3.1292
G1 X86.858 Y84.820 E3.2055
G1 X87.603 Y84.908 E3.2818
G1 X88.350 Y84.856 E3.3581
G1 X89.075 Y84.665 E3.4344
G1 X89.705 Y84.365 E3.5054
G1 X90.200 Y84.038 E3.5658
G1 X90.200 Y110.962 E6.3060
G1 X89.705 Y110.635 E6.3664
G1 X89.075 Y110.335 E6.4374
G1 X88.350 Y110.144 E6.5137
G1 X87.603 Y110.092 E6.5900
G1 X86.858 Y110.180 E6.6662
G1 X86.143 Y110.405 E6.7425
G1 X85.483 Y110.759 E6.8188
G1 X84.900 Y111.231 E6.8951
G1 X84.415 Y111.802 E6.9714
G1 X84.045 Y112.454 E7.0477
G1 X83.803 Y113.163 E7.1240
G1 X83.704 Y113.857 E7.1953
G1 X83.704 Y114.342 E7.2447
G1 X83.803 Y115.036 E7.3160
G1 X84.045 Y115.745 E7.3923
G1 X84.530 Y116.600 E7.4922
G1 X66.608 Y116.600 E9.3162
G1 X67.131 Y115.566 E9.4341
G1 X67.339 Y114.846 E9.5104
G1 X67.409 Y114.100 E9.5867
G1 X67.339 Y113.353 E9.6630
G1 X67.131 Y112.633 E9.7393
G1 X66.793 Y111.965 E9.8156
G1 X66.336 Y111.371 E9.8918
G1 X65.810 Y110.903 E9.9634
G1 X65.405 Y110.635 E10.0129
G1 X64.775 Y110.335 E10.0839
G1 X64.050 Y110.144 E10.1601
G1 X63.303 Y110.092 E10.2364
G1 X62.558 Y110.180 E10.3127
G1 X61.843 Y110.405 E10.3890
G1 X60.900 Y110.911 E10.4979
G1 X60.900 Y79.179 E13.7275
G1 X60.914 Y78.998 E13.7460
G1 X60.937 Y78.897 E13.7565
G1 X60.974 Y78.802 E13.7669
G1 X61.052 Y78.668 E13.7827
G1 X61.192 Y78.538 E13.8022
G1 X60.815 Y78.069 F4800
G92 E0.0000
G1 X60.853 Y78.041 E0.0047 F540
G1 X61.040 Y77.932 E0.0268
G1 X61.227 Y77.859 E0.0472
G1 X61.309 Y77.839 E0.0558
G1 X61.400 Y77.820 E0.0653
G1 X61.656 Y77.800 E0.0914
G1 X86.129 Y77.800 E2.5822
G1 X85.326 Y78.460 E2.6880
G1 X85.105 Y78.712 E2.7221
G1 X84.913 Y78.946 E2.7528
G1 X84.741 Y79.234 E2.7870
G1 X84.599 Y79.500 E2.8177
G1 X84.481 Y79.814 E2.8519
G1 X84.394 Y80.102 E2.8825
G1 X84.327 Y80.471 E2.9207
G1 X84.299 Y81.066 E2.9813
G1 X84.389 Y81.696 E3.0461
G1 X84.594 Y82.299 E3.1109
G1 X84.909 Y82.853 E3.1757
G1 X85.321 Y83.338 E3.2405
G1 X85.816 Y83.739 E3.3053
G1 X86.377 Y84.040 E3.3701
G1 X86.985 Y84.231 E3.4349
G1 X87.617 Y84.305 E3.4997
G1 X88.252 Y84.261 E3.5645
G1 X88.868 Y84.099 E3.6293
G1 X89.409 Y83.841 E3.6904
G1 X89.744 Y83.620 E3.7311
G1 X90.194 Y83.219 E3.7926
G1 X90.434 Y82.908 E3.8325
G1 X90.800 Y83.032 E3.8719
G1 X90.800 Y111.968 E6.8169
G1 X90.434 Y112.092 E6.8562
G1 X90.194 Y111.781 E6.8962
G1 X89.744 Y111.380 E6.9576
G1 X89.409 Y111.159 E6.9984
G1 X88.868 Y110.901 E7.0594
G1 X88.252 Y110.739 E7.1242
G1 X87.617 Y110.695 E7.1890
G1 X86.985 Y110.769 E7.2538
G1 X86.377 Y110.960 E7.3186
G1 X85.816 Y111.262 E7.3835
G1 X85.321 Y111.662 E7.4483
G1 X84.909 Y112.147 E7.5131
G1 X84.594 Y112.701 E7.5779
G1 X84.389 Y113.304 E7.6427
G1 X84.304 Y113.899 E7.7039
G1 X84.304 Y114.300 E7.7447
G1 X84.389 Y114.896 E7.8059
G1 X84.594 Y115.498 E7.8707
G1 X84.909 Y116.052 E7.9355
G1 X85.321 Y116.538 E8.0003
G1 X86.140 Y117.200 E8.1075
G1 X65.017 Y117.200 E10.2574
G1 X65.894 Y116.418 E10.3770
