; G-Code generated by Simplify3D(R) Version 4.1.2
; Jan 11, 2021 at 9:40:09 PM
; Settings Summary
;   processName,Process1
;   applyToModels,z_motor_mount_a_x2
;   profileName,Monoprice Maker Select (modified)
;   profileVersion,2016-06-08 08:00:00
;   baseProfile,
;   printMaterial,ABS
;   printQuality,High
;   printExtruders,
;   extruderName,Primary Extruder
;   extruderToolheadNumber,0
;   extruderDiameter,0.4
;   extruderAutoWidth,0
;   extruderWidth,0.4
;   extrusionMultiplier,1.02
;   extruderUseRetract,1
;   extruderRetractionDistance,1
;   extruderExtraRestartDistance,0
;   extruderRetractionZLift,0
;   extruderRetractionSpeed,1800
;   extruderUseCoasting,0
;   extruderCoastingDistance,0.2
;   extruderUseWipe,0
;   extruderWipeDistance,5
;   primaryExtruder,0
;   layerHeight,0.2
;   topSolidLayers,5
;   bottomSolidLayers,5
;   perimeterOutlines,4
;   printPerimetersInsideOut,1
;   startPointOption,2
;   startPointOriginX,0
;   startPointOriginY,0
;   sequentialIslands,0
;   spiralVaseMode,0
;   firstLayerHeightPercentage,200
;   firstLayerWidthPercentage,150
;   firstLayerUnderspeed,0.2
;   useRaft,0
;   raftExtruder,0
;   raftTopLayers,3
;   raftBaseLayers,2
;   raftOffset,3
;   raftSeparationDistance,0.14
;   raftTopInfill,100
;   aboveRaftSpeedMultiplier,0.3
;   useSkirt,1
;   skirtExtruder,0
;   skirtLayers,1
;   skirtOutlines,2
;   skirtOffset,1
;   usePrimePillar,0
;   primePillarExtruder,999
;   primePillarWidth,12
;   primePillarLocation,7
;   primePillarSpeedMultiplier,1
;   useOozeShield,0
;   oozeShieldExtruder,999
;   oozeShieldOffset,2
;   oozeShieldOutlines,1
;   oozeShieldSidewallShape,1
;   oozeShieldSidewallAngle,20
;   oozeShieldSpeedMultiplier,1
;   infillExtruder,0
;   internalInfillPattern,Rectilinear
;   externalInfillPattern,Rectilinear
;   infillPercentage,40
;   outlineOverlapPercentage,25
;   infillExtrusionWidthPercentage,150
;   minInfillLength,5
;   infillLayerInterval,1
;   internalInfillAngles,45,-45
;   overlapInternalInfillAngles,0
;   externalInfillAngles,45,-45
;   generateSupport,0
;   supportExtruder,0
;   supportInfillPercentage,40
;   supportExtraInflation,0
;   supportBaseLayers,0
;   denseSupportExtruder,0
;   denseSupportLayers,0
;   denseSupportInfillPercentage,70
;   supportLayerInterval,1
;   supportHorizontalPartOffset,0.3
;   supportUpperSeparationLayers,1
;   supportLowerSeparationLayers,1
;   supportType,0
;   supportGridSpacing,4
;   maxOverhangAngle,45
;   supportAngles,0
;   temperatureName,Primary Extruder,Heated Bed
;   temperatureNumber,0,0
;   temperatureSetpointCount,1,1
;   temperatureSetpointLayers,1,1
;   temperatureSetpointTemperatures,240,109
;   temperatureStabilizeAtStartup,1,1
;   temperatureHeatedBed,0,1
;   fanLayers,1
;   fanSpeeds,0
;   blipFanToFullPower,0
;   adjustSpeedForCooling,1
;   minSpeedLayerTime,15
;   minCoolingSpeedSlowdown,20
;   increaseFanForCooling,0
;   minFanLayerTime,45
;   maxCoolingFanSpeed,100
;   increaseFanForBridging,0
;   bridgingFanSpeed,100
;   use5D,1
;   relativeEdistances,0
;   allowEaxisZeroing,1
;   independentExtruderAxes,0
;   includeM10123,0
;   stickySupport,1
;   applyToolheadOffsets,0
;   gcodeXoffset,0
;   gcodeYoffset,0
;   gcodeZoffset,0
;   overrideMachineDefinition,1
;   machineTypeOverride,0
;   strokeXoverride,190
;   strokeYoverride,195
;   strokeZoverride,180
;   originOffsetXoverride,0
;   originOffsetYoverride,0
;   originOffsetZoverride,0
;   homeXdirOverride,-1
;   homeYdirOverride,-1
;   homeZdirOverride,-1
;   flipXoverride,1
;   flipYoverride,-1
;   flipZoverride,1
;   toolheadOffsets,0,0|0,0|0,0|0,0|0,0|0,0
;   overrideFirmwareConfiguration,1
;   firmwareTypeOverride,RepRap (Marlin/Repetier/Sprinter)
;   GPXconfigOverride,r2
;   baudRateOverride,115200
;   overridePrinterModels,1
;   printerModelsOverride
;   startingGcode,G28 ; home all axes
;   layerChangeGcode,
;   retractionGcode,
;   toolChangeGcode,
;   endingGcode,G28 X0 ; home X-axis,M104 S0 ; turn off extruder,M140 S0 ; turn off bed,M84 ; disable motors
;   exportFileFormat,gcode
;   celebration,0
;   celebrationSong,Random Song
;   postProcessing,
;   defaultSpeed,3600
;   outlineUnderspeed,0.5
;   solidInfillUnderspeed,0.8
;   supportUnderspeed,0.8
;   rapidXYspeed,4800
;   rapidZspeed,1002
;   minBridgingArea,50
;   bridgingExtraInflation,0
;   bridgingExtrusionMultiplier,1
;   bridgingSpeedMultiplier,1
;   useFixedBridgingAngle,0
;   fixedBridgingAngle,0
;   applyBridgingToPerimeters,0
;   filamentDiameters,1.75|1.75|1.75|1.75|1.75|1.75
;   filamentPricesPerKg,46|46|46|46|46|46
;   filamentDensities,1.25|1.25|1.25|1.25|1.25|1.25
;   useMinPrintHeight,0
;   minPrintHeight,0
;   useMaxPrintHeight,0
;   maxPrintHeight,0
;   useDiaphragm,0
;   diaphragmLayerInterval,20
;   robustSlicing,1
;   mergeAllIntoSolid,0
;   onlyRetractWhenCrossingOutline,1
;   retractBetweenLayers,1
;   useRetractionMinTravel,0
;   retractionMinTravel,3
;   retractWhileWiping,0
;   onlyWipeOutlines,1
;   avoidCrossingOutline,0
;   maxMovementDetourFactor,3
;   toolChangeRetractionDistance,12
;   toolChangeExtraRestartDistance,-0.5
;   toolChangeRetractionSpeed,600
;   externalThinWallType,0
;   internalThinWallType,2
;   thinWallAllowedOverlapPercentage,10
;   singleExtrusionMinLength,1
;   singleExtrusionMinPrintingWidthPercentage,50
;   singleExtrusionMaxPrintingWidthPercentage,200
;   singleExtrusionEndpointExtension,0.2
;   horizontalSizeCompensation,0
G90
M82
M106 S0
M140 S109
M190 S109
M104 S240 T0
M109 S240 T0
G28 ; home all axes
; process Process1
; layer 1, Z = 0.400
T0
G92 E0.0000
G1 E-1.0000 F1800
; feature skirt
; tool H0.400 W0.600
G1 Z0.400 F1002
G1 X71.483 Y103.690 F4800
G1 E0.0000 F1800
G92 E0.0000
G1 X72.042 Y103.315 E0.0685 F720
G1 X72.583 Y103.150 E0.1260
G1 X104.832 Y103.136 E3.4082
G1 X105.492 Y103.052 E3.4759
G1 X106.137 Y102.887 E3.5436
G1 X106.755 Y102.642 E3.6113
G1 X107.364 Y102.307 E3.6821
G1 X107.590 Y102.154 E3.7099
G1 X108.125 Y101.711 E3.7806
G1 X108.588 Y101.218 E3.8494
G1 X108.876 Y100.831 E3.8985
G1 X109.137 Y100.410 E3.9489
G1 X109.437 Y99.773 E4.0206
G1 X109.530 Y99.516 E4.0484
G1 X109.702 Y98.842 E4.1191
G1 X109.790 Y98.153 E4.1899
G1 X109.800 Y97.820 E4.2237
G1 X109.800 Y84.232 E5.6067
G1 X109.966 Y83.689 E5.6645
G1 X110.346 Y83.126 E5.7336
G1 X110.482 Y82.965 E5.7551
G1 X110.824 Y82.643 E5.8029
G1 X111.024 Y82.498 E5.8280
G1 X111.458 Y82.263 E5.8782
G1 X111.701 Y82.172 E5.9046
G1 X112.116 Y82.078 E5.9480
G1 X112.327 Y82.054 E5.9696
G1 X120.086 Y82.050 E6.7593
G1 X121.200 Y83.163 E6.9195
G1 X121.200 Y112.384 E9.8936
G1 X121.184 Y112.560 E9.9115
G1 X121.105 Y112.983 E9.9553
G1 X120.974 Y113.317 E9.9919
G1 X120.745 Y113.681 E10.0356
G1 X120.553 Y113.901 E10.0653
G1 X120.218 Y114.185 E10.1101
G1 X119.838 Y114.382 E10.1536
G1 X119.307 Y114.519 E10.2094
G1 X119.067 Y114.550 E10.2340
G1 X72.005 Y114.550 E15.0238
G1 X71.220 Y114.169 E15.1126
G1 X70.753 Y113.576 E15.1894
G1 X70.595 Y113.283 E15.2233
G1 X70.451 Y112.846 E15.2701
G1 X70.403 Y112.547 E15.3010
G1 X70.404 Y105.670 E16.0008
G1 X70.428 Y105.458 E16.0226
G1 X70.520 Y105.056 E16.0645
G1 X70.610 Y104.816 E16.0906
G1 X70.848 Y104.375 E16.1416
G1 X70.995 Y104.172 E16.1671
G1 X71.322 Y103.826 E16.2156
G1 X71.483 Y103.690 E16.2371
G92 E0.0000
G1 E-1.0000 F1800
G1 X71.845 Y104.169 F4800
G1 E0.0000 F1800
G92 E0.0000
G1 X72.302 Y103.863 E0.0560 F720
G1 X72.672 Y103.750 E0.0954
G1 X104.870 Y103.736 E3.3723
G1 X105.605 Y103.643 E3.4477
G1 X106.322 Y103.459 E3.5231
G1 X107.011 Y103.186 E3.5985
G1 X107.678 Y102.820 E3.6759
G1 X107.951 Y102.634 E3.7095
G1 X108.537 Y102.149 E3.7870
G1 X109.049 Y101.604 E3.8631
G1 X109.373 Y101.168 E3.9183
G1 X109.665 Y100.697 E3.9748
G1 X109.992 Y100.002 E4.0529
G1 X110.104 Y99.692 E4.0864
G1 X110.293 Y98.955 E4.1639
G1 X110.388 Y98.200 E4.2414
G1 X110.400 Y97.830 E4.2791
G1 X110.400 Y84.322 E5.6538
G1 X110.514 Y83.950 E5.6934
G1 X110.825 Y83.489 E5.7500
G1 X110.918 Y83.379 E5.7647
G1 X111.207 Y83.106 E5.8052
G1 X111.344 Y83.007 E5.8224
G1 X111.708 Y82.810 E5.8644
G1 X111.874 Y82.748 E5.8825
G1 X112.216 Y82.670 E5.9182
G1 X112.361 Y82.654 E5.9330
G1 X119.838 Y82.650 E6.6940
G1 X120.600 Y83.411 E6.8037
G1 X120.600 Y112.357 E9.7496
G1 X120.589 Y112.476 E9.7619
G1 X120.525 Y112.817 E9.7971
G1 X120.436 Y113.045 E9.8221
G1 X120.261 Y113.322 E9.8554
G1 X120.130 Y113.473 E9.8757
G1 X119.882 Y113.683 E9.9089
G1 X119.622 Y113.818 E9.9386
G1 X119.193 Y113.929 E9.9837
G1 X119.029 Y113.950 E10.0005
G1 X72.143 Y113.950 E14.7724
G1 X71.606 Y113.689 E14.8332
G1 X71.256 Y113.246 E14.8906
G1 X71.149 Y113.046 E14.9138
G1 X71.036 Y112.704 E14.9504
G1 X71.003 Y112.499 E14.9715
G1 X71.004 Y105.704 E15.6631
G1 X71.021 Y105.559 E15.6780
G1 X71.096 Y105.229 E15.7124
G1 X71.157 Y105.065 E15.7302
G1 X71.357 Y104.695 E15.7730
G1 X71.458 Y104.556 E15.7905
G1 X71.735 Y104.263 E15.8316
G1 X71.845 Y104.169 E15.8463
G92 E0.0000
G1 E-1.0000 F1800
; feature inner perimeter
G1 X74.404 Y107.150 F4800
G1 E0.0000 F1800
G92 E0.0000
G1 X104.533 Y107.150 E3.0664 F540
G1 X105.084 Y107.133 E3.1225
G1 X105.666 Y107.078 E3.1820
G1 X106.243 Y106.986 E3.2415
G1 X106.813 Y106.859 E3.3009
G1 X107.374 Y106.696 E3.3604
G1 X107.924 Y106.498 E3.4199
G1 X108.460 Y106.266 E3.4793
G1 X108.981 Y106.001 E3.5388
G1 X109.484 Y105.703 E3.5983
G1 X109.967 Y105.375 E3.6577
G1 X110.429 Y105.017 E3.7172
G1 X110.867 Y104.630 E3.7767
G1 X111.280 Y104.217 E3.8361
G1 X111.681 Y103.763 E3.8978
G1 X112.186 Y103.082 E3.9841
G1 X112.640 Y102.351 E4.0717
G1 X112.916 Y101.810 E4.1334
G1 X113.148 Y101.274 E4.1929
G1 X113.346 Y100.724 E4.2524
G1 X113.509 Y100.163 E4.3118
G1 X113.636 Y99.593 E4.3713
G1 X113.728 Y99.016 E4.4308
G1 X113.783 Y98.434 E4.4902
G1 X113.800 Y97.883 E4.5464
G1 X113.800 Y86.053 E5.7504
G1 X117.200 Y86.051 E6.0964
G1 X117.200 Y110.550 E8.5898
G1 X74.403 Y110.550 E12.9455
G1 X74.404 Y107.150 E13.2915
G1 X73.804 Y106.550 F4800
G92 E0.0000
G1 X104.523 Y106.550 E3.1265 F540
G1 X105.046 Y106.534 E3.1797
G1 X105.590 Y106.482 E3.2354
G1 X106.130 Y106.397 E3.2910
G1 X106.664 Y106.277 E3.3466
G1 X107.189 Y106.125 E3.4023
G1 X107.703 Y105.940 E3.4579
G1 X108.205 Y105.723 E3.5135
G1 X108.692 Y105.475 E3.5692
G1 X109.162 Y105.196 E3.6248
G1 X109.614 Y104.889 E3.6804
G1 X110.046 Y104.554 E3.7360
G1 X110.456 Y104.193 E3.7917
G1 X110.843 Y103.806 E3.8473
G1 X111.214 Y103.385 E3.9045
G1 X111.690 Y102.745 E3.9857
G1 X112.117 Y102.056 E4.0681
G1 X112.373 Y101.555 E4.1254
G1 X112.590 Y101.053 E4.1810
G1 X112.775 Y100.539 E4.2367
G1 X112.927 Y100.014 E4.2923
G1 X113.047 Y99.480 E4.3479
G1 X113.132 Y98.940 E4.4036
G1 X113.184 Y98.396 E4.4592
G1 X113.200 Y97.873 E4.5124
G1 X113.200 Y85.453 E5.7765
G1 X117.800 Y85.451 E6.2447
G1 X117.800 Y111.150 E8.8602
G1 X73.803 Y111.150 E13.3380
G1 X73.804 Y106.550 E13.8062
G1 X73.204 Y105.950 F4800
G92 E0.0000
G1 X104.514 Y105.950 E3.1866 F540
G1 X105.009 Y105.934 E3.2370
G1 X105.515 Y105.887 E3.2887
G1 X106.018 Y105.807 E3.3406
G1 X106.514 Y105.696 E3.3923
G1 X107.003 Y105.554 E3.4441
G1 X107.482 Y105.382 E3.4959
G1 X107.949 Y105.180 E3.5477
G1 X108.402 Y104.948 E3.5995
G1 X108.840 Y104.689 E3.6513
G1 X109.261 Y104.403 E3.7031
G1 X109.663 Y104.092 E3.7549
G1 X110.045 Y103.755 E3.8067
G1 X110.405 Y103.395 E3.8585
G1 X110.748 Y103.007 E3.9112
G1 X111.193 Y102.407 E3.9873
G1 X111.594 Y101.761 E4.0646
G1 X111.829 Y101.299 E4.1174
G1 X112.032 Y100.832 E4.1692
G1 X112.204 Y100.353 E4.2210
G1 X112.346 Y99.865 E4.2727
G1 X112.457 Y99.368 E4.3245
G1 X112.537 Y98.865 E4.3763
G1 X112.584 Y98.359 E4.4281
G1 X112.600 Y97.864 E4.4785
G1 X112.600 Y84.854 E5.8026
G1 X118.400 Y84.850 E6.3929
G1 X118.400 Y111.750 E9.1307
G1 X73.203 Y111.750 E13.7306
G1 X73.204 Y105.950 E14.3209
; feature outer perimeter
G1 X72.604 Y105.811 F4800
G92 E0.0000
G1 X72.627 Y105.711 E0.0104 F360
G1 X72.706 Y105.564 E0.0274
G1 X72.824 Y105.439 E0.0449
G1 X72.957 Y105.350 E0.0612
G1 X104.505 Y105.350 E3.2720
G1 X104.971 Y105.335 E3.3195
G1 X105.440 Y105.291 E3.3674
G1 X105.905 Y105.217 E3.4154
G1 X106.365 Y105.115 E3.4633
G1 X106.818 Y104.983 E3.5113
G1 X107.261 Y104.823 E3.5592
G1 X107.693 Y104.636 E3.6072
G1 X108.113 Y104.422 E3.6551
G1 X108.519 Y104.183 E3.7031
G1 X108.908 Y103.918 E3.7511
G1 X109.281 Y103.629 E3.7990
G1 X109.634 Y103.317 E3.8470
G1 X109.967 Y102.984 E3.8949
G1 X110.281 Y102.628 E3.9432
G1 X110.697 Y102.069 E4.0141
G1 X111.071 Y101.466 E4.0863
G1 X111.286 Y101.043 E4.1346
G1 X111.473 Y100.611 E4.1826
G1 X111.633 Y100.168 E4.2305
G1 X111.765 Y99.715 E4.2785
G1 X111.867 Y99.255 E4.3264
G1 X111.941 Y98.790 E4.3744
G1 X111.985 Y98.321 E4.4224
G1 X112.000 Y97.855 E4.4698
G1 X112.000 Y84.608 E5.8181
G1 X112.092 Y84.471 E5.8348
G1 X112.215 Y84.355 E5.8520
G1 X112.356 Y84.279 E5.8683
G1 X112.468 Y84.254 E5.8800
G1 X119.000 Y84.250 E6.5448
G1 X119.000 Y112.269 E9.3964
G1 X118.987 Y112.339 E9.4037
G1 X118.969 Y112.346 E9.4057
G1 X118.931 Y112.350 E9.4095
G1 X72.603 Y112.347 E14.1248
G1 X72.604 Y105.811 E14.7900
; feature solid layer
G1 X75.356 Y110.100 F4800
G92 E0.0000
G1 X74.854 Y109.598 E0.0723 F576
G1 X74.854 Y108.749 E0.1586
G1 X76.204 Y110.100 E0.3531
G1 X77.053 Y110.100 E0.4394
G1 X74.854 Y107.901 E0.7560
G1 X74.854 Y107.600 E0.7866
G1 X75.402 Y107.600 E0.8423
G1 X77.902 Y110.100 E1.2021
G1 X78.750 Y110.100 E1.2885
G1 X76.250 Y107.600 E1.6483
G1 X77.099 Y107.600 E1.7347
G1 X79.599 Y110.100 E2.0945
G1 X80.447 Y110.100 E2.1809
G1 X77.947 Y107.600 E2.5407
G1 X78.796 Y107.600 E2.6271
G1 X81.296 Y110.100 E2.9869
G1 X82.144 Y110.100 E3.0733
G1 X79.644 Y107.600 E3.4331
G1 X80.493 Y107.600 E3.5195
G1 X82.993 Y110.100 E3.8793
G1 X83.841 Y110.100 E3.9657
G1 X81.341 Y107.600 E4.3255
G1 X82.190 Y107.600 E4.4119
G1 X84.690 Y110.100 E4.7717
G1 X85.538 Y110.100 E4.8581
G1 X83.038 Y107.600 E5.2179
G1 X83.887 Y107.600 E5.3042
G1 X86.387 Y110.100 E5.6641
G1 X87.235 Y110.100 E5.7504
G1 X84.735 Y107.600 E6.1103
G1 X85.584 Y107.600 E6.1966
G1 X88.084 Y110.100 E6.5565
G1 X88.932 Y110.100 E6.6428
G1 X86.432 Y107.600 E7.0027
G1 X87.281 Y107.600 E7.0890
G1 X89.781 Y110.100 E7.4489
G1 X90.629 Y110.100 E7.5352
G1 X88.129 Y107.600 E7.8950
G1 X88.978 Y107.600 E7.9814
G1 X91.478 Y110.100 E8.3412
G1 X92.327 Y110.100 E8.4276
G1 X89.826 Y107.600 E8.7874
G1 X90.675 Y107.600 E8.8738
G1 X93.175 Y110.100 E9.2336
G1 X94.024 Y110.100 E9.3200
G1 X91.524 Y107.600 E9.6798
G1 X92.372 Y107.600 E9.7662
G1 X94.872 Y110.100 E10.1260
G1 X95.721 Y110.100 E10.2124
G1 X93.221 Y107.600 E10.5722
G1 X94.069 Y107.600 E10.6586
G1 X96.569 Y110.100 E11.0184
G1 X97.418 Y110.100 E11.1048
G1 X94.918 Y107.600 E11.4646
G1 X95.766 Y107.600 E11.5510
G1 X98.266 Y110.100 E11.9108
G1 X99.115 Y110.100 E11.9971
G1 X96.615 Y107.600 E12.3570
G1 X97.463 Y107.600 E12.4433
G1 X99.963 Y110.100 E12.8032
G1 X100.812 Y110.100 E12.8895
G1 X98.312 Y107.600 E13.2494
G1 X99.160 Y107.600 E13.3357
G1 X101.660 Y110.100 E13.6956
G1 X102.509 Y110.100 E13.7819
G1 X100.009 Y107.600 E14.1417
G1 X100.857 Y107.600 E14.2281
G1 X103.357 Y110.100 E14.5879
G1 X104.206 Y110.100 E14.6743
G1 X101.706 Y107.600 E15.0341
G1 X102.554 Y107.600 E15.1205
G1 X105.054 Y110.100 E15.4803
G1 X105.903 Y110.100 E15.5667
G1 X103.403 Y107.600 E15.9265
G1 X104.251 Y107.600 E16.0129
G1 X106.751 Y110.100 E16.3727
G1 X107.600 Y110.100 E16.4591
G1 X105.083 Y107.583 E16.8214
G1 X105.112 Y107.582 E16.8243
G1 X105.722 Y107.524 E16.8867
G1 X105.852 Y107.504 E16.9001
G1 X108.449 Y110.100 E17.2738
G1 X109.297 Y110.100 E17.3601
G1 X106.571 Y107.374 E17.7525
G1 X106.925 Y107.295 E17.7894
G1 X107.247 Y107.201 E17.8235
G1 X110.146 Y110.100 E18.2407
G1 X110.994 Y110.100 E18.3271
G1 X107.884 Y106.990 E18.7747
G1 X108.090 Y106.916 E18.7969
G1 X108.487 Y106.744 E18.8410
G1 X111.843 Y110.100 E19.3239
G1 X112.691 Y110.100 E19.4103
G1 X109.058 Y106.466 E19.9333
G1 X109.198 Y106.395 E19.9493
G1 X109.598 Y106.158 E19.9966
G1 X113.540 Y110.100 E20.5639
G1 X114.388 Y110.100 E20.6503
G1 X110.110 Y105.822 E21.2661
G1 X110.232 Y105.739 E21.2811
G1 X110.594 Y105.458 E21.3278
G1 X115.237 Y110.100 E21.9960
G1 X116.085 Y110.100 E22.0824
G1 X111.052 Y105.067 E22.8068
G1 X111.175 Y104.958 E22.8235
G1 X111.484 Y104.650 E22.8679
