; G-Code generated by Simplify3D(R) Version 4.1.2
; Jan 11, 2021 at 9:41:25 PM
; Settings Summary
;   processName,Process1
;   applyToModels,z_motor_mount_b_x2
;   profileName,Monoprice Maker Select (modified)
;   profileVersion,2016-06-08 08:00:00
;   baseProfile,
;   printMaterial,ABS
;   printQuality,High
;   printExtruders,
;   extruderName,Primary Extruder
;   extruderToolheadNumber,0
;   extruderDiameter,0.4
;   extruderAutoWidth,0
;   extruderWidth,0.4
;   extrusionMultiplier,1.02
;   extruderUseRetract,1
;   extruderRetractionDistance,1
;   extruderExtraRestartDistance,0
;   extruderRetractionZLift,0
;   extruderRetractionSpeed,1800
;   extruderUseCoasting,0
;   extruderCoastingDistance,0.2
;   extruderUseWipe,0
;   extruderWipeDistance,5
;   primaryExtruder,0
;   layerHeight,0.2
;   topSolidLayers,5
;   bottomSolidLayers,5
;   perimeterOutlines,4
;   printPerimetersInsideOut,1
;   startPointOption,2
;   startPointOriginX,0
;   startPointOriginY,0
;   sequentialIslands,0
;   spiralVaseMode,0
;   firstLayerHeightPercentage,200
;   firstLayerWidthPercentage,150
;   firstLayerUnderspeed,0.2
;   useRaft,0
;   raftExtruder,0
;   raftTopLayers,3
;   raftBaseLayers,2
;   raftOffset,3
;   raftSeparationDistance,0.14
;   raftTopInfill,100
;   aboveRaftSpeedMultiplier,0.3
;   useSkirt,1
;   skirtExtruder,0
;   skirtLayers,1
;   skirtOutlines,2
;   skirtOffset,1
;   usePrimePillar,0
;   primePillarExtruder,999
;   primePillarWidth,12
;   primePillarLocation,7
;   primePillarSpeedMultiplier,1
;   useOozeShield,0
;   oozeShieldExtruder,999
;   oozeShieldOffset,2
;   oozeShieldOutlines,1
;   oozeShieldSidewallShape,1
;   oozeShieldSidewallAngle,20
;   oozeShieldSpeedMultiplier,1
;   infillExtruder,0
;   internalInfillPattern,Rectilinear
;   externalInfillPattern,Rectilinear
;   infillPercentage,40
;   outlineOverlapPercentage,25
;   infillExtrusionWidthPercentage,150
;   minInfillLength,5
;   infillLayerInterval,1
;   internalInfillAngles,45,-45
;   overlapInternalInfillAngles,0
;   externalInfillAngles,45,-45
;   generateSupport,0
;   supportExtruder,0
;   supportInfillPercentage,40
;   supportExtraInflation,0
;   supportBaseLayers,0
;   denseSupportExtruder,0
;   denseSupportLayers,0
;   denseSupportInfillPercentage,70
;   supportLayerInterval,1
;   supportHorizontalPartOffset,0.3
;   supportUpperSeparationLayers,1
;   supportLowerSeparationLayers,1
;   supportType,0
;   supportGridSpacing,4
;   maxOverhangAngle,45
;   supportAngles,0
;   temperatureName,Primary Extruder,Heated Bed
;   temperatureNumber,0,0
;   temperatureSetpointCount,1,1
;   temperatureSetpointLayers,1,1
;   temperatureSetpointTemperatures,240,109
;   temperatureStabilizeAtStartup,1,1
;   temperatureHeatedBed,0,1
;   fanLayers,1
;   fanSpeeds,0
;   blipFanToFullPower,0
;   adjustSpeedForCooling,1
;   minSpeedLayerTime,15
;   minCoolingSpeedSlowdown,20
;   increaseFanForCooling,0
;   minFanLayerTime,45
;   maxCoolingFanSpeed,100
;   increaseFanForBridging,0
;   bridgingFanSpeed,100
;   use5D,1
;   relativeEdistances,0
;   allowEaxisZeroing,1
;   independentExtruderAxes,0
;   includeM10123,0
;   stickySupport,1
;   applyToolheadOffsets,0
;   gcodeXoffset,0
;   gcodeYoffset,0
;   gcodeZoffset,0
;   overrideMachineDefinition,1
;   machineTypeOverride,0
;   strokeXoverride,190
;   strokeYoverride,195
;   strokeZoverride,180
;   originOffsetXoverride,0
;   originOffsetYoverride,0
;   originOffsetZoverride,0
;   homeXdirOverride,-1
;   homeYdirOverride,-1
;   homeZdirOverride,-1
;   flipXoverride,1
;   flipYoverride,-1
;   flipZoverride,1
;   toolheadOffsets,0,0|0,0|0,0|0,0|0,0|0,0
;   overrideFirmwareConfiguration,1
;   firmwareTypeOverride,RepRap (Marlin/Repetier/Sprinter)
;   GPXconfigOverride,r2
;   baudRateOverride,115200
;   overridePrinterModels,1
;   printerModelsOverride
;   startingGcode,G28 ; home all axes
;   layerChangeGcode,
;   retractionGcode,
;   toolChangeGcode,
;   endingGcode,G28 X0 ; home X-axis,M104 S0 ; turn off extruder,M140 S0 ; turn off bed,M84 ; disable motors
;   exportFileFormat,gcode
;   celebration,0
;   celebrationSong,Random Song
;   postProcessing,
;   defaultSpeed,3600
;   outlineUnderspeed,0.5
;   solidInfillUnderspeed,0.8
;   supportUnderspeed,0.8
;   rapidXYspeed,4800
;   rapidZspeed,1002
;   minBridgingArea,50
;   bridgingExtraInflation,0
;   bridgingExtrusionMultiplier,1
;   bridgingSpeedMultiplier,1
;   useFixedBridgingAngle,0
;   fixedBridgingAngle,0
;   applyBridgingToPerimeters,0
;   filamentDiameters,1.75|1.75|1.75|1.75|1.75|1.75
;   filamentPricesPerKg,46|46|46|46|46|46
;   filamentDensities,1.25|1.25|1.25|1.25|1.25|1.25
;   useMinPrintHeight,0
;   minPrintHeight,0
;   useMaxPrintHeight,0
;   maxPrintHeight,0
;   useDiaphragm,0
;   diaphragmLayerInterval,20
;   robustSlicing,1
;   mergeAllIntoSolid,0
;   onlyRetractWhenCrossingOutline,1
;   retractBetweenLayers,1
;   useRetractionMinTravel,0
;   retractionMinTravel,3
;   retractWhileWiping,0
;   onlyWipeOutlines,1
;   avoidCrossingOutline,0
;   maxMovementDetourFactor,3
;   toolChangeRetractionDistance,12
;   toolChangeExtraRestartDistance,-0.5
;   toolChangeRetractionSpeed,600
;   externalThinWallType,0
;   internalThinWallType,2
;   thinWallAllowedOverlapPercentage,10
;   singleExtrusionMinLength,1
;   singleExtrusionMinPrintingWidthPercentage,50
;   singleExtrusionMaxPrintingWidthPercentage,200
;   singleExtrusionEndpointExtension,0.2
;   horizontalSizeCompensation,0
G90
M82
M106 S0
M140 S109
M190 S109
M104 S240 T0
M109 S240 T0
G28 ; home all axes
; process Process1
; layer 1, Z = 0.400
T0
G92 E0.0000
G1 E-1.0000 F1800
; feature skirt
; tool H0.400 W0.600
G1 Z0.400 F1002
G1 X71.098 Y80.921 F4800
G1 E0.0000 F1800
G92 E0.0000
G1 X71.954 Y80.450 E0.0994 F720
G1 X119.279 Y80.460 E4.9160
G1 X119.742 Y80.578 E4.9646
G1 X120.339 Y80.905 E5.0339
G1 X120.693 Y81.237 E5.0833
G1 X120.974 Y81.683 E5.1369
G1 X121.105 Y82.017 E5.1735
G1 X121.184 Y82.440 E5.2173
G1 X121.200 Y82.616 E5.2352
G1 X121.200 Y111.837 E8.2093
G1 X120.086 Y112.950 E8.3695
G1 X112.327 Y112.946 E9.1592
G1 X112.116 Y112.922 E9.1808
G1 X111.701 Y112.828 E9.2242
G1 X111.458 Y112.737 E9.2506
G1 X111.024 Y112.502 E9.3008
G1 X110.824 Y112.357 E9.3259
G1 X110.482 Y112.035 E9.3737
G1 X110.346 Y111.874 E9.3952
G1 X109.966 Y111.311 E9.4643
G1 X109.800 Y110.768 E9.5221
G1 X109.800 Y97.180 E10.9050
G1 X109.790 Y96.847 E10.9389
G1 X109.701 Y96.147 E11.0107
G1 X109.586 Y95.678 E11.0599
G1 X109.428 Y95.209 E11.1102
G1 X109.141 Y94.598 E11.1789
G1 X108.779 Y94.028 E11.2477
G1 X108.475 Y93.653 E11.2968
G1 X108.112 Y93.274 E11.3502
G1 X107.900 Y93.087 E11.3790
G1 X107.338 Y92.678 E11.4498
G1 X106.729 Y92.343 E11.5205
G1 X106.478 Y92.235 E11.5483
G1 X105.817 Y92.020 E11.6190
G1 X105.164 Y91.896 E11.6867
G1 X104.440 Y91.850 E11.7605
G1 X72.583 Y91.850 E15.0028
G1 X72.042 Y91.685 E15.0603
G1 X71.483 Y91.310 E15.1288
G1 X71.322 Y91.174 E15.1503
G1 X70.995 Y90.828 E15.1988
G1 X70.848 Y90.625 E15.2244
G1 X70.610 Y90.184 E15.2753
G1 X70.520 Y89.944 E15.3014
G1 X70.428 Y89.542 E15.3433
G1 X70.404 Y89.330 E15.3650
G1 X70.400 Y82.585 E16.0516
G1 X70.409 Y82.453 E16.0651
G1 X70.460 Y82.088 E16.1025
G1 X70.600 Y81.707 E16.1438
G1 X71.098 Y80.921 E16.2386
G92 E0.0000
G1 E-1.0000 F1800
G1 X71.522 Y81.372 F4800
G1 E0.0000 F1800
G92 E0.0000
G1 X72.108 Y81.050 E0.0680 F720
G1 X119.203 Y81.060 E4.8612
G1 X119.520 Y81.141 E4.8945
G1 X119.984 Y81.394 E4.9483
G1 X120.226 Y81.622 E4.9821
G1 X120.436 Y81.955 E5.0221
G1 X120.525 Y82.183 E5.0471
G1 X120.589 Y82.524 E5.0824
G1 X120.600 Y82.643 E5.0946
G1 X120.600 Y111.589 E8.0405
G1 X119.838 Y112.350 E8.1502
G1 X112.361 Y112.346 E8.9112
G1 X112.216 Y112.330 E8.9260
G1 X111.874 Y112.252 E8.9617
G1 X111.708 Y112.190 E8.9798
G1 X111.344 Y111.993 E9.0219
G1 X111.207 Y111.894 E9.0391
G1 X110.918 Y111.621 E9.0795
G1 X110.825 Y111.511 E9.0942
G1 X110.514 Y111.050 E9.1508
G1 X110.400 Y110.678 E9.1904
G1 X110.400 Y97.170 E10.5651
G1 X110.388 Y96.800 E10.6029
G1 X110.292 Y96.038 E10.6810
G1 X110.163 Y95.511 E10.7363
G1 X109.986 Y94.985 E10.7927
G1 X109.668 Y94.309 E10.8688
G1 X109.267 Y93.678 E10.9449
G1 X108.926 Y93.256 E11.0001
G1 X108.528 Y92.840 E11.0587
G1 X108.276 Y92.618 E11.0929
G1 X107.660 Y92.171 E11.1704
G1 X106.993 Y91.804 E11.2478
G1 X106.691 Y91.673 E11.2814
G1 X105.967 Y91.438 E11.3588
G1 X105.239 Y91.299 E11.4342
G1 X104.459 Y91.250 E11.5137
G1 X72.673 Y91.250 E14.7488
G1 X72.303 Y91.137 E14.7882
G1 X71.845 Y90.831 E14.8443
G1 X71.735 Y90.737 E14.8590
G1 X71.458 Y90.444 E14.9000
G1 X71.357 Y90.305 E14.9175
G1 X71.157 Y89.935 E14.9603
G1 X71.096 Y89.771 E14.9782
G1 X71.021 Y89.441 E15.0125
G1 X71.004 Y89.296 E15.0274
G1 X71.000 Y82.605 E15.7084
G1 X71.006 Y82.515 E15.7176
G1 X71.045 Y82.235 E15.7464
G1 X71.141 Y81.974 E15.7746
G1 X71.522 Y81.372 E15.8472
G92 E0.0000
G1 E-1.0000 F1800
; feature inner perimeter
G1 X74.401 Y84.450 F4800
G1 E0.0000 F1800
G92 E0.0000
G1 X117.200 Y84.450 E4.3559 F540
G1 X117.200 Y108.949 E6.8493
G1 X113.800 Y108.947 E7.1953
G1 X113.800 Y97.117 E8.3993
G1 X113.783 Y96.566 E8.4555
G1 X113.728 Y95.984 E8.5149
G1 X113.633 Y95.386 E8.5766
G1 X113.431 Y94.563 E8.6628
G1 X113.157 Y93.747 E8.7505
G1 X112.916 Y93.190 E8.8122
G1 X112.651 Y92.669 E8.8717
G1 X112.353 Y92.166 E8.9311
G1 X112.013 Y91.665 E8.9928
G1 X111.479 Y91.006 E9.0791
G1 X110.884 Y90.385 E9.1667
G1 X110.429 Y89.983 E9.2284
G1 X109.967 Y89.625 E9.2879
G1 X109.484 Y89.297 E9.3474
G1 X108.981 Y88.999 E9.4068
G1 X108.460 Y88.734 E9.4663
G1 X107.924 Y88.502 E9.5258
G1 X107.374 Y88.304 E9.5853
G1 X106.813 Y88.141 E9.6447
G1 X106.243 Y88.014 E9.7042
G1 X105.666 Y87.922 E9.7637
G1 X105.084 Y87.867 E9.8231
G1 X104.533 Y87.850 E9.8792
G1 X74.403 Y87.850 E12.9457
G1 X74.401 Y84.450 E13.2918
G1 X73.801 Y83.850 F4800
G92 E0.0000
G1 X117.800 Y83.850 E4.4781 F540
G1 X117.800 Y109.549 E7.0936
G1 X113.200 Y109.547 E7.5618
G1 X113.200 Y97.127 E8.8259
G1 X113.184 Y96.604 E8.8791
G1 X113.132 Y96.060 E8.9347
G1 X113.044 Y95.504 E8.9919
G1 X112.854 Y94.730 E9.0731
G1 X112.596 Y93.962 E9.1556
G1 X112.373 Y93.445 E9.2128
G1 X112.124 Y92.958 E9.2685
G1 X111.846 Y92.488 E9.3241
G1 X111.530 Y92.023 E9.3813
G1 X111.029 Y91.403 E9.4625
G1 X110.468 Y90.818 E9.5449
G1 X110.046 Y90.446 E9.6022
G1 X109.614 Y90.111 E9.6578
G1 X109.162 Y89.804 E9.7135
G1 X108.692 Y89.525 E9.7691
G1 X108.205 Y89.277 E9.8247
G1 X107.703 Y89.060 E9.8803
G1 X107.189 Y88.875 E9.9360
G1 X106.664 Y88.723 E9.9916
G1 X106.130 Y88.603 E10.0472
G1 X105.590 Y88.518 E10.1029
G1 X105.046 Y88.466 E10.1585
G1 X104.523 Y88.450 E10.2117
G1 X73.804 Y88.450 E13.3383
G1 X73.801 Y83.850 E13.8065
G1 X73.200 Y83.250 F4800
G92 E0.0000
G1 X118.400 Y83.250 E4.6002 F540
G1 X118.400 Y110.150 E7.3380
G1 X112.600 Y110.146 E7.9283
G1 X112.600 Y97.136 E9.2524
G1 X112.584 Y96.641 E9.3028
G1 X112.537 Y96.135 E9.3546
G1 X112.455 Y95.623 E9.4073
G1 X112.278 Y94.897 E9.4833
G1 X112.035 Y94.177 E9.5607
G1 X111.830 Y93.701 E9.6135
G1 X111.598 Y93.248 E9.6653
G1 X111.339 Y92.810 E9.7171
G1 X111.048 Y92.381 E9.7698
G1 X110.578 Y91.800 E9.8458
G1 X110.052 Y91.251 E9.9232
G1 X109.663 Y90.908 E9.9760
G1 X109.261 Y90.597 E10.0277
G1 X108.840 Y90.311 E10.0795
G1 X108.402 Y90.052 E10.1313
G1 X107.949 Y89.820 E10.1831
G1 X107.482 Y89.618 E10.2349
G1 X107.003 Y89.446 E10.2867
G1 X106.514 Y89.304 E10.3385
G1 X106.018 Y89.193 E10.3903
G1 X105.515 Y89.113 E10.4421
G1 X105.009 Y89.066 E10.4939
G1 X104.514 Y89.050 E10.5442
G1 X73.204 Y89.050 E13.7309
G1 X73.200 Y83.250 E14.3212
; feature outer perimeter
G1 X72.600 Y82.671 F4800
G92 E0.0000
G1 X72.603 Y82.650 E0.0021 F360
G1 X118.931 Y82.650 E4.7172
G1 X118.969 Y82.654 E4.7211
G1 X118.987 Y82.661 E4.7231
G1 X119.000 Y82.731 E4.7304
G1 X119.000 Y110.750 E7.5820
G1 X112.468 Y110.746 E8.2468
G1 X112.356 Y110.721 E8.2585
G1 X112.215 Y110.645 E8.2748
G1 X112.092 Y110.529 E8.2920
G1 X112.000 Y110.392 E8.3087
G1 X112.000 Y97.145 E9.6570
G1 X111.985 Y96.679 E9.7044
G1 X111.941 Y96.210 E9.7524
G1 X111.867 Y95.742 E9.8007
G1 X111.701 Y95.065 E9.8716
G1 X111.475 Y94.392 E9.9438
G1 X111.286 Y93.957 E9.9921
G1 X111.072 Y93.537 E10.0400
G1 X110.833 Y93.131 E10.0880
G1 X110.566 Y92.739 E10.1363
G1 X110.128 Y92.197 E10.2072
G1 X109.637 Y91.685 E10.2794
G1 X109.281 Y91.371 E10.3277
G1 X108.908 Y91.082 E10.3757
G1 X108.519 Y90.817 E10.4236
G1 X108.113 Y90.578 E10.4716
G1 X107.693 Y90.364 E10.5195
G1 X107.261 Y90.177 E10.5675
G1 X106.818 Y90.017 E10.6154
G1 X106.365 Y89.885 E10.6634
G1 X105.905 Y89.783 E10.7113
G1 X105.440 Y89.709 E10.7593
G1 X104.971 Y89.665 E10.8073
G1 X104.505 Y89.650 E10.8547
G1 X72.957 Y89.650 E14.0655
G1 X72.824 Y89.561 E14.0818
G1 X72.706 Y89.436 E14.0993
G1 X72.627 Y89.289 E14.1163
G1 X72.604 Y89.189 E14.1267
G1 X72.600 Y82.671 E14.7901
; feature solid layer
G1 X74.853 Y86.686 F4800
G92 E0.0000
G1 X75.566 Y87.400 E0.1027 F576
G1 X76.415 Y87.400 E0.1891
G1 X74.852 Y85.837 E0.4140
G1 X74.851 Y84.988 E0.5004
G1 X77.263 Y87.400 E0.8476
G1 X78.112 Y87.400 E0.9339
G1 X75.612 Y84.900 E1.2938
G1 X76.460 Y84.900 E1.3801
G1 X78.960 Y87.400 E1.7400
G1 X79.809 Y87.400 E1.8263
G1 X77.309 Y84.900 E2.1861
G1 X78.157 Y84.900 E2.2725
G1 X80.657 Y87.400 E2.6323
G1 X81.506 Y87.400 E2.7187
G1 X79.006 Y84.900 E3.0785
G1 X79.854 Y84.900 E3.1649
G1 X82.354 Y87.400 E3.5247
G1 X83.203 Y87.400 E3.6111
G1 X80.703 Y84.900 E3.9709
G1 X81.551 Y84.900 E4.0573
G1 X84.051 Y87.400 E4.4171
G1 X84.900 Y87.400 E4.5035
G1 X82.400 Y84.900 E4.8633
G1 X83.249 Y84.900 E4.9497
G1 X85.749 Y87.400 E5.3095
G1 X86.597 Y87.400 E5.3959
G1 X84.097 Y84.900 E5.7557
G1 X84.946 Y84.900 E5.8421
G1 X87.446 Y87.400 E6.2019
G1 X88.294 Y87.400 E6.2882
G1 X85.794 Y84.900 E6.6481
G1 X86.643 Y84.900 E6.7344
G1 X89.143 Y87.400 E7.0943
G1 X89.991 Y87.400 E7.1806
G1 X87.491 Y84.900 E7.5405
G1 X88.340 Y84.900 E7.6268
G1 X90.840 Y87.400 E7.9867
G1 X91.688 Y87.400 E8.0730
G1 X89.188 Y84.900 E8.4329
G1 X90.037 Y84.900 E8.5192
G1 X92.537 Y87.400 E8.8791
G1 X93.385 Y87.400 E8.9654
G1 X90.885 Y84.900 E9.3252
G1 X91.734 Y84.900 E9.4116
G1 X94.234 Y87.400 E9.7714
G1 X95.082 Y87.400 E9.8578
G1 X92.582 Y84.900 E10.2176
G1 X93.431 Y84.900 E10.3040
G1 X95.931 Y87.400 E10.6638
G1 X96.779 Y87.400 E10.7502
G1 X94.279 Y84.900 E11.1100
G1 X95.128 Y84.900 E11.1964
G1 X97.628 Y87.400 E11.5562
G1 X98.476 Y87.400 E11.6426
G1 X95.976 Y84.900 E12.0024
G1 X96.825 Y84.900 E12.0888
G1 X99.325 Y87.400 E12.4486
G1 X100.174 Y87.400 E12.5350
G1 X97.674 Y84.900 E12.8948
G1 X98.522 Y84.900 E12.9812
G1 X101.022 Y87.400 E13.3410
G1 X101.871 Y87.400 E13.4273
G1 X99.371 Y84.900 E13.7872
G1 X100.219 Y84.900 E13.8735
G1 X102.719 Y87.400 E14.2334
G1 X103.568 Y87.400 E14.3197
G1 X101.068 Y84.900 E14.6796
G1 X101.916 Y84.900 E14.7659
G1 X104.416 Y87.400 E15.1258
G1 X104.540 Y87.400 E15.1384
G1 X105.112 Y87.418 E15.1966
G1 X105.300 Y87.436 E15.2159
G1 X102.765 Y84.900 E15.5809
G1 X103.613 Y84.900 E15.6672
G1 X106.277 Y87.563 E16.0506
G1 X106.327 Y87.571 E16.0558
G1 X106.925 Y87.705 E16.1181
G1 X107.407 Y87.845 E16.1692
G1 X104.462 Y84.900 E16.5931
G1 X105.310 Y84.900 E16.6794
G1 X108.826 Y88.415 E17.1854
G1 X109.198 Y88.605 E17.2279
G1 X109.725 Y88.917 E17.2903
G1 X110.232 Y89.261 E17.3526
G1 X110.716 Y89.637 E17.4150
G1 X111.196 Y90.060 E17.4801
G1 X111.817 Y90.709 E17.5715
G1 X112.374 Y91.397 E17.6616
G1 X112.733 Y91.925 E17.7266
G1 X113.045 Y92.452 E17.7890
G1 X113.235 Y92.824 E17.8315
G1 X116.750 Y96.340 E18.3375
G1 X116.750 Y95.491 E18.4238
G1 X106.159 Y84.900 E19.9483
G1 X107.007 Y84.900 E20.0346
G1 X116.750 Y94.643 E21.4369
G1 X116.750 Y93.794 E21.5233
G1 X107.856 Y84.900 E22.8034
G1 X108.704 Y84.900 E22.8898
G1 X116.750 Y92.946 E24.0478
G1 X116.750 Y92.097 E24.1342
G1 X109.553 Y84.900 E25.1701
G1 X110.401 Y84.900 E25.2564
G1 X116.750 Y91.249 E26.1702
G1 X116.750 Y90.400 E26.2566
G1 X111.250 Y84.900 E27.0482
G1 X112.098 Y84.900 E27.1346
G1 X116.750 Y89.552 E27.8041
G1 X116.750 Y88.703 E27.8904
G1 X112.947 Y84.900 E28.4378
G1 X113.796 Y84.900 E28.5242
G1 X116.750 Y87.854 E28.9494
G1 X116.750 Y87.006 E29.0358
G1 X114.644 Y84.900 E29.3389
G1 X115.493 Y84.900 E29.4252
G1 X116.750 Y86.157 E29.6062
G1 X116.750 Y85.309 E29.6926
