; G-Code generated by Simplify3D(R) Version 4.1.2
; Jan 23, 2021 at 7:59:39 AM
; Settings Summary
;   processName,Process1
;   applyToModels,lrs_psu_bracket_clip
;   profileName,Monoprice Maker Select (modified)
;   profileVersion,2016-06-08 08:00:00
;   baseProfile,
;   printMaterial,ABS
;   printQuality,High
;   printExtruders,
;   extruderName,Primary Extruder
;   extruderToolheadNumber,0
;   extruderDiameter,0.4
;   extruderAutoWidth,0
;   extruderWidth,0.4
;   extrusionMultiplier,1.01
;   extruderUseRetract,1
;   extruderRetractionDistance,1
;   extruderExtraRestartDistance,0
;   extruderRetractionZLift,0
;   extruderRetractionSpeed,1800
;   extruderUseCoasting,0
;   extruderCoastingDistance,0.2
;   extruderUseWipe,0
;   extruderWipeDistance,5
;   primaryExtruder,0
;   layerHeight,0.2
;   topSolidLayers,5
;   bottomSolidLayers,5
;   perimeterOutlines,4
;   printPerimetersInsideOut,1
;   startPointOption,2
;   startPointOriginX,0
;   startPointOriginY,0
;   sequentialIslands,0
;   spiralVaseMode,0
;   firstLayerHeightPercentage,200
;   firstLayerWidthPercentage,150
;   firstLayerUnderspeed,0.2
;   useRaft,0
;   raftExtruder,0
;   raftTopLayers,3
;   raftBaseLayers,2
;   raftOffset,3
;   raftSeparationDistance,0.14
;   raftTopInfill,100
;   aboveRaftSpeedMultiplier,0.3
;   useSkirt,1
;   skirtExtruder,0
;   skirtLayers,1
;   skirtOutlines,1
;   skirtOffset,1.5
;   usePrimePillar,0
;   primePillarExtruder,999
;   primePillarWidth,12
;   primePillarLocation,7
;   primePillarSpeedMultiplier,1
;   useOozeShield,0
;   oozeShieldExtruder,999
;   oozeShieldOffset,2
;   oozeShieldOutlines,1
;   oozeShieldSidewallShape,1
;   oozeShieldSidewallAngle,20
;   oozeShieldSpeedMultiplier,1
;   infillExtruder,0
;   internalInfillPattern,Rectilinear
;   externalInfillPattern,Rectilinear
;   infillPercentage,40
;   outlineOverlapPercentage,25
;   infillExtrusionWidthPercentage,150
;   minInfillLength,5
;   infillLayerInterval,1
;   internalInfillAngles,45,-45
;   overlapInternalInfillAngles,0
;   externalInfillAngles,45,-45
;   generateSupport,0
;   supportExtruder,0
;   supportInfillPercentage,40
;   supportExtraInflation,0
;   supportBaseLayers,0
;   denseSupportExtruder,0
;   denseSupportLayers,0
;   denseSupportInfillPercentage,70
;   supportLayerInterval,1
;   supportHorizontalPartOffset,0.3
;   supportUpperSeparationLayers,1
;   supportLowerSeparationLayers,1
;   supportType,0
;   supportGridSpacing,4
;   maxOverhangAngle,45
;   supportAngles,0
;   temperatureName,Primary Extruder,Heated Bed
;   temperatureNumber,0,0
;   temperatureSetpointCount,1,1
;   temperatureSetpointLayers,1,1
;   temperatureSetpointTemperatures,240,109
;   temperatureStabilizeAtStartup,1,1
;   temperatureHeatedBed,0,1
;   fanLayers,1
;   fanSpeeds,0
;   blipFanToFullPower,0
;   adjustSpeedForCooling,1
;   minSpeedLayerTime,15
;   minCoolingSpeedSlowdown,20
;   increaseFanForCooling,0
;   minFanLayerTime,45
;   maxCoolingFanSpeed,100
;   increaseFanForBridging,0
;   bridgingFanSpeed,100
;   use5D,1
;   relativeEdistances,0
;   allowEaxisZeroing,1
;   independentExtruderAxes,0
;   includeM10123,0
;   stickySupport,1
;   applyToolheadOffsets,0
;   gcodeXoffset,0
;   gcodeYoffset,0
;   gcodeZoffset,0
;   overrideMachineDefinition,1
;   machineTypeOverride,0
;   strokeXoverride,190
;   strokeYoverride,195
;   strokeZoverride,180
;   originOffsetXoverride,0
;   originOffsetYoverride,0
;   originOffsetZoverride,0
;   homeXdirOverride,-1
;   homeYdirOverride,-1
;   homeZdirOverride,-1
;   flipXoverride,1
;   flipYoverride,-1
;   flipZoverride,1
;   toolheadOffsets,0,0|0,0|0,0|0,0|0,0|0,0
;   overrideFirmwareConfiguration,1
;   firmwareTypeOverride,RepRap (Marlin/Repetier/Sprinter)
;   GPXconfigOverride,r2
;   baudRateOverride,115200
;   overridePrinterModels,1
;   printerModelsOverride
;   startingGcode,G28 ; home all axes
;   layerChangeGcode,
;   retractionGcode,
;   toolChangeGcode,
;   endingGcode,G28 X0 ; home X-axis,M104 S0 ; turn off extruder,M140 S0 ; turn off bed,M84 ; disable motors
;   exportFileFormat,gcode
;   celebration,0
;   celebrationSong,Random Song
;   postProcessing,
;   defaultSpeed,3600
;   outlineUnderspeed,0.5
;   solidInfillUnderspeed,0.8
;   supportUnderspeed,0.8
;   rapidXYspeed,4800
;   rapidZspeed,1002
;   minBridgingArea,50
;   bridgingExtraInflation,0
;   bridgingExtrusionMultiplier,1
;   bridgingSpeedMultiplier,1
;   useFixedBridgingAngle,0
;   fixedBridgingAngle,0
;   applyBridgingToPerimeters,0
;   filamentDiameters,1.75|1.75|1.75|1.75|1.75|1.75
;   filamentPricesPerKg,46|46|46|46|46|46
;   filamentDensities,1.25|1.25|1.25|1.25|1.25|1.25
;   useMinPrintHeight,0
;   minPrintHeight,0
;   useMaxPrintHeight,0
;   maxPrintHeight,0
;   useDiaphragm,0
;   diaphragmLayerInterval,20
;   robustSlicing,1
;   mergeAllIntoSolid,0
;   onlyRetractWhenCrossingOutline,1
;   retractBetweenLayers,1
;   useRetractionMinTravel,0
;   retractionMinTravel,3
;   retractWhileWiping,0
;   onlyWipeOutlines,1
;   avoidCrossingOutline,0
;   maxMovementDetourFactor,3
;   toolChangeRetractionDistance,12
;   toolChangeExtraRestartDistance,-0.5
;   toolChangeRetractionSpeed,600
;   externalThinWallType,0
;   internalThinWallType,2
;   thinWallAllowedOverlapPercentage,10
;   singleExtrusionMinLength,1
;   singleExtrusionMinPrintingWidthPercentage,50
;   singleExtrusionMaxPrintingWidthPercentage,200
;   singleExtrusionEndpointExtension,0.2
;   horizontalSizeCompensation,0
G90
M82
M106 S0
M140 S109
M190 S109
M104 S240 T0
M109 S240 T0
G28 ; home all axes
; process Process1
; layer 1, Z = 0.400
T0
G92 E0.0000
G1 E-1.0000 F1800
; feature skirt
; tool H0.400 W0.600
G1 Z0.400 F1002
G1 X65.881 Y70.093 F4800
G1 E0.0000 F1800
G92 E0.0000
G1 X66.666 Y69.503 E0.0990 F720
G1 X66.778 Y69.431 E0.1124
G1 X67.338 Y69.127 E0.1766
G1 X67.451 Y69.075 E0.1891
G1 X68.199 Y68.794 E0.2696
G1 X68.320 Y68.758 E0.2824
G1 X68.923 Y68.624 E0.3447
G1 X69.015 Y68.609 E0.3540
G1 X69.615 Y68.539 E0.4149
G1 X69.727 Y68.533 E0.4262
G1 X70.340 Y68.538 E0.4880
G1 X70.436 Y68.544 E0.4977
G1 X71.036 Y68.614 E0.5586
G1 X71.144 Y68.633 E0.5696
G1 X71.739 Y68.777 E0.6313
G1 X71.834 Y68.806 E0.6413
G1 X72.403 Y69.012 E0.7022
G1 X72.500 Y69.054 E0.7129
G1 X73.048 Y69.329 E0.7747
G1 X73.137 Y69.380 E0.7850
G1 X73.642 Y69.710 E0.8459
G1 X73.725 Y69.771 E0.8563
G1 X74.196 Y70.163 E0.9180
G1 X74.274 Y70.236 E0.9287
G1 X74.690 Y70.674 E0.9896
G1 X74.754 Y70.749 E0.9996
G1 X75.125 Y71.237 E1.0614
G1 X75.186 Y71.328 E1.0724
G1 X75.490 Y71.850 E1.1333
G1 X75.534 Y71.936 E1.1430
G1 X75.787 Y72.500 E1.2053
G1 X75.830 Y72.618 E1.2179
G1 X76.044 Y73.355 E1.2954
G1 X76.060 Y73.419 E1.3019
G1 X76.639 Y76.127 E1.5810
G1 X76.738 Y76.373 E1.6077
G1 X76.825 Y76.519 E1.6249
G1 X76.913 Y76.631 E1.6393
G1 X77.201 Y76.887 E1.6781
G1 X77.323 Y76.961 E1.6924
G1 X77.457 Y77.021 E1.7072
G1 X77.829 Y77.112 E1.7458
G1 X78.039 Y77.127 E1.7670
G1 X111.947 Y77.127 E5.1842
G1 X112.310 Y77.095 E5.2209
G1 X112.368 Y77.082 E5.2269
G1 X112.566 Y77.013 E5.2481
G1 X112.694 Y76.950 E5.2625
G1 X112.989 Y76.731 E5.2994
G1 X113.166 Y76.535 E5.3261
G1 X113.199 Y76.486 E5.3321
G1 X113.295 Y76.306 E5.3526
G1 X113.358 Y76.142 E5.3704
G1 X113.940 Y73.419 E5.6510
G1 X113.956 Y73.355 E5.6575
G1 X114.170 Y72.618 E5.7350
G1 X114.213 Y72.500 E5.7475
G1 X114.466 Y71.936 E5.8099
G1 X114.510 Y71.850 E5.8196
G1 X114.818 Y71.322 E5.8812
G1 X114.888 Y71.219 E5.8937
G1 X115.390 Y70.580 E5.9757
G1 X115.497 Y70.466 E5.9914
G1 X116.228 Y69.809 E6.0904
G1 X116.322 Y69.735 E6.1025
G1 X116.693 Y69.483 E6.1477
G1 X116.782 Y69.429 E6.1581
G1 X117.485 Y69.060 E6.2382
G1 X117.611 Y69.006 E6.2521
G1 X118.372 Y68.745 E6.3331
G1 X118.491 Y68.713 E6.3456
G1 X119.092 Y68.596 E6.4072
G1 X119.188 Y68.582 E6.4170
G1 X119.788 Y68.531 E6.4777
G1 X119.877 Y68.528 E6.4867
G1 X120.311 Y68.534 E6.5304
G1 X120.414 Y68.541 E6.5408
G1 X121.201 Y68.644 E6.6209
G1 X121.337 Y68.672 E6.6348
G1 X122.099 Y68.894 E6.7148
G1 X122.197 Y68.928 E6.7252
G1 X122.587 Y69.092 E6.7679
G1 X122.649 Y69.121 E6.7748
G1 X123.026 Y69.315 E6.8174
G1 X123.115 Y69.367 E6.8279
G1 X123.775 Y69.808 E6.9079
G1 X123.883 Y69.894 E6.9218
G1 X124.488 Y70.448 E7.0044
G1 X124.593 Y70.563 E7.0201
G1 X125.192 Y71.342 E7.1191
G1 X125.258 Y71.442 E7.1313
G1 X125.482 Y71.831 E7.1765
G1 X125.528 Y71.923 E7.1869
G1 X125.843 Y72.652 E7.2669
G1 X125.887 Y72.783 E7.2808
G1 X126.087 Y73.552 E7.3608
G1 X126.107 Y73.653 E7.3713
G1 X126.167 Y74.083 E7.4150
G1 X126.175 Y74.172 E7.4241
G1 X126.198 Y74.766 E7.4839
G1 X126.196 Y74.861 E7.4935
G1 X126.156 Y75.461 E7.5541
G1 X126.145 Y75.551 E7.5633
G1 X126.079 Y75.945 E7.6035
G1 X126.072 Y75.979 E7.6070
G1 X124.096 Y85.430 E8.5801
G1 X123.872 Y86.722 E8.7122
G1 X123.800 Y87.319 E8.7728
G1 X123.711 Y88.602 E8.9024
G1 X123.687 Y91.655 E9.2101
G1 X123.682 Y91.741 E9.2188
G1 X123.634 Y92.193 E9.2646
G1 X123.622 Y92.275 E9.2729
G1 X123.497 Y92.905 E9.3376
G1 X123.476 Y92.989 E9.3464
G1 X123.287 Y93.613 E9.4121
G1 X123.248 Y93.719 E9.4235
G1 X122.899 Y94.504 E9.5101
G1 X122.839 Y94.615 E9.5227
G1 X122.389 Y95.335 E9.6083
G1 X122.335 Y95.412 E9.6178
G1 X122.054 Y95.772 E9.6638
G1 X122.003 Y95.831 E9.6717
G1 X121.559 Y96.308 E9.7374
G1 X121.479 Y96.383 E9.7484
G1 X120.835 Y96.924 E9.8332
G1 X120.760 Y96.981 E9.8427
G1 X120.375 Y97.240 E9.8895
G1 X120.294 Y97.289 E9.8990
G1 X119.891 Y97.503 E9.9450
G1 X120.507 Y97.846 E10.0160
G1 X120.636 Y97.933 E10.0317
G1 X121.473 Y98.610 E10.1402
G1 X121.587 Y98.719 E10.1561
G1 X122.293 Y99.531 E10.2645
G1 X122.377 Y99.645 E10.2788
G1 X122.839 Y100.385 E10.3668
G1 X122.899 Y100.496 E10.3794
G1 X123.248 Y101.281 E10.4660
G1 X123.287 Y101.387 E10.4774
G1 X123.476 Y102.011 E10.5431
G1 X123.497 Y102.095 E10.5519
G1 X123.622 Y102.725 E10.6166
G1 X123.634 Y102.807 E10.6249
G1 X123.682 Y103.259 E10.6707
G1 X123.687 Y103.345 E10.6794
G1 X123.711 Y106.398 E10.9870
G1 X123.800 Y107.681 E11.1167
G1 X123.872 Y108.278 E11.1773
G1 X124.096 Y109.570 E11.3094
G1 X126.072 Y119.021 E12.2825
G1 X126.079 Y119.055 E12.2860
G1 X126.145 Y119.449 E12.3262
G1 X126.156 Y119.539 E12.3354
G1 X126.196 Y120.139 E12.3960
G1 X126.198 Y120.234 E12.4055
G1 X126.174 Y120.838 E12.4664
G1 X126.163 Y120.948 E12.4776
G1 X126.065 Y121.553 E12.5393
G1 X126.044 Y121.648 E12.5492
G1 X125.883 Y122.231 E12.6101
G1 X125.848 Y122.332 E12.6209
G1 X125.615 Y122.899 E12.6827
G1 X125.572 Y122.991 E12.6929
G1 X125.273 Y123.536 E12.7555
G1 X125.197 Y123.651 E12.7695
G1 X124.597 Y124.431 E12.8686
G1 X124.504 Y124.535 E12.8827
G1 X124.040 Y124.975 E12.9471
G1 X123.936 Y125.060 E12.9607
G1 X123.130 Y125.624 E13.0598
G1 X123.006 Y125.697 E13.0743
G1 X122.447 Y125.967 E13.1368
G1 X122.360 Y126.004 E13.1464
G1 X121.794 Y126.207 E13.2070
G1 X121.707 Y126.234 E13.2162
G1 X121.292 Y126.337 E13.2593
G1 X121.202 Y126.355 E13.2685
G1 X120.607 Y126.441 E13.3291
G1 X120.514 Y126.449 E13.3385
G1 X119.910 Y126.473 E13.3994
G1 X119.799 Y126.470 E13.4107
G1 X119.188 Y126.418 E13.4724
G1 X119.092 Y126.404 E13.4822
G1 X118.482 Y126.285 E13.5448
G1 X118.346 Y126.247 E13.5591
G1 X117.413 Y125.906 E13.6591
G1 X117.274 Y125.841 E13.6747
G1 X116.578 Y125.442 E13.7555
G1 X116.492 Y125.385 E13.7659
G1 X116.138 Y125.123 E13.8103
G1 X116.058 Y125.057 E13.8207
G1 X115.478 Y124.515 E13.9007
G1 X115.385 Y124.413 E13.9146
G1 X114.888 Y123.781 E13.9957
G1 X114.818 Y123.678 E14.0082
G1 X114.510 Y123.150 E14.0698
G1 X114.466 Y123.064 E14.0795
G1 X114.213 Y122.500 E14.1419
G1 X114.170 Y122.382 E14.1545
G1 X113.956 Y121.645 E14.2319
G1 X113.940 Y121.581 E14.2385
G1 X113.361 Y118.873 E14.5176
G1 X113.254 Y118.606 E14.5466
G1 X113.213 Y118.533 E14.5550
G1 X113.166 Y118.465 E14.5633
G1 X112.989 Y118.269 E14.5900
G1 X112.726 Y118.074 E14.6230
G1 X112.412 Y117.935 E14.6576
G1 X112.286 Y117.903 E14.6707
G1 X111.948 Y117.873 E14.7049
G1 X77.874 Y117.885 E18.1387
G1 X77.551 Y117.951 E18.1720
G1 X77.274 Y118.074 E18.2025
G1 X76.996 Y118.280 E18.2373
G1 X76.899 Y118.383 E18.2517
G1 X76.790 Y118.534 E18.2704
G1 X76.705 Y118.694 E18.2887
G1 X76.641 Y118.862 E18.3068
G1 X75.974 Y121.930 E18.6232
G1 X75.949 Y122.023 E18.6329
G1 X75.813 Y122.431 E18.6763
G1 X75.780 Y122.515 E18.6854
G1 X75.534 Y123.064 E18.7460
G1 X75.490 Y123.150 E18.7557
G1 X75.186 Y123.672 E18.8166
G1 X75.125 Y123.763 E18.8276
G1 X74.754 Y124.251 E18.8894
G1 X74.690 Y124.326 E18.8994
G1 X74.268 Y124.770 E18.9611
G1 X74.178 Y124.853 E18.9734
G1 X73.557 Y125.350 E19.0535
G1 X73.459 Y125.419 E19.0657
G1 X72.919 Y125.743 E19.1291
G1 X72.812 Y125.798 E19.1413
G1 X72.090 Y126.109 E19.2204
G1 X71.993 Y126.144 E19.2308
G1 X71.571 Y126.271 E19.2752
G1 X71.471 Y126.295 E19.2857
G1 X70.706 Y126.432 E19.3639
G1 X70.603 Y126.444 E19.3744
G1 X70.170 Y126.471 E19.4181
G1 X70.079 Y126.472 E19.4272
G1 X69.486 Y126.449 E19.4871
G1 X69.393 Y126.441 E19.4965
G1 X68.781 Y126.353 E19.5588
G1 X68.658 Y126.326 E19.5715
G1 X67.884 Y126.101 E19.6527
G1 X67.755 Y126.053 E19.6666
G1 X67.035 Y125.717 E19.7466
G1 X66.944 Y125.668 E19.7570
G1 X66.569 Y125.438 E19.8014
G1 X66.484 Y125.379 E19.8119
G1 X65.873 Y124.899 E19.8901
G1 X65.796 Y124.830 E19.9006
G1 X65.483 Y124.520 E19.9449
G1 X65.414 Y124.444 E19.9554
G1 X64.913 Y123.817 E20.0362
G1 X64.826 Y123.688 E20.0518
G1 X64.353 Y122.827 E20.1509
G1 X64.302 Y122.718 E20.1630
G1 X64.140 Y122.299 E20.2083
G1 X64.108 Y122.200 E20.2187
G1 X63.909 Y121.432 E20.2988
G1 X63.885 Y121.296 E20.3127
G1 X63.804 Y120.495 E20.3938
G1 X63.800 Y120.370 E20.4064
G1 X63.824 Y119.759 E20.4680
G1 X63.832 Y119.666 E20.4774
G1 X63.916 Y119.088 E20.5363
G1 X63.925 Y119.032 E20.5420
G1 X65.904 Y109.570 E21.5162
G1 X66.126 Y108.288 E21.6473
G1 X66.228 Y107.354 E21.7420
G1 X66.289 Y106.403 E21.8381
G1 X66.313 Y103.330 E22.1478
G1 X66.322 Y103.212 E22.1597
G1 X66.440 Y102.374 E22.2449
G1 X66.458 Y102.282 E22.2544
G1 X66.569 Y101.838 E22.3005
G1 X66.592 Y101.760 E22.3087
G1 X66.803 Y101.153 E22.3735
G1 X66.836 Y101.070 E22.3825
G1 X67.111 Y100.478 E22.4482
G1 X67.164 Y100.380 E22.4595
G1 X67.611 Y99.665 E22.5444
G1 X67.665 Y99.588 E22.5539
G1 X67.946 Y99.228 E22.5999
G1 X67.997 Y99.169 E22.6078
G1 X68.441 Y98.692 E22.6735
G1 X68.521 Y98.617 E22.6846
G1 X69.165 Y98.076 E22.7693
G1 X69.240 Y98.019 E22.7788
G1 X69.625 Y97.760 E22.8256
G1 X69.706 Y97.711 E22.8351
G1 X70.097 Y97.503 E22.8797
G1 X69.888 Y97.396 E22.9034
G1 X69.809 Y97.350 E22.9126
G1 X69.261 Y96.996 E22.9784
G1 X69.172 Y96.930 E22.9896
G1 X68.521 Y96.383 E23.0752
G1 X68.441 Y96.308 E23.0863
G1 X67.991 Y95.825 E23.1528
G1 X67.930 Y95.752 E23.1624
G1 X67.542 Y95.237 E23.2274
G1 X67.491 Y95.160 E23.2367
G1 X67.154 Y94.602 E23.3024
G1 X67.108 Y94.515 E23.3123
G1 X66.836 Y93.930 E23.3773
G1 X66.803 Y93.847 E23.3863
G1 X66.589 Y93.231 E23.4520
G1 X66.561 Y93.134 E23.4622
G1 X66.418 Y92.505 E23.5272
G1 X66.403 Y92.420 E23.5359
G1 X66.321 Y91.771 E23.6018
G1 X66.313 Y91.665 E23.6126
G1 X66.289 Y88.597 E23.9217
G1 X66.229 Y87.662 E24.0162
G1 X66.026 Y86.072 E24.1777
G1 X63.924 Y75.961 E25.2185
G1 X63.913 Y75.894 E25.2253
G1 X63.815 Y75.141 E25.3018
G1 X63.807 Y75.038 E25.3123
G1 X63.801 Y74.604 E25.3560
G1 X63.804 Y74.515 E25.3650
G1 X63.855 Y73.915 E25.4257
G1 X63.869 Y73.819 E25.4355
G1 X63.983 Y73.235 E25.4954
G1 X64.004 Y73.149 E25.5044
G1 X64.129 Y72.734 E25.5480
G1 X64.164 Y72.637 E25.5584
G1 X64.482 Y71.900 E25.6393
G1 X64.555 Y71.763 E25.6550
G1 X65.103 Y70.926 E25.7557
G1 X65.198 Y70.804 E25.7714
G1 X65.765 Y70.198 E25.8549
G1 X65.881 Y70.093 E25.8707
G92 E0.0000
G1 E-1.0000 F1800
; feature inner perimeter
G1 X68.544 Y79.003 F4800
G1 E0.0000 F1800
G92 E0.0000
G1 X69.333 Y79.181 E0.0814 F540
G1 X69.826 Y79.226 E0.1314
G1 X70.293 Y79.220 E0.1784
G1 X70.757 Y79.166 E0.2255
G1 X71.213 Y79.063 E0.2726
G1 X71.655 Y78.914 E0.3196
G1 X72.080 Y78.721 E0.3667
G1 X72.482 Y78.484 E0.4137
G1 X72.858 Y78.206 E0.4608
G1 X73.137 Y77.951 E0.4989
G1 X73.607 Y78.735 E0.5909
G1 X74.019 Y79.260 E0.6582
G1 X74.381 Y79.627 E0.7102
G1 X74.910 Y80.057 E0.7789
G1 X75.501 Y80.418 E0.8487
G1 X76.310 Y80.780 E0.9380
G1 X75.619 Y81.257 E1.0225
G1 X75.148 Y81.709 E1.0884
G1 X74.744 Y82.250 E1.1564
G1 X74.453 Y82.850 E1.2236
