; G-Code generated by Simplify3D(R) Version 4.1.2
; Jan 23, 2021 at 7:24:34 AM
; Settings Summary
;   processName,Process1
;   applyToModels,raspberrypi_bracket
;   profileName,Monoprice Maker Select (modified)
;   profileVersion,2016-06-08 08:00:00
;   baseProfile,
;   printMaterial,ABS
;   printQuality,High
;   printExtruders,
;   extruderName,Primary Extruder
;   extruderToolheadNumber,0
;   extruderDiameter,0.4
;   extruderAutoWidth,0
;   extruderWidth,0.4
;   extrusionMultiplier,1.12
;   extruderUseRetract,1
;   extruderRetractionDistance,1
;   extruderExtraRestartDistance,0
;   extruderRetractionZLift,0
;   extruderRetractionSpeed,1800
;   extruderUseCoasting,0
;   extruderCoastingDistance,0.2
;   extruderUseWipe,0
;   extruderWipeDistance,5
;   primaryExtruder,0
;   layerHeight,0.2
;   topSolidLayers,5
;   bottomSolidLayers,5
;   perimeterOutlines,4
;   printPerimetersInsideOut,1
;   startPointOption,2
;   startPointOriginX,0
;   startPointOriginY,0
;   sequentialIslands,0
;   spiralVaseMode,0
;   firstLayerHeightPercentage,200
;   firstLayerWidthPercentage,150
;   firstLayerUnderspeed,0.2
;   useRaft,0
;   raftExtruder,0
;   raftTopLayers,3
;   raftBaseLayers,2
;   raftOffset,3
;   raftSeparationDistance,0.14
;   raftTopInfill,100
;   aboveRaftSpeedMultiplier,0.3
;   useSkirt,1
;   skirtExtruder,0
;   skirtLayers,1
;   skirtOutlines,1
;   skirtOffset,1.5
;   usePrimePillar,0
;   primePillarExtruder,999
;   primePillarWidth,12
;   primePillarLocation,7
;   primePillarSpeedMultiplier,1
;   useOozeShield,0
;   oozeShieldExtruder,999
;   oozeShieldOffset,2
;   oozeShieldOutlines,1
;   oozeShieldSidewallShape,1
;   oozeShieldSidewallAngle,20
;   oozeShieldSpeedMultiplier,1
;   infillExtruder,0
;   internalInfillPattern,Rectilinear
;   externalInfillPattern,Rectilinear
;   infillPercentage,40
;   outlineOverlapPercentage,25
;   infillExtrusionWidthPercentage,150
;   minInfillLength,5
;   infillLayerInterval,1
;   internalInfillAngles,45,-45
;   overlapInternalInfillAngles,0
;   externalInfillAngles,45,-45
;   generateSupport,0
;   supportExtruder,0
;   supportInfillPercentage,40
;   supportExtraInflation,0
;   supportBaseLayers,0
;   denseSupportExtruder,0
;   denseSupportLayers,0
;   denseSupportInfillPercentage,70
;   supportLayerInterval,1
;   supportHorizontalPartOffset,0.3
;   supportUpperSeparationLayers,1
;   supportLowerSeparationLayers,1
;   supportType,0
;   supportGridSpacing,4
;   maxOverhangAngle,45
;   supportAngles,0
;   temperatureName,Primary Extruder,Heated Bed
;   temperatureNumber,0,0
;   temperatureSetpointCount,1,1
;   temperatureSetpointLayers,1,1
;   temperatureSetpointTemperatures,240,109
;   temperatureStabilizeAtStartup,1,1
;   temperatureHeatedBed,0,1
;   fanLayers,1
;   fanSpeeds,0
;   blipFanToFullPower,0
;   adjustSpeedForCooling,1
;   minSpeedLayerTime,15
;   minCoolingSpeedSlowdown,20
;   increaseFanForCooling,0
;   minFanLayerTime,45
;   maxCoolingFanSpeed,100
;   increaseFanForBridging,0
;   bridgingFanSpeed,100
;   use5D,1
;   relativeEdistances,0
;   allowEaxisZeroing,1
;   independentExtruderAxes,0
;   includeM10123,0
;   stickySupport,1
;   applyToolheadOffsets,0
;   gcodeXoffset,0
;   gcodeYoffset,0
;   gcodeZoffset,0
;   overrideMachineDefinition,1
;   machineTypeOverride,0
;   strokeXoverride,190
;   strokeYoverride,195
;   strokeZoverride,180
;   originOffsetXoverride,0
;   originOffsetYoverride,0
;   originOffsetZoverride,0
;   homeXdirOverride,-1
;   homeYdirOverride,-1
;   homeZdirOverride,-1
;   flipXoverride,1
;   flipYoverride,-1
;   flipZoverride,1
;   toolheadOffsets,0,0|0,0|0,0|0,0|0,0|0,0
;   overrideFirmwareConfiguration,1
;   firmwareTypeOverride,RepRap (Marlin/Repetier/Sprinter)
;   GPXconfigOverride,r2
;   baudRateOverride,115200
;   overridePrinterModels,1
;   printerModelsOverride
;   startingGcode,G28 ; home all axes
;   layerChangeGcode,
;   retractionGcode,
;   toolChangeGcode,
;   endingGcode,G28 X0 ; home X-axis,M104 S0 ; turn off extruder,M140 S0 ; turn off bed,M84 ; disable motors
;   exportFileFormat,gcode
;   celebration,0
;   celebrationSong,Random Song
;   postProcessing,
;   defaultSpeed,3600
;   outlineUnderspeed,0.5
;   solidInfillUnderspeed,0.8
;   supportUnderspeed,0.8
;   rapidXYspeed,4800
;   rapidZspeed,1002
;   minBridgingArea,50
;   bridgingExtraInflation,0
;   bridgingExtrusionMultiplier,1
;   bridgingSpeedMultiplier,1
;   useFixedBridgingAngle,0
;   fixedBridgingAngle,0
;   applyBridgingToPerimeters,0
;   filamentDiameters,1.75|1.75|1.75|1.75|1.75|1.75
;   filamentPricesPerKg,46|46|46|46|46|46
;   filamentDensities,1.25|1.25|1.25|1.25|1.25|1.25
;   useMinPrintHeight,0
;   minPrintHeight,0
;   useMaxPrintHeight,0
;   maxPrintHeight,0
;   useDiaphragm,0
;   diaphragmLayerInterval,20
;   robustSlicing,1
;   mergeAllIntoSolid,0
;   onlyRetractWhenCrossingOutline,1
;   retractBetweenLayers,1
;   useRetractionMinTravel,0
;   retractionMinTravel,3
;   retractWhileWiping,0
;   onlyWipeOutlines,1
;   avoidCrossingOutline,0
;   maxMovementDetourFactor,3
;   toolChangeRetractionDistance,12
;   toolChangeExtraRestartDistance,-0.5
;   toolChangeRetractionSpeed,600
;   externalThinWallType,0
;   internalThinWallType,2
;   thinWallAllowedOverlapPercentage,10
;   singleExtrusionMinLength,1
;   singleExtrusionMinPrintingWidthPercentage,50
;   singleExtrusionMaxPrintingWidthPercentage,200
;   singleExtrusionEndpointExtension,0.2
;   horizontalSizeCompensation,0
G90
M82
M106 S0
M140 S109
M190 S109
M104 S240 T0
M109 S240 T0
G28 ; home all axes
; process Process1
; layer 1, Z = 0.400
T0
G92 E0.0000
G1 E-1.0000 F1800
; feature skirt
; tool H0.400 W0.600
G1 Z0.400 F1002
G1 X63.109 Y69.747 F4800
G1 E0.0000 F1800
G92 E0.0000
G1 X63.719 Y69.294 E0.0849 F720
G1 X63.893 Y69.193 E0.1074
G1 X64.607 Y68.878 E0.1946
G1 X64.801 Y68.817 E0.2173
G1 X65.534 Y68.676 E0.3007
G1 X65.684 Y68.660 E0.3176
G1 X66.119 Y68.650 E0.3662
G1 X66.268 Y68.659 E0.3829
G1 X66.994 Y68.764 E0.4649
G1 X67.187 Y68.814 E0.4872
G1 X67.906 Y69.089 E0.5732
G1 X68.085 Y69.181 E0.5957
G1 X68.726 Y69.610 E0.6819
G1 X68.882 Y69.741 E0.7046
G1 X69.418 Y70.309 E0.7919
G1 X69.538 Y70.469 E0.8143
G1 X69.925 Y71.123 E0.8992
G1 X70.007 Y71.306 E0.9216
G1 X70.243 Y72.039 E1.0076
G1 X70.283 Y72.236 E1.0301
G1 X70.348 Y72.978 E1.1134
G1 X70.349 Y73.129 E1.1303
G1 X70.316 Y73.532 E1.1754
G1 X70.305 Y73.618 E1.1851
G1 X70.131 Y74.599 E1.2965
G1 X70.122 Y74.762 E1.3147
G1 X70.157 Y75.357 E1.3813
G1 X71.320 Y83.862 E2.3407
G1 X71.444 Y84.430 E2.4056
G1 X71.643 Y84.937 E2.4665
G1 X71.747 Y85.129 E2.4909
G1 X71.866 Y85.313 E2.5154
G1 X72.215 Y85.732 E2.5763
G1 X72.625 Y86.090 E2.6372
G1 X72.777 Y86.193 E2.6576
G1 X73.292 Y86.460 E2.7225
G1 X73.464 Y86.525 E2.7430
G1 X73.993 Y86.654 E2.8039
G1 X74.572 Y86.700 E2.8688
G1 X115.462 Y86.700 E7.4385
G1 X115.717 Y86.690 E7.4669
G1 X116.255 Y86.603 E7.5278
G1 X116.738 Y86.444 E7.5847
G1 X117.222 Y86.193 E7.6456
G1 X117.373 Y86.090 E7.6660
G1 X117.783 Y85.732 E7.7269
G1 X118.109 Y85.341 E7.7837
G1 X118.368 Y84.903 E7.8406
G1 X118.554 Y84.430 E7.8974
G1 X118.678 Y83.862 E7.9623
G1 X119.843 Y75.347 E8.9228
G1 X119.875 Y74.811 E8.9828
G1 X119.824 Y74.270 E9.0436
G1 X119.699 Y73.658 E9.1133
G1 X119.684 Y73.551 E9.1255
G1 X119.650 Y73.138 E9.1718
G1 X119.650 Y72.987 E9.1887
G1 X119.712 Y72.269 E9.2691
G1 X119.737 Y72.120 E9.2860
G1 X119.847 Y71.698 E9.3347
G1 X119.897 Y71.556 E9.3516
G1 X120.191 Y70.899 E9.4321
G1 X120.264 Y70.767 E9.4489
G1 X120.506 Y70.404 E9.4976
G1 X120.601 Y70.286 E9.5145
G1 X121.095 Y69.763 E9.5950
G1 X121.207 Y69.662 E9.6119
G1 X121.555 Y69.399 E9.6606
G1 X121.683 Y69.319 E9.6775
G1 X122.324 Y68.987 E9.7581
G1 X122.466 Y68.927 E9.7753
G1 X122.891 Y68.793 E9.8252
G1 X123.036 Y68.759 E9.8418
G1 X123.737 Y68.659 E9.9210
G1 X123.887 Y68.650 E9.9378
G1 X124.323 Y68.661 E9.9864
G1 X124.473 Y68.677 E10.0033
G1 X125.180 Y68.814 E10.0837
G1 X125.325 Y68.855 E10.1006
G1 X125.733 Y69.009 E10.1493
G1 X125.869 Y69.074 E10.1662
G1 X126.491 Y69.436 E10.2467
G1 X126.615 Y69.523 E10.2636
G1 X126.950 Y69.802 E10.3123
G1 X127.057 Y69.908 E10.3291
G1 X127.541 Y70.474 E10.4123
G1 X127.654 Y70.639 E10.4347
G1 X127.997 Y71.288 E10.5168
G1 X128.056 Y71.426 E10.5335
G1 X128.196 Y71.850 E10.5834
G1 X128.231 Y71.999 E10.6005
G1 X128.342 Y72.737 E10.6839
G1 X128.350 Y72.939 E10.7065
G1 X128.294 Y73.682 E10.7897
G1 X128.270 Y73.831 E10.8066
G1 X128.172 Y74.229 E10.8525
G1 X128.142 Y74.326 E10.8638
G1 X128.011 Y74.680 E10.9060
G1 X127.978 Y74.759 E10.9156
G1 X127.569 Y75.608 E11.0208
G1 X127.419 Y76.110 E11.0795
G1 X127.377 Y76.344 E11.1060
G1 X125.421 Y90.650 E12.7197
G1 X125.292 Y91.911 E12.8613
G1 X125.249 Y93.177 E13.0028
G1 X125.249 Y101.823 E13.9691
G1 X125.293 Y103.105 E14.1124
G1 X125.343 Y103.691 E14.1781
G1 X127.373 Y118.621 E15.8620
G1 X127.493 Y119.173 E15.9251
G1 X127.674 Y119.643 E15.9814
G1 X127.965 Y120.212 E16.0528
G1 X128.008 Y120.310 E16.0647
G1 X128.151 Y120.698 E16.1110
G1 X128.191 Y120.844 E16.1279
G1 X128.329 Y121.576 E16.2112
G1 X128.344 Y121.777 E16.2337
G1 X128.316 Y122.546 E16.3198
G1 X128.286 Y122.746 E16.3423
G1 X128.087 Y123.490 E16.4284
G1 X128.014 Y123.678 E16.4509
G1 X127.655 Y124.359 E16.5370
G1 X127.542 Y124.526 E16.5595
G1 X127.041 Y125.111 E16.6456
G1 X126.894 Y125.249 E16.6681
G1 X126.275 Y125.708 E16.7542
G1 X126.101 Y125.810 E16.7767
G1 X125.396 Y126.121 E16.8628
G1 X125.204 Y126.181 E16.8853
G1 X124.448 Y126.328 E16.9714
G1 X124.247 Y126.344 E16.9939
G1 X123.478 Y126.320 E17.0799
G1 X123.279 Y126.291 E17.1023
G1 X122.545 Y126.100 E17.1872
G1 X122.359 Y126.030 E17.2094
G1 X121.675 Y125.678 E17.2954
G1 X121.506 Y125.566 E17.3180
G1 X120.908 Y125.062 E17.4054
G1 X120.768 Y124.914 E17.4281
G1 X120.304 Y124.297 E17.5144
G1 X120.202 Y124.124 E17.5369
G1 X119.886 Y123.421 E17.6230
G1 X119.825 Y123.229 E17.6455
G1 X119.674 Y122.474 E17.7316
G1 X119.656 Y122.273 E17.7541
G1 X119.676 Y121.536 E17.8365
G1 X119.689 Y121.401 E17.8516
G1 X119.867 Y120.403 E17.9649
G1 X119.877 Y120.224 E17.9849
G1 X119.843 Y119.653 E18.0489
G1 X118.678 Y111.138 E19.0094
G1 X118.546 Y110.535 E19.0783
G1 X118.486 Y110.362 E19.0988
G1 X118.247 Y109.873 E19.1596
G1 X117.954 Y109.457 E19.2165
G1 X117.598 Y109.093 E19.2734
G1 X117.190 Y108.790 E19.3302
G1 X116.738 Y108.556 E19.3871
G1 X116.221 Y108.385 E19.4479
G1 X116.041 Y108.349 E19.4684
G1 X115.426 Y108.300 E19.5373
G1 X74.572 Y108.300 E24.1030
G1 X73.993 Y108.346 E24.1679
G1 X73.464 Y108.475 E24.2288
G1 X73.292 Y108.540 E24.2492
G1 X72.809 Y108.790 E24.3101
G1 X72.371 Y109.115 E24.3710
G1 X72.238 Y109.240 E24.3914
G1 X71.866 Y109.687 E24.4564
G1 X71.747 Y109.871 E24.4808
G1 X71.643 Y110.063 E24.5053
G1 X71.444 Y110.570 E24.5662
G1 X71.320 Y111.138 E24.6311
G1 X70.156 Y119.653 E25.5915
G1 X70.121 Y120.224 E25.6555
G1 X70.131 Y120.403 E25.6755
G1 X70.310 Y121.406 E25.7894
G1 X70.323 Y121.542 E25.8046
G1 X70.342 Y122.269 E25.8859
G1 X70.324 Y122.469 E25.9083
G1 X70.171 Y123.234 E25.9955
G1 X70.109 Y123.428 E26.0183
G1 X69.792 Y124.131 E26.1045
G1 X69.690 Y124.305 E26.1270
G1 X69.225 Y124.919 E26.2131
G1 X69.087 Y125.065 E26.2356
G1 X68.498 Y125.562 E26.3217
G1 X68.330 Y125.674 E26.3442
G1 X67.668 Y126.016 E26.4275
G1 X67.529 Y126.074 E26.4444
G1 X67.114 Y126.206 E26.4930
G1 X66.969 Y126.239 E26.5097
G1 X66.243 Y126.344 E26.5917
G1 X66.043 Y126.351 E26.6140
G1 X65.276 Y126.291 E26.7000
G1 X65.078 Y126.252 E26.7225
G1 X64.342 Y126.023 E26.8087
G1 X64.156 Y125.941 E26.8314
G1 X63.481 Y125.548 E26.9187
G1 X63.320 Y125.428 E26.9411
G1 X62.764 Y124.910 E27.0260
G1 X62.634 Y124.758 E27.0484
G1 X62.215 Y124.143 E27.1316
G1 X62.141 Y124.012 E27.1484
G1 X61.959 Y123.616 E27.1971
G1 X61.907 Y123.473 E27.2140
G1 X61.714 Y122.754 E27.2973
G1 X61.683 Y122.555 E27.3198
G1 X61.653 Y121.784 E27.4060
G1 X61.668 Y121.581 E27.4288
G1 X61.809 Y120.839 E27.5132
G1 X61.848 Y120.695 E27.5298
G1 X61.988 Y120.316 E27.5749
G1 X62.031 Y120.217 E27.5870
G1 X62.324 Y119.644 E27.6590
G1 X62.505 Y119.173 E27.7154
G1 X62.626 Y118.620 E27.7786
G1 X64.577 Y104.350 E29.3882
G1 X64.706 Y103.089 E29.5298
G1 X64.749 Y101.823 E29.6714
G1 X64.749 Y93.162 E30.6393
G1 X64.739 Y92.544 E30.7084
G1 X64.654 Y91.294 E30.8484
G1 X62.627 Y76.387 E32.5296
G1 X62.505 Y75.827 E32.5937
G1 X62.324 Y75.356 E32.6500
G1 X62.031 Y74.783 E32.7220
G1 X61.987 Y74.683 E32.7341
G1 X61.845 Y74.295 E32.7804
G1 X61.805 Y74.150 E32.7972
G1 X61.669 Y73.428 E32.8792
G1 X61.654 Y73.229 E32.9016
G1 X61.683 Y72.449 E32.9888
G1 X61.713 Y72.247 E33.0116
G1 X61.914 Y71.502 E33.0978
G1 X61.988 Y71.315 E33.1203
G1 X62.348 Y70.634 E33.2064
G1 X62.461 Y70.467 E33.2289
G1 X62.963 Y69.884 E33.3150
G1 X63.109 Y69.747 E33.3373
G92 E0.0000
G1 E-1.0000 F1800
; feature inner perimeter
G1 X68.069 Y87.402 F4800
G1 E0.0000 F1800
G92 E0.0000
G1 X68.475 Y87.251 E0.0484 F540
G1 X68.696 Y87.593 E0.0938
G1 X69.040 Y88.042 E0.1571
G1 X69.420 Y88.462 E0.2204
G1 X69.831 Y88.851 E0.2836
G1 X70.272 Y89.206 E0.3468
G1 X70.740 Y89.524 E0.4101
G1 X71.231 Y89.805 E0.4734
G1 X71.744 Y90.045 E0.5366
G1 X72.850 Y90.460 E0.6687
G1 X72.151 Y90.720 E0.7520
G1 X71.692 Y90.971 E0.8106
G1 X71.271 Y91.292 E0.8696
G1 X70.924 Y91.639 E0.9245
G1 X70.616 Y92.051 E0.9820
G1 X70.370 Y92.502 E1.0394
G1 X70.190 Y92.984 E1.0969
G1 X70.080 Y93.487 E1.1544
G1 X70.038 Y94.073 E1.2201
G1 X69.714 Y94.010 E1.2570
G1 X68.649 Y94.010 E1.3760
G1 X68.649 Y93.128 E1.4746
G1 X68.637 Y92.396 E1.5565
G1 X68.598 Y91.646 E1.6404
G1 X68.535 Y90.898 E1.7243
G1 X68.448 Y90.170 E1.8062
G1 X68.069 Y87.402 E2.1184
G92 E0.0000
G1 E-1.0000 F1800
G1 X68.649 Y100.945 F4800
G1 E0.0000 F1800
G92 E0.0000
G1 X69.437 Y101.007 E0.0884 F540
G1 X70.039 Y100.938 E0.1561
G1 X70.080 Y101.513 E0.2205
G1 X70.190 Y102.016 E0.2780
G1 X70.370 Y102.498 E0.3355
G1 X70.616 Y102.949 E0.3930
G1 X70.924 Y103.361 E0.4505
G1 X71.288 Y103.725 E0.5080
G1 X71.700 Y104.033 E0.5654
G1 X72.151 Y104.280 E0.6229
G1 X72.850 Y104.540 E0.7063
G1 X71.744 Y104.955 E0.8383
G1 X71.231 Y105.195 E0.9016
G1 X70.740 Y105.476 E0.9648
G1 X70.272 Y105.794 E1.0281
G1 X69.831 Y106.149 E1.0913
G1 X69.420 Y106.538 E1.1546
G1 X69.040 Y106.958 E1.2178
G1 X68.696 Y107.407 E1.2811
G1 X68.475 Y107.749 E1.3265
G1 X68.069 Y107.598 E1.3749
G1 X68.448 Y104.830 E1.6872
G1 X68.535 Y104.102 E1.7691
G1 X68.598 Y103.354 E1.8530
G1 X68.637 Y102.604 E1.9369
G1 X68.649 Y101.872 E2.0188
G1 X68.649 Y100.945 E2.1223
G92 E0.0000
G1 E-1.0000 F1800
G1 X117.148 Y104.540 F4800
G1 E0.0000 F1800
G92 E0.0000
G1 X117.847 Y104.280 E0.0833 F540
G1 X118.298 Y104.033 E0.1408
G1 X118.710 Y103.725 E0.1983
G1 X119.074 Y103.361 E0.2558
G1 X119.382 Y102.949 E0.3133
G1 X119.629 Y102.498 E0.3708
G1 X119.808 Y102.016 E0.4283
G1 X119.918 Y101.513 E0.4858
G1 X119.959 Y100.938 E0.5502
G1 X120.561 Y101.007 E0.6179
G1 X121.349 Y100.945 E0.7063
G1 X121.349 Y101.872 E0.8098
G1 X121.362 Y102.604 E0.8917
G1 X121.400 Y103.354 E0.9756
G1 X121.463 Y104.102 E1.0595
G1 X121.550 Y104.830 E1.1414
G1 X121.929 Y107.598 E1.4537
G1 X121.523 Y107.749 E1.5020
G1 X121.302 Y107.407 E1.5475
G1 X120.958 Y106.958 E1.6108
G1 X120.579 Y106.538 E1.6740
G1 X120.167 Y106.149 E1.7373
G1 X119.726 Y105.794 E1.8005
G1 X119.259 Y105.476 E1.8638
G1 X118.767 Y105.195 E1.9270
G1 X118.255 Y104.955 E1.9903
G1 X117.148 Y104.540 E2.1223
G1 X119.960 Y94.073 F4800
G92 E0.0000
G1 X119.918 Y93.487 E0.0657 F540
G1 X119.808 Y92.984 E0.1232
G1 X119.629 Y92.502 E0.1806
G1 X119.382 Y92.051 E0.2381
G1 X119.074 Y91.639 E0.2956
G1 X118.710 Y91.275 E0.3531
G1 X118.298 Y90.967 E0.4106
G1 X117.847 Y90.720 E0.4681
G1 X117.148 Y90.460 E0.5514
G1 X118.254 Y90.045 E0.6835
G1 X118.767 Y89.805 E0.7467
G1 X119.259 Y89.524 E0.8100
G1 X119.726 Y89.206 E0.8732
G1 X120.167 Y88.851 E0.9364
G1 X120.579 Y88.462 E0.9997
G1 X120.958 Y88.042 E1.0630
G1 X121.302 Y87.593 E1.1262
G1 X121.523 Y87.251 E1.1717
G1 X121.929 Y87.402 E1.2201
G1 X121.550 Y90.170 E1.5324
G1 X121.463 Y90.898 E1.6142
G1 X121.400 Y91.646 E1.6982
G1 X121.362 Y92.396 E1.7821
G1 X121.349 Y93.128 E1.8639
G1 X121.349 Y94.075 E1.9697
G1 X121.014 Y94.010 E2.0079
G1 X120.284 Y94.010 E2.0895
G1 X119.960 Y94.073 E2.1264
G1 X119.349 Y93.946 F4800
