; G-Code generated by Simplify3D(R) Version 4.1.2
; Jan 21, 2021 at 9:25:29 PM
; Settings Summary
;   processName,Process1
;   applyToModels,skr_1.3_bracket_x2,skr_1.3_bracket_x2(2)
;   profileName,Monoprice Maker Select (modified)
;   profileVersion,2016-06-08 08:00:00
;   baseProfile,
;   printMaterial,ABS
;   printQuality,High
;   printExtruders,
;   extruderName,Primary Extruder
;   extruderToolheadNumber,0
;   extruderDiameter,0.4
;   extruderAutoWidth,0
;   extruderWidth,0.4
;   extrusionMultiplier,1.02
;   extruderUseRetract,1
;   extruderRetractionDistance,1
;   extruderExtraRestartDistance,0
;   extruderRetractionZLift,0
;   extruderRetractionSpeed,1800
;   extruderUseCoasting,0
;   extruderCoastingDistance,0.2
;   extruderUseWipe,0
;   extruderWipeDistance,5
;   primaryExtruder,0
;   layerHeight,0.2
;   topSolidLayers,5
;   bottomSolidLayers,5
;   perimeterOutlines,4
;   printPerimetersInsideOut,1
;   startPointOption,2
;   startPointOriginX,0
;   startPointOriginY,0
;   sequentialIslands,0
;   spiralVaseMode,0
;   firstLayerHeightPercentage,200
;   firstLayerWidthPercentage,150
;   firstLayerUnderspeed,0.2
;   useRaft,0
;   raftExtruder,0
;   raftTopLayers,3
;   raftBaseLayers,2
;   raftOffset,3
;   raftSeparationDistance,0.14
;   raftTopInfill,100
;   aboveRaftSpeedMultiplier,0.3
;   useSkirt,1
;   skirtExtruder,0
;   skirtLayers,1
;   skirtOutlines,2
;   skirtOffset,5
;   usePrimePillar,0
;   primePillarExtruder,999
;   primePillarWidth,12
;   primePillarLocation,7
;   primePillarSpeedMultiplier,1
;   useOozeShield,0
;   oozeShieldExtruder,999
;   oozeShieldOffset,2
;   oozeShieldOutlines,1
;   oozeShieldSidewallShape,1
;   oozeShieldSidewallAngle,20
;   oozeShieldSpeedMultiplier,1
;   infillExtruder,0
;   internalInfillPattern,Rectilinear
;   externalInfillPattern,Rectilinear
;   infillPercentage,40
;   outlineOverlapPercentage,25
;   infillExtrusionWidthPercentage,150
;   minInfillLength,5
;   infillLayerInterval,1
;   internalInfillAngles,45,-45
;   overlapInternalInfillAngles,0
;   externalInfillAngles,45,-45
;   generateSupport,0
;   supportExtruder,0
;   supportInfillPercentage,40
;   supportExtraInflation,0
;   supportBaseLayers,0
;   denseSupportExtruder,0
;   denseSupportLayers,0
;   denseSupportInfillPercentage,70
;   supportLayerInterval,1
;   supportHorizontalPartOffset,0.3
;   supportUpperSeparationLayers,1
;   supportLowerSeparationLayers,1
;   supportType,0
;   supportGridSpacing,4
;   maxOverhangAngle,45
;   supportAngles,0
;   temperatureName,Primary Extruder,Heated Bed
;   temperatureNumber,0,0
;   temperatureSetpointCount,1,1
;   temperatureSetpointLayers,1,1
;   temperatureSetpointTemperatures,240,109
;   temperatureStabilizeAtStartup,1,1
;   temperatureHeatedBed,0,1
;   fanLayers,1
;   fanSpeeds,0
;   blipFanToFullPower,0
;   adjustSpeedForCooling,1
;   minSpeedLayerTime,15
;   minCoolingSpeedSlowdown,20
;   increaseFanForCooling,0
;   minFanLayerTime,45
;   maxCoolingFanSpeed,100
;   increaseFanForBridging,0
;   bridgingFanSpeed,100
;   use5D,1
;   relativeEdistances,0
;   allowEaxisZeroing,1
;   independentExtruderAxes,0
;   includeM10123,0
;   stickySupport,1
;   applyToolheadOffsets,0
;   gcodeXoffset,0
;   gcodeYoffset,0
;   gcodeZoffset,0
;   overrideMachineDefinition,1
;   machineTypeOverride,0
;   strokeXoverride,190
;   strokeYoverride,195
;   strokeZoverride,180
;   originOffsetXoverride,0
;   originOffsetYoverride,0
;   originOffsetZoverride,0
;   homeXdirOverride,-1
;   homeYdirOverride,-1
;   homeZdirOverride,-1
;   flipXoverride,1
;   flipYoverride,-1
;   flipZoverride,1
;   toolheadOffsets,0,0|0,0|0,0|0,0|0,0|0,0
;   overrideFirmwareConfiguration,1
;   firmwareTypeOverride,RepRap (Marlin/Repetier/Sprinter)
;   GPXconfigOverride,r2
;   baudRateOverride,115200
;   overridePrinterModels,1
;   printerModelsOverride
;   startingGcode,G28 ; home all axes
;   layerChangeGcode,
;   retractionGcode,
;   toolChangeGcode,
;   endingGcode,G28 X0 ; home X-axis,M104 S0 ; turn off extruder,M140 S0 ; turn off bed,M84 ; disable motors
;   exportFileFormat,gcode
;   celebration,0
;   celebrationSong,Random Song
;   postProcessing,
;   defaultSpeed,3600
;   outlineUnderspeed,0.5
;   solidInfillUnderspeed,0.8
;   supportUnderspeed,0.8
;   rapidXYspeed,4800
;   rapidZspeed,1002
;   minBridgingArea,50
;   bridgingExtraInflation,0
;   bridgingExtrusionMultiplier,1
;   bridgingSpeedMultiplier,1
;   useFixedBridgingAngle,0
;   fixedBridgingAngle,0
;   applyBridgingToPerimeters,0
;   filamentDiameters,1.75|1.75|1.75|1.75|1.75|1.75
;   filamentPricesPerKg,46|46|46|46|46|46
;   filamentDensities,1.25|1.25|1.25|1.25|1.25|1.25
;   useMinPrintHeight,0
;   minPrintHeight,0
;   useMaxPrintHeight,0
;   maxPrintHeight,0
;   useDiaphragm,0
;   diaphragmLayerInterval,20
;   robustSlicing,1
;   mergeAllIntoSolid,0
;   onlyRetractWhenCrossingOutline,1
;   retractBetweenLayers,1
;   useRetractionMinTravel,0
;   retractionMinTravel,3
;   retractWhileWiping,0
;   onlyWipeOutlines,1
;   avoidCrossingOutline,0
;   maxMovementDetourFactor,3
;   toolChangeRetractionDistance,12
;   toolChangeExtraRestartDistance,-0.5
;   toolChangeRetractionSpeed,600
;   externalThinWallType,0
;   internalThinWallType,2
;   thinWallAllowedOverlapPercentage,10
;   singleExtrusionMinLength,1
;   singleExtrusionMinPrintingWidthPercentage,50
;   singleExtrusionMaxPrintingWidthPercentage,200
;   singleExtrusionEndpointExtension,0.2
;   horizontalSizeCompensation,0
G90
M82
M106 S0
M140 S109
M190 S109
M104 S240 T0
M109 S240 T0
G28 ; home all axes
; process Process1
; layer 1, Z = 0.400
T0
G92 E0.0000
G1 E-1.0000 F1800
; feature skirt
; tool H0.400 W0.600
G1 Z0.400 F1002
G1 X35.998 Y11.991 F4800
G1 E0.0000 F1800
G92 E0.0000
G1 X36.172 Y11.644 E0.0395 F720
G1 X36.568 Y10.974 E0.1187
G1 X36.780 Y10.662 E0.1571
G1 X37.248 Y10.060 E0.2347
G1 X37.501 Y9.775 E0.2735
G1 X38.062 Y9.218 E0.3540
G1 X38.356 Y8.963 E0.3936
G1 X38.977 Y8.492 E0.4729
G1 X39.296 Y8.281 E0.5119
G1 X39.968 Y7.896 E0.5907
G1 X40.306 Y7.730 E0.6290
G1 X41.011 Y7.439 E0.7067
G1 X41.373 Y7.316 E0.7456
G1 X42.135 Y7.111 E0.8258
G1 X42.509 Y7.036 E0.8647
G1 X43.265 Y6.935 E0.9423
G1 X43.641 Y6.909 E0.9807
G1 X44.419 Y6.905 E1.0598
G1 X44.806 Y6.928 E1.0993
G1 X45.591 Y7.028 E1.1798
G1 X45.966 Y7.100 E1.2187
G1 X46.703 Y7.293 E1.2963
G1 X47.062 Y7.411 E1.3347
G1 X47.783 Y7.702 E1.4138
G1 X48.133 Y7.871 E1.4534
G1 X48.821 Y8.260 E1.5339
G1 X49.140 Y8.469 E1.5726
G1 X49.750 Y8.927 E1.6502
G1 X50.037 Y9.172 E1.6887
G1 X50.594 Y9.715 E1.7679
G1 X50.854 Y10.004 E1.8074
G1 X51.343 Y10.625 E1.8879
G1 X51.559 Y10.938 E1.9266
G1 X51.950 Y11.593 E2.0042
G1 X52.122 Y11.929 E2.0427
G1 X52.438 Y12.654 E2.1232
G1 X52.576 Y13.045 E2.1653
G1 X52.776 Y13.767 E2.2416
G1 X69.537 Y39.000 E5.3246
G1 X120.463 Y39.000 E10.5077
G1 X137.224 Y13.768 E13.5907
G1 X137.418 Y13.064 E13.6649
G1 X137.552 Y12.682 E13.7062
G1 X137.865 Y11.955 E13.7867
G1 X138.041 Y11.611 E13.8260
G1 X138.446 Y10.931 E13.9066
G1 X138.664 Y10.614 E13.9458
G1 X139.138 Y10.012 E14.0237
G1 X139.392 Y9.730 E14.0624
G1 X139.958 Y9.177 E14.1429
G1 X140.253 Y8.924 E14.1825
G1 X140.878 Y8.457 E14.2619
G1 X141.198 Y8.248 E14.3008
G1 X141.875 Y7.866 E14.3799
G1 X142.220 Y7.701 E14.4188
G1 X142.938 Y7.411 E14.4976
G1 X143.296 Y7.293 E14.5360
G1 X144.034 Y7.100 E14.6137
G1 X144.409 Y7.028 E14.6525
G1 X145.194 Y6.928 E14.7330
G1 X145.581 Y6.905 E14.7725
G1 X146.359 Y6.909 E14.8516
G1 X146.735 Y6.935 E14.8900
G1 X147.491 Y7.036 E14.9676
G1 X147.865 Y7.111 E15.0065
G1 X148.627 Y7.316 E15.0867
G1 X148.989 Y7.439 E15.1256
G1 X149.694 Y7.730 E15.2033
G1 X150.032 Y7.896 E15.2416
G1 X150.704 Y8.281 E15.3205
G1 X151.023 Y8.492 E15.3594
G1 X151.644 Y8.963 E15.4388
G1 X151.938 Y9.218 E15.4783
G1 X152.499 Y9.775 E15.5588
G1 X152.752 Y10.060 E15.5976
G1 X153.220 Y10.662 E15.6752
G1 X153.432 Y10.974 E15.7136
G1 X153.826 Y11.641 E15.7924
G1 X153.998 Y11.982 E15.8313
G1 X154.305 Y12.700 E15.9108
G1 X154.433 Y13.067 E15.9504
G1 X154.646 Y13.829 E16.0309
G1 X154.724 Y14.201 E16.0695
G1 X154.832 Y14.956 E16.1471
G1 X154.862 Y15.332 E16.1856
G1 X154.873 Y16.107 E16.2645
G1 X154.854 Y16.489 E16.3034
G1 X154.765 Y17.265 E16.3828
G1 X154.695 Y17.647 E16.4224
G1 X154.502 Y18.414 E16.5029
G1 X154.385 Y18.775 E16.5415
G1 X154.106 Y19.484 E16.6191
G1 X153.945 Y19.827 E16.6576
G1 X153.571 Y20.506 E16.7365
G1 X153.365 Y20.828 E16.7754
G1 X152.906 Y21.454 E16.8545
G1 X152.660 Y21.747 E16.8934
G1 X152.112 Y22.321 E16.9741
G1 X151.806 Y22.599 E17.0162
G1 X151.218 Y23.063 E17.0924
G1 X131.570 Y52.642 E20.7065
G1 X131.425 Y52.880 E20.7349
G1 X131.351 Y53.026 E20.7516
G1 X131.288 Y53.178 E20.7682
G1 X131.238 Y53.334 E20.7849
G1 X131.200 Y53.493 E20.8016
G1 X131.174 Y53.655 E20.8182
G1 X131.162 Y53.818 E20.8349
G1 X131.162 Y53.982 E20.8516
G1 X131.174 Y54.145 E20.8683
G1 X131.200 Y54.307 E20.8849
G1 X131.238 Y54.466 E20.9016
G1 X131.288 Y54.622 E20.9183
G1 X131.351 Y54.774 E20.9349
G1 X131.425 Y54.920 E20.9516
G1 X131.570 Y55.158 E20.9800
G1 X151.218 Y84.737 E24.5941
G1 X151.806 Y85.201 E24.6703
G1 X152.112 Y85.479 E24.7124
G1 X152.660 Y86.053 E24.7931
G1 X152.906 Y86.346 E24.8320
G1 X153.365 Y86.972 E24.9111
G1 X153.571 Y87.295 E24.9501
G1 X153.946 Y87.975 E25.0292
G1 X154.108 Y88.321 E25.0681
G1 X154.392 Y89.043 E25.1469
G1 X154.507 Y89.403 E25.1854
G1 X154.692 Y90.142 E25.2630
G1 X154.761 Y90.515 E25.3016
G1 X154.853 Y91.300 E25.3821
G1 X154.873 Y91.689 E25.4217
G1 X154.862 Y92.470 E25.5011
G1 X154.831 Y92.851 E25.5401
G1 X154.720 Y93.620 E25.6191
G1 X154.641 Y93.994 E25.6580
G1 X154.430 Y94.742 E25.7371
G1 X154.303 Y95.103 E25.7761
G1 X153.998 Y95.818 E25.8552
G1 X153.826 Y96.159 E25.8941
G1 X153.432 Y96.826 E25.9729
G1 X153.220 Y97.138 E26.0113
G1 X152.939 Y97.500 E26.0580
G1 X153.220 Y97.862 E26.1046
G1 X153.432 Y98.174 E26.1430
G1 X153.826 Y98.841 E26.2219
G1 X153.998 Y99.183 E26.2608
G1 X154.305 Y99.900 E26.3402
G1 X154.433 Y100.267 E26.3798
G1 X154.645 Y101.029 E26.4603
G1 X154.724 Y101.401 E26.4990
G1 X154.832 Y102.156 E26.5766
G1 X154.862 Y102.532 E26.6150
G1 X154.873 Y103.307 E26.6939
G1 X154.854 Y103.689 E26.7328
G1 X154.765 Y104.465 E26.8123
G1 X154.695 Y104.847 E26.8519
G1 X154.502 Y105.614 E26.9323
G1 X154.385 Y105.975 E26.9709
G1 X154.106 Y106.684 E27.0485
G1 X153.945 Y107.027 E27.0870
G1 X153.571 Y107.706 E27.1659
G1 X153.365 Y108.028 E27.2048
G1 X152.906 Y108.654 E27.2839
G1 X152.660 Y108.947 E27.3228
G1 X152.112 Y109.521 E27.4035
G1 X151.806 Y109.799 E27.4456
G1 X151.218 Y110.263 E27.5218
G1 X131.570 Y139.842 E31.1359
G1 X131.425 Y140.081 E31.1643
G1 X131.351 Y140.226 E31.1810
G1 X131.288 Y140.378 E31.1977
G1 X131.238 Y140.534 E31.2143
G1 X131.200 Y140.693 E31.2310
G1 X131.174 Y140.855 E31.2477
G1 X131.162 Y141.018 E31.2643
G1 X131.162 Y141.182 E31.2810
G1 X131.174 Y141.345 E31.2977
G1 X131.200 Y141.507 E31.3143
G1 X131.238 Y141.666 E31.3310
G1 X131.288 Y141.822 E31.3477
G1 X131.351 Y141.974 E31.3644
G1 X131.425 Y142.120 E31.3810
G1 X131.570 Y142.358 E31.4094
G1 X151.218 Y171.937 E35.0235
G1 X151.806 Y172.401 E35.0997
G1 X152.112 Y172.679 E35.1419
G1 X152.660 Y173.253 E35.2226
G1 X152.906 Y173.546 E35.2615
G1 X153.365 Y174.172 E35.3406
G1 X153.571 Y174.494 E35.3795
G1 X153.946 Y175.175 E35.4586
G1 X154.108 Y175.521 E35.4975
G1 X154.392 Y176.243 E35.5763
G1 X154.507 Y176.603 E35.6148
G1 X154.692 Y177.342 E35.6924
G1 X154.761 Y177.715 E35.7310
G1 X154.853 Y178.501 E35.8115
G1 X154.873 Y178.890 E35.8511
G1 X154.862 Y179.670 E35.9306
G1 X154.831 Y180.051 E35.9695
G1 X154.720 Y180.820 E36.0485
G1 X154.640 Y181.194 E36.0875
G1 X154.430 Y181.942 E36.1666
G1 X154.303 Y182.303 E36.2055
G1 X153.998 Y183.017 E36.2846
G1 X153.826 Y183.359 E36.3235
G1 X153.432 Y184.026 E36.4023
G1 X153.220 Y184.338 E36.4407
G1 X152.752 Y184.940 E36.5183
G1 X152.499 Y185.225 E36.5571
G1 X151.938 Y185.782 E36.6376
G1 X151.644 Y186.037 E36.6771
G1 X151.023 Y186.508 E36.7565
G1 X150.704 Y186.719 E36.7955
G1 X150.032 Y187.104 E36.8743
G1 X149.694 Y187.270 E36.9126
G1 X148.991 Y187.560 E36.9900
G1 X148.635 Y187.682 E37.0283
G1 X147.888 Y187.884 E37.1071
G1 X147.513 Y187.960 E37.1460
G1 X146.743 Y188.064 E37.2251
G1 X146.361 Y188.091 E37.2640
G1 X145.581 Y188.095 E37.3434
G1 X145.194 Y188.072 E37.3830
G1 X144.409 Y187.972 E37.4635
G1 X144.035 Y187.900 E37.5023
G1 X143.297 Y187.707 E37.5799
G1 X142.938 Y187.589 E37.6183
G1 X142.220 Y187.299 E37.6971
G1 X141.875 Y187.134 E37.7360
G1 X141.198 Y186.752 E37.8151
G1 X140.878 Y186.543 E37.8540
G1 X140.253 Y186.076 E37.9335
G1 X139.958 Y185.823 E37.9730
G1 X139.392 Y185.270 E38.0535
G1 X139.138 Y184.987 E38.0922
G1 X138.664 Y184.386 E38.1701
G1 X138.446 Y184.069 E38.2093
G1 X138.041 Y183.389 E38.2899
G1 X137.865 Y183.045 E38.3292
G1 X137.552 Y182.318 E38.4097
G1 X137.418 Y181.936 E38.4510
G1 X137.224 Y181.232 E38.5253
G1 X120.463 Y156.000 E41.6082
G1 X69.537 Y156.000 E46.7913
G1 X52.776 Y181.232 E49.8743
G1 X52.582 Y181.936 E49.9485
G1 X52.448 Y182.318 E49.9898
G1 X52.135 Y183.045 E50.0703
G1 X51.959 Y183.389 E50.1096
G1 X51.554 Y184.069 E50.1902
G1 X51.336 Y184.386 E50.2294
G1 X50.862 Y184.987 E50.3073
G1 X50.608 Y185.270 E50.3460
G1 X50.042 Y185.823 E50.4265
G1 X49.747 Y186.076 E50.4661
G1 X49.122 Y186.544 E50.5455
G1 X48.802 Y186.752 E50.5844
G1 X48.125 Y187.134 E50.6635
G1 X47.780 Y187.299 E50.7024
G1 X47.062 Y187.589 E50.7812
G1 X46.703 Y187.707 E50.8196
G1 X45.965 Y187.900 E50.8973
G1 X45.591 Y187.972 E50.9361
G1 X44.806 Y188.072 E51.0166
G1 X44.419 Y188.095 E51.0561
G1 X43.641 Y188.091 E51.1352
G1 X43.265 Y188.065 E51.1736
G1 X42.509 Y187.964 E51.2512
G1 X42.134 Y187.889 E51.2901
G1 X41.373 Y187.684 E51.3704
G1 X41.011 Y187.561 E51.4092
G1 X40.306 Y187.270 E51.4869
G1 X39.968 Y187.104 E51.5252
G1 X39.296 Y186.719 E51.6041
G1 X38.977 Y186.508 E51.6430
G1 X38.356 Y186.037 E51.7224
G1 X38.062 Y185.782 E51.7619
G1 X37.501 Y185.225 E51.8424
G1 X37.248 Y184.940 E51.8812
G1 X36.780 Y184.338 E51.9588
G1 X36.568 Y184.026 E51.9972
G1 X36.174 Y183.359 E52.0761
G1 X36.002 Y183.017 E52.1150
G1 X35.695 Y182.300 E52.1944
G1 X35.567 Y181.933 E52.2340
G1 X35.354 Y181.171 E52.3144
G1 X35.276 Y180.799 E52.3531
G1 X35.168 Y180.044 E52.4308
G1 X35.138 Y179.667 E52.4692
G1 X35.127 Y178.893 E52.5481
G1 X35.146 Y178.511 E52.5870
G1 X35.235 Y177.736 E52.6664
G1 X35.305 Y177.353 E52.7060
G1 X35.498 Y176.586 E52.7865
G1 X35.615 Y176.225 E52.8251
G1 X35.894 Y175.515 E52.9027
G1 X36.055 Y175.173 E52.9412
G1 X36.429 Y174.494 E53.0200
G1 X36.635 Y174.172 E53.0590
G1 X37.094 Y173.546 E53.1381
G1 X37.340 Y173.253 E53.1770
G1 X37.888 Y172.679 E53.2577
G1 X38.194 Y172.401 E53.2998
G1 X38.782 Y171.937 E53.3760
G1 X58.430 Y142.358 E56.9901
G1 X58.575 Y142.119 E57.0185
G1 X58.649 Y141.974 E57.0352
G1 X58.712 Y141.822 E57.0518
G1 X58.762 Y141.666 E57.0685
G1 X58.800 Y141.507 E57.0852
G1 X58.826 Y141.345 E57.1018
G1 X58.838 Y141.182 E57.1185
G1 X58.838 Y141.018 E57.1352
G1 X58.826 Y140.855 E57.1519
G1 X58.800 Y140.693 E57.1685
G1 X58.762 Y140.534 E57.1852
G1 X58.712 Y140.378 E57.2019
G1 X58.649 Y140.227 E57.2185
G1 X58.575 Y140.081 E57.2352
G1 X58.430 Y139.842 E57.2636
G1 X38.782 Y110.263 E60.8777
G1 X38.194 Y109.799 E60.9539
G1 X37.888 Y109.521 E60.9960
G1 X37.340 Y108.947 E61.0767
G1 X37.094 Y108.654 E61.1156
G1 X36.635 Y108.028 E61.1947
G1 X36.429 Y107.706 E61.2336
G1 X36.055 Y107.027 E61.3125
G1 X35.894 Y106.684 E61.3510
G1 X35.615 Y105.975 E61.4286
G1 X35.498 Y105.614 E61.4672
G1 X35.305 Y104.847 E61.5477
G1 X35.235 Y104.464 E61.5873
G1 X35.146 Y103.689 E61.6667
G1 X35.127 Y103.307 E61.7056
G1 X35.138 Y102.530 E61.7847
G1 X35.169 Y102.149 E61.8236
G1 X35.280 Y101.382 E61.9025
G1 X35.358 Y101.013 E61.9409
G1 X35.563 Y100.278 E62.0185
G1 X35.689 Y99.919 E62.0573
G1 X35.998 Y99.191 E62.1378
G1 X36.172 Y98.844 E62.1773
G1 X36.568 Y98.174 E62.2565
G1 X36.780 Y97.862 E62.2949
G1 X37.061 Y97.500 E62.3416
G1 X36.780 Y97.138 E62.3882
G1 X36.568 Y96.826 E62.4266
G1 X36.174 Y96.159 E62.5055
G1 X36.002 Y95.817 E62.5444
G1 X35.695 Y95.100 E62.6238
G1 X35.567 Y94.733 E62.6634
G1 X35.354 Y93.971 E62.7438
G1 X35.276 Y93.599 E62.7826
G1 X35.168 Y92.844 E62.8602
