; G-Code generated by Simplify3D(R) Version 4.1.2
; Dec 31, 2020 at 11:42:45 AM
; Settings Summary
;   processName,top
;   applyToModels,Thread_Test_1_x1_Rev1
;   profileName,Default (modified)
;   profileVersion,2018-10-08 20:21:59
;   baseProfile,Prusa Mendel (modified)
;   printMaterial,PLA
;   printQuality,DETAIL 0.1mm
;   printExtruders,
;   extruderName,Primary Extruder
;   extruderToolheadNumber,0
;   extruderDiameter,0.4
;   extruderAutoWidth,1
;   extruderWidth,0.48
;   extrusionMultiplier,1
;   extruderUseRetract,1
;   extruderRetractionDistance,0.8
;   extruderExtraRestartDistance,0
;   extruderRetractionZLift,0.6
;   extruderRetractionSpeed,2100
;   extruderUseCoasting,1
;   extruderCoastingDistance,0.2
;   extruderUseWipe,1
;   extruderWipeDistance,2
;   primaryExtruder,0
;   layerHeight,0.2
;   topSolidLayers,5
;   bottomSolidLayers,5
;   perimeterOutlines,4
;   printPerimetersInsideOut,1
;   startPointOption,2
;   startPointOriginX,0
;   startPointOriginY,0
;   sequentialIslands,0
;   spiralVaseMode,0
;   firstLayerHeightPercentage,200
;   firstLayerWidthPercentage,95
;   firstLayerUnderspeed,0.2
;   useRaft,0
;   raftExtruder,0
;   raftTopLayers,3
;   raftBaseLayers,2
;   raftOffset,3
;   raftSeparationDistance,0.14
;   raftTopInfill,100
;   aboveRaftSpeedMultiplier,0.3
;   useSkirt,1
;   skirtExtruder,0
;   skirtLayers,3
;   skirtOutlines,1
;   skirtOffset,1.4
;   usePrimePillar,0
;   primePillarExtruder,999
;   primePillarWidth,12
;   primePillarLocation,7
;   primePillarSpeedMultiplier,1
;   useOozeShield,0
;   oozeShieldExtruder,999
;   oozeShieldOffset,2
;   oozeShieldOutlines,1
;   oozeShieldSidewallShape,1
;   oozeShieldSidewallAngle,30
;   oozeShieldSpeedMultiplier,1
;   infillExtruder,0
;   internalInfillPattern,Grid
;   externalInfillPattern,Rectilinear
;   infillPercentage,40
;   outlineOverlapPercentage,25
;   infillExtrusionWidthPercentage,175
;   minInfillLength,2
;   infillLayerInterval,1
;   internalInfillAngles,45,-45
;   overlapInternalInfillAngles,0
;   externalInfillAngles,45,-45
;   generateSupport,0
;   supportExtruder,0
;   supportInfillPercentage,30
;   supportExtraInflation,1.4
;   supportBaseLayers,0
;   denseSupportExtruder,0
;   denseSupportLayers,3
;   denseSupportInfillPercentage,70
;   supportLayerInterval,1
;   supportHorizontalPartOffset,0.2
;   supportUpperSeparationLayers,1
;   supportLowerSeparationLayers,1
;   supportType,1
;   supportGridSpacing,1
;   maxOverhangAngle,55
;   supportAngles,0
;   temperatureName,Primary Extruder,Heated Bed
;   temperatureNumber,0,1
;   temperatureSetpointCount,1,1
;   temperatureSetpointLayers,1,1
;   temperatureSetpointTemperatures,240,105
;   temperatureStabilizeAtStartup,1,1
;   temperatureHeatedBed,0,1
;   fanLayers,1,2
;   fanSpeeds,0,100
;   blipFanToFullPower,1
;   adjustSpeedForCooling,1
;   minSpeedLayerTime,20
;   minCoolingSpeedSlowdown,10
;   increaseFanForCooling,0
;   minFanLayerTime,45
;   maxCoolingFanSpeed,100
;   increaseFanForBridging,1
;   bridgingFanSpeed,80
;   use5D,1
;   relativeEdistances,1
;   allowEaxisZeroing,1
;   independentExtruderAxes,0
;   includeM10123,0
;   stickySupport,1
;   applyToolheadOffsets,0
;   gcodeXoffset,0
;   gcodeYoffset,0
;   gcodeZoffset,0
;   overrideMachineDefinition,1
;   machineTypeOverride,0
;   strokeXoverride,250
;   strokeYoverride,210
;   strokeZoverride,210
;   originOffsetXoverride,0
;   originOffsetYoverride,0
;   originOffsetZoverride,0
;   homeXdirOverride,-1
;   homeYdirOverride,-1
;   homeZdirOverride,-1
;   flipXoverride,1
;   flipYoverride,-1
;   flipZoverride,1
;   toolheadOffsets,0,0|0,0|0,0|0,0|0,0|0,0
;   overrideFirmwareConfiguration,0
;   firmwareTypeOverride,RepRap (Marlin/Repetier/Sprinter)
;   GPXconfigOverride,r2
;   baudRateOverride,250000
;   overridePrinterModels,1
;   printerModelsOverride
;   startingGcode,G28 ; all axis to home
;   layerChangeGcode,
;   retractionGcode,
;   toolChangeGcode,
;   endingGcode,M104 S0 ; turn off temperature,M140 S0 ; turn off heatbed,M107 ; turn off fan,G1 X0 Y210; home X axis,M84 ; disable motors
;   exportFileFormat,gcode
;   celebration,0
;   celebrationSong,Random Song
;   postProcessing,
;   defaultSpeed,3900
;   outlineUnderspeed,0.18
;   solidInfillUnderspeed,1
;   supportUnderspeed,0.5
;   rapidXYspeed,3900
;   rapidZspeed,3900
;   minBridgingArea,50
;   bridgingExtraInflation,1
;   bridgingExtrusionMultiplier,0.8
;   bridgingSpeedMultiplier,1.2
;   useFixedBridgingAngle,0
;   fixedBridgingAngle,0
;   applyBridgingToPerimeters,0
;   filamentDiameters,1.75|1.75|1.75|1.75|1.75|1.75
;   filamentPricesPerKg,46|46|46|46|46|46
;   filamentDensities,1.25|1.25|1.25|1.25|1.25|1.25
;   useMinPrintHeight,1
;   minPrintHeight,3
;   useMaxPrintHeight,0
;   maxPrintHeight,0
;   useDiaphragm,0
;   diaphragmLayerInterval,20
;   robustSlicing,1
;   mergeAllIntoSolid,0
;   onlyRetractWhenCrossingOutline,1
;   retractBetweenLayers,1
;   useRetractionMinTravel,1
;   retractionMinTravel,3
;   retractWhileWiping,1
;   onlyWipeOutlines,1
;   avoidCrossingOutline,1
;   maxMovementDetourFactor,5
;   toolChangeRetractionDistance,12
;   toolChangeExtraRestartDistance,-0.5
;   toolChangeRetractionSpeed,600
;   externalThinWallType,0
;   internalThinWallType,2
;   thinWallAllowedOverlapPercentage,15
;   singleExtrusionMinLength,1
;   singleExtrusionMinPrintingWidthPercentage,50
;   singleExtrusionMaxPrintingWidthPercentage,200
;   singleExtrusionEndpointExtension,0.2
;   horizontalSizeCompensation,0
G90
M83
M106 S0
M140 S109
M190 S109
M104 S240 T0
M109 S240 T0
G28 ; all axis to home
; process bottom
; layer 1, Z = 0.400
T0
G1 E-0.8000 F2100
; feature skirt
; tool H0.400 W0.456
G1 Z0.600 F2700
G1 X112.244 Y78.535 F2700
G1 Z0.400 F2700
G1 E0.8000 F2100
G1 X112.292 Y78.467 E0.0063 F540
G1 X112.723 Y77.918 E0.0529
G1 X112.778 Y77.855 E0.0063
G1 X113.263 Y77.354 E0.0529
G1 X113.324 Y77.297 E0.0063
G1 X113.852 Y76.852 E0.0524
G1 X113.907 Y76.809 E0.0053
G1 X114.299 Y76.533 E0.0363
G1 X114.357 Y76.495 E0.0053
G1 X114.960 Y76.143 E0.0529
G1 X115.046 Y76.099 E0.0074
G1 X115.880 Y75.737 E0.0690
G1 X115.958 Y75.707 E0.0063
G1 X116.422 Y75.560 E0.0369
G1 X116.489 Y75.542 E0.0053
G1 X117.156 Y75.392 E0.0519
G1 X117.224 Y75.379 E0.0053
G1 X117.699 Y75.314 E0.0363
G1 X117.768 Y75.307 E0.0053
G1 X118.438 Y75.273 E0.0508
G1 X118.479 Y75.272 E0.0032
G1 X131.521 Y75.272 E0.9890
G1 X131.564 Y75.273 E0.0032
G1 X132.255 Y75.309 E0.0525
G1 X132.340 Y75.318 E0.0065
G1 X133.044 Y75.430 E0.0541
G1 X133.128 Y75.448 E0.0065
G1 X133.817 Y75.632 E0.0541
G1 X133.898 Y75.658 E0.0065
G1 X134.564 Y75.914 E0.0541
G1 X134.642 Y75.949 E0.0065
G1 X135.271 Y76.269 E0.0536
G1 X135.333 Y76.304 E0.0054
G1 X135.748 Y76.564 E0.0371
G1 X135.807 Y76.604 E0.0054
G1 X136.371 Y77.029 E0.0536
G1 X136.436 Y77.084 E0.0065
G1 X136.952 Y77.566 E0.0536
G1 X137.002 Y77.616 E0.0054
G1 X137.330 Y77.980 E0.0371
G1 X137.375 Y78.035 E0.0054
G1 X137.804 Y78.605 E0.0541
G1 X137.859 Y78.688 E0.0075
G1 X138.324 Y79.493 E0.0705
G1 X138.363 Y79.569 E0.0065
G1 X138.565 Y80.023 E0.0377
G1 X138.591 Y80.089 E0.0054
G1 X138.821 Y80.756 E0.0536
G1 X138.844 Y80.838 E0.0065
G1 X139.003 Y81.526 E0.0536
G1 X139.016 Y81.596 E0.0054
G1 X139.084 Y82.081 E0.0371
G1 X139.091 Y82.152 E0.0054
G1 X139.127 Y82.836 E0.0519
G1 X139.128 Y82.879 E0.0032
G1 X139.128 Y95.921 E0.9891
G1 X139.127 Y95.964 E0.0032
G1 X139.091 Y96.648 E0.0519
G1 X139.084 Y96.719 E0.0054
G1 X139.016 Y97.204 E0.0371
G1 X139.003 Y97.273 E0.0054
G1 X138.844 Y97.962 E0.0536
G1 X138.821 Y98.044 E0.0065
G1 X138.589 Y98.718 E0.0541
G1 X138.557 Y98.797 E0.0065
G1 X138.255 Y99.444 E0.0541
G1 X138.215 Y99.519 E0.0065
G1 X137.848 Y100.130 E0.0541
G1 X137.800 Y100.201 E0.0065
G1 X137.371 Y100.771 E0.0541
G1 X137.316 Y100.836 E0.0065
G1 X136.829 Y101.358 E0.0541
G1 X136.768 Y101.417 E0.0065
G1 X136.235 Y101.880 E0.0535
G1 X136.180 Y101.924 E0.0054
G1 X135.783 Y102.212 E0.0371
G1 X135.724 Y102.251 E0.0054
G1 X135.125 Y102.611 E0.0530
G1 X135.062 Y102.645 E0.0054
G1 X134.622 Y102.860 E0.0371
G1 X134.557 Y102.888 E0.0054
G1 X133.904 Y103.139 E0.0530
G1 X133.837 Y103.161 E0.0054
G1 X133.359 Y103.298 E0.0377
G1 X133.276 Y103.318 E0.0065
G1 X132.361 Y103.479 E0.0705
G1 X132.262 Y103.490 E0.0075
G1 X131.564 Y103.527 E0.0530
G1 X131.521 Y103.528 E0.0032
G1 X118.479 Y103.528 E0.9890
G1 X118.437 Y103.527 E0.0032
G1 X117.761 Y103.492 E0.0513
G1 X117.678 Y103.484 E0.0063
G1 X116.989 Y103.377 E0.0529
G1 X116.907 Y103.360 E0.0063
G1 X116.232 Y103.183 E0.0529
G1 X116.153 Y103.158 E0.0063
G1 X115.499 Y102.913 E0.0529
G1 X115.423 Y102.880 E0.0063
G1 X114.798 Y102.569 E0.0529
G1 X114.725 Y102.529 E0.0063
G1 X114.135 Y102.156 E0.0529
G1 X114.067 Y102.108 E0.0063
G1 X113.513 Y101.672 E0.0534
G1 X113.440 Y101.608 E0.0074
G1 X112.792 Y100.960 E0.0695
G1 X112.728 Y100.887 E0.0074
G1 X112.292 Y100.333 E0.0534
G1 X112.244 Y100.265 E0.0063
G1 X111.868 Y99.669 E0.0534
G1 X111.821 Y99.584 E0.0074
G1 X111.427 Y98.756 E0.0695
G1 X111.391 Y98.666 E0.0074
G1 X111.166 Y97.998 E0.0534
G1 X111.144 Y97.918 E0.0063
G1 X110.992 Y97.244 E0.0524
G1 X110.979 Y97.176 E0.0053
G1 X110.914 Y96.701 E0.0363
G1 X110.907 Y96.632 E0.0053
G1 X110.873 Y95.963 E0.0508
G1 X110.872 Y95.921 E0.0032
G1 X110.872 Y82.879 E0.9890
G1 X110.873 Y82.837 E0.0032
G1 X110.908 Y82.161 E0.0513
G1 X110.916 Y82.078 E0.0063
G1 X111.023 Y81.389 E0.0529
G1 X111.040 Y81.307 E0.0063
G1 X111.217 Y80.632 E0.0529
G1 X111.242 Y80.553 E0.0063
G1 X111.487 Y79.899 E0.0529
G1 X111.520 Y79.823 E0.0063
G1 X111.831 Y79.198 E0.0529
G1 X111.871 Y79.125 E0.0063
G1 X112.244 Y78.535 E0.0529
G1 E-0.8000 F2100
G1 Z1.000 F2700
G1 X113.948 Y79.687 F2700
G1 X113.643 Y80.169
G1 X113.390 Y80.680
G1 X113.189 Y81.215
G1 X113.123 Y81.467
G1 X115.278 Y88.651
G1 X115.258 Y88.901
G1 X115.239 Y89.459
G1 X115.245 Y89.839
G1 X115.285 Y90.470
G1 X115.347 Y90.973
G1 X115.429 Y91.458
G1 X115.578 Y92.104
G1 X115.675 Y92.443
G1 X115.858 Y92.984
G1 X116.015 Y93.388
G1 X116.264 Y93.939
G1 X116.448 Y94.301
G1 X116.764 Y94.846
G1 X116.970 Y95.165
G1 X117.352 Y95.694
G1 X117.412 Y95.767
G1 X120.641 Y106.536
G1 Z0.400 F2700
G1 E0.8000 F2100
G1 X120.694 Y106.520 E0.0042 F540
G1 X121.376 Y106.336 E0.0535
G1 X121.532 Y106.310 E0.0121
G1 X122.082 Y106.272 E0.0418
G1 X122.219 Y106.274 E0.0104
G1 X122.279 Y106.280 E0.0045
G1 X122.292 Y106.280 E0.0010
G1 X122.470 Y106.293 E0.0135
G1 X122.543 Y106.307 E0.0057
G1 X122.617 Y106.314 E0.0056
G1 X122.738 Y106.336 E0.0094
G1 X122.843 Y106.362 E0.0082
G1 X122.953 Y106.383 E0.0085
G1 X123.081 Y106.418 E0.0101
G1 X123.137 Y106.438 E0.0045
G1 X123.165 Y106.445 E0.0021
G1 X123.246 Y106.471 E0.0064
G1 X123.851 Y106.695 E0.0490
G1 X124.226 Y106.792 E0.0293
G1 X124.597 Y106.848 E0.0285
G1 X125.097 Y106.865 E0.0379
G1 X125.259 Y106.857 E0.0123
G1 X125.453 Y106.841 E0.0148
G1 X125.646 Y106.811 E0.0148
G1 X125.837 Y106.776 E0.0148
G1 X126.149 Y106.695 E0.0244
G1 X126.748 Y106.473 E0.0485
G1 X126.816 Y106.451 E0.0054
G1 X127.169 Y106.354 E0.0278
G1 X127.258 Y106.337 E0.0069
G1 X127.268 Y106.334 E0.0008
G1 X127.403 Y106.311 E0.0104
G1 X127.579 Y106.297 E0.0133
G1 X127.746 Y106.277 E0.0128
G1 X127.870 Y106.272 E0.0093
G1 X127.883 Y106.272 E0.0011
G1 X127.992 Y106.272 E0.0082
G1 X128.127 Y106.281 E0.0103
G1 X128.284 Y106.286 E0.0119
G1 X128.360 Y106.297 E0.0058
G1 X128.396 Y106.299 E0.0028
G1 X128.544 Y106.323 E0.0114
G1 X129.293 Y106.516 E0.0586
G1 X129.354 Y106.535 E0.0049
G1 X130.159 Y106.812 E0.0646
G1 X130.206 Y106.830 E0.0038
G1 X130.439 Y106.926 E0.0191
G1 X130.558 Y106.969 E0.0096
G1 X130.615 Y106.992 E0.0047
G1 X130.802 Y107.077 E0.0155
G1 X130.985 Y107.153 E0.0150
G1 X131.031 Y107.173 E0.0038
G1 X131.209 Y107.260 E0.0151
G1 X131.399 Y107.346 E0.0158
G1 X131.462 Y107.377 E0.0053
G1 X131.549 Y107.426 E0.0076
G1 X131.792 Y107.544 E0.0205
G1 X131.841 Y107.570 E0.0042
G1 X132.464 Y107.929 E0.0546
G1 X132.559 Y107.999 E0.0089
G1 X132.665 Y108.076 E0.0099
G1 X133.077 Y108.460 E0.0427
G1 X133.160 Y108.551 E0.0094
G1 X133.186 Y108.583 E0.0031
G1 X133.257 Y108.665 E0.0083
G1 X133.295 Y108.721 E0.0052
G1 X133.358 Y108.800 E0.0077
G1 X133.420 Y108.891 E0.0083
G1 X133.471 Y108.978 E0.0077
G1 X133.535 Y109.071 E0.0085
G1 X133.601 Y109.186 E0.0101
G1 X133.626 Y109.240 E0.0045
G1 X133.641 Y109.264 E0.0021
G1 X133.680 Y109.339 E0.0064
G1 X133.949 Y109.926 E0.0490
G1 X134.139 Y110.248 E0.0283
G1 X134.442 Y110.645 E0.0379
G1 X134.551 Y110.766 E0.0123
G1 X134.686 Y110.905 E0.0147
G1 X134.830 Y111.036 E0.0148
G1 X134.979 Y111.162 E0.0148
G1 X135.136 Y111.277 E0.0147
G1 X135.297 Y111.387 E0.0148
G1 X135.371 Y111.431 E0.0066
G1 X135.888 Y111.695 E0.0440
G1 X136.161 Y111.820 E0.0227
G1 X136.236 Y111.859 E0.0064
G1 X136.398 Y111.955 E0.0143
G1 X136.483 Y111.998 E0.0072
G1 X136.607 Y112.077 E0.0111
G1 X136.621 Y112.087 E0.0013
G1 X136.733 Y112.167 E0.0104
G1 X136.805 Y112.228 E0.0072
G1 X136.928 Y112.322 E0.0118
G1 X137.020 Y112.404 E0.0094
G1 X137.053 Y112.438 E0.0036
G1 X137.104 Y112.481 E0.0051
G1 X137.219 Y112.600 E0.0125
G1 X137.260 Y112.653 E0.0051
G1 X137.339 Y112.735 E0.0087
G1 X137.418 Y112.830 E0.0094
G1 X137.639 Y113.142 E0.0290
G1 X137.694 Y113.231 E0.0079
G1 X138.135 Y114.061 E0.0713
G1 X138.158 Y114.108 E0.0040
G1 X138.265 Y114.346 E0.0197
G1 X138.317 Y114.449 E0.0088
G1 X138.345 Y114.508 E0.0049
G1 X138.423 Y114.698 E0.0156
G1 X138.505 Y114.879 E0.0151
G1 X138.524 Y114.925 E0.0038
G1 X138.594 Y115.111 E0.0150
G1 X138.670 Y115.294 E0.0151
G1 X138.688 Y115.341 E0.0038
G1 X138.753 Y115.529 E0.0151
G1 X138.827 Y115.724 E0.0158
G1 X138.849 Y115.790 E0.0053
G1 X138.876 Y115.886 E0.0076
G1 X138.964 Y116.141 E0.0205
G1 X138.980 Y116.194 E0.0042
G1 X139.167 Y116.889 E0.0546
G1 X139.186 Y117.014 E0.0096
G1 X139.197 Y117.073 E0.0046
G1 X139.226 Y117.414 E0.0259
G1 X139.227 Y117.537 E0.0094
G1 X139.217 Y117.695 E0.0120
G1 X139.220 Y117.792 E0.0073
G1 X139.207 Y117.970 E0.0135
G1 X139.194 Y118.039 E0.0053
G1 X139.192 Y118.076 E0.0028
G1 X139.168 Y118.225 E0.0114
G1 X139.138 Y118.342 E0.0092
G1 X139.117 Y118.453 E0.0085
G1 X139.082 Y118.581 E0.0101
G1 X139.062 Y118.637 E0.0045
G1 X139.055 Y118.665 E0.0021
G1 X139.029 Y118.746 E0.0064
G1 X138.805 Y119.351 E0.0490
G1 X138.715 Y119.699 E0.0272
G1 X138.637 Y120.360 E0.0504
G1 X138.636 Y120.377 E0.0013
G1 X138.668 Y121.011 E0.0481
G1 X138.689 Y121.145 E0.0103
G1 X138.724 Y121.337 E0.0148
G1 X138.746 Y121.421 E0.0066
G1 X138.925 Y121.973 E0.0440
G1 X139.029 Y122.254 E0.0227
G1 X139.055 Y122.335 E0.0064
G1 X139.102 Y122.517 E0.0142
G1 X139.131 Y122.608 E0.0072
G1 X139.164 Y122.751 E0.0111
G1 X139.166 Y122.768 E0.0013
G1 X139.189 Y122.904 E0.0104
G1 X139.197 Y122.998 E0.0072
G1 X139.217 Y123.152 E0.0118
G1 X139.224 Y123.275 E0.0093
G1 X139.224 Y123.322 E0.0035
G1 X139.229 Y123.389 E0.0051
G1 X139.226 Y123.553 E0.0125
G1 X139.218 Y123.620 E0.0051
G1 X139.216 Y123.734 E0.0087
G1 X139.205 Y123.857 E0.0094
G1 X139.141 Y124.228 E0.0285
G1 X139.121 Y124.317 E0.0069
G1 X138.972 Y124.832 E0.0407
G1 X138.955 Y124.883 E0.0041
G1 X138.807 Y125.293 E0.0330
G1 X138.696 Y125.638 E0.0275
G1 X138.673 Y125.699 E0.0049
G1 X138.574 Y125.939 E0.0197
G1 X138.531 Y126.058 E0.0096
G1 X138.508 Y126.115 E0.0047
G1 X138.423 Y126.302 E0.0155
G1 X138.347 Y126.485 E0.0151
G1 X138.327 Y126.531 E0.0038
G1 X138.240 Y126.709 E0.0151
G1 X138.156 Y126.896 E0.0156
G1 X138.128 Y126.953 E0.0048
G1 X138.069 Y127.060 E0.0093
G1 X137.956 Y127.292 E0.0195
G1 X137.930 Y127.341 E0.0042
G1 X137.585 Y127.941 E0.0525
G1 X137.510 Y128.049 E0.0100
G1 X137.256 Y128.362 E0.0306
G1 X137.161 Y128.460 E0.0104
G1 X137.036 Y128.570 E0.0126
G1 X136.970 Y128.640 E0.0073
G1 X136.835 Y128.757 E0.0135
G1 X136.777 Y128.796 E0.0053
G1 X136.749 Y128.821 E0.0028
G1 X136.627 Y128.909 E0.0114
G1 X136.522 Y128.971 E0.0092
G1 X136.429 Y129.035 E0.0085
G1 X136.314 Y129.101 E0.0101
G1 X136.260 Y129.126 E0.0045
G1 X136.236 Y129.141 E0.0021
G1 X136.161 Y129.180 E0.0064
G1 X135.574 Y129.449 E0.0490
G1 X135.264 Y129.632 E0.0273
G1 X134.742 Y130.044 E0.0504
G1 X134.729 Y130.055 E0.0013
G1 X134.304 Y130.526 E0.0481
G1 X134.223 Y130.636 E0.0103
G1 X134.113 Y130.796 E0.0148
