; G-Code generated by Simplify3D(R) Version 4.1.2
; Dec 30, 2020 at 6:58:26 PM
; Settings Summary
;   processName,Process1
;   applyToModels,Thread_Test_1_x1_Rev1
;   profileName,Monoprice Maker Select (modified)
;   profileVersion,2016-06-08 08:00:00
;   baseProfile,
;   printMaterial,ABS
;   printQuality,Medium
;   printExtruders,
;   extruderName,Primary Extruder
;   extruderToolheadNumber,0
;   extruderDiameter,0.4
;   extruderAutoWidth,0
;   extruderWidth,0.4
;   extrusionMultiplier,1
;   extruderUseRetract,1
;   extruderRetractionDistance,1
;   extruderExtraRestartDistance,0
;   extruderRetractionZLift,0
;   extruderRetractionSpeed,1800
;   extruderUseCoasting,0
;   extruderCoastingDistance,0.2
;   extruderUseWipe,0
;   extruderWipeDistance,5
;   primaryExtruder,0
;   layerHeight,0.2
;   topSolidLayers,5
;   bottomSolidLayers,5
;   perimeterOutlines,4
;   printPerimetersInsideOut,1
;   startPointOption,2
;   startPointOriginX,0
;   startPointOriginY,0
;   sequentialIslands,0
;   spiralVaseMode,0
;   firstLayerHeightPercentage,90
;   firstLayerWidthPercentage,100
;   firstLayerUnderspeed,0.5
;   useRaft,0
;   raftExtruder,0
;   raftTopLayers,3
;   raftBaseLayers,2
;   raftOffset,3
;   raftSeparationDistance,0.14
;   raftTopInfill,100
;   aboveRaftSpeedMultiplier,0.3
;   useSkirt,1
;   skirtExtruder,0
;   skirtLayers,1
;   skirtOutlines,2
;   skirtOffset,4
;   usePrimePillar,0
;   primePillarExtruder,999
;   primePillarWidth,12
;   primePillarLocation,7
;   primePillarSpeedMultiplier,1
;   useOozeShield,0
;   oozeShieldExtruder,999
;   oozeShieldOffset,2
;   oozeShieldOutlines,1
;   oozeShieldSidewallShape,1
;   oozeShieldSidewallAngle,30
;   oozeShieldSpeedMultiplier,1
;   infillExtruder,0
;   internalInfillPattern,Full Honeycomb
;   externalInfillPattern,Rectilinear
;   infillPercentage,40
;   outlineOverlapPercentage,25
;   infillExtrusionWidthPercentage,150
;   minInfillLength,5
;   infillLayerInterval,1
;   internalInfillAngles,0,120,-120
;   overlapInternalInfillAngles,0
;   externalInfillAngles,45,-45
;   generateSupport,0
;   supportExtruder,0
;   supportInfillPercentage,30
;   supportExtraInflation,0
;   supportBaseLayers,0
;   denseSupportExtruder,0
;   denseSupportLayers,0
;   denseSupportInfillPercentage,70
;   supportLayerInterval,1
;   supportHorizontalPartOffset,0.3
;   supportUpperSeparationLayers,1
;   supportLowerSeparationLayers,1
;   supportType,0
;   supportGridSpacing,4
;   maxOverhangAngle,45
;   supportAngles,0
;   temperatureName,Primary Extruder,Heated Bed
;   temperatureNumber,0,0
;   temperatureSetpointCount,1,1
;   temperatureSetpointLayers,1,1
;   temperatureSetpointTemperatures,225,100
;   temperatureStabilizeAtStartup,1,1
;   temperatureHeatedBed,0,1
;   fanLayers,1
;   fanSpeeds,0
;   blipFanToFullPower,0
;   adjustSpeedForCooling,1
;   minSpeedLayerTime,15
;   minCoolingSpeedSlowdown,20
;   increaseFanForCooling,0
;   minFanLayerTime,45
;   maxCoolingFanSpeed,100
;   increaseFanForBridging,0
;   bridgingFanSpeed,100
;   use5D,1
;   relativeEdistances,0
;   allowEaxisZeroing,1
;   independentExtruderAxes,0
;   includeM10123,0
;   stickySupport,1
;   applyToolheadOffsets,0
;   gcodeXoffset,0
;   gcodeYoffset,0
;   gcodeZoffset,0
;   overrideMachineDefinition,1
;   machineTypeOverride,0
;   strokeXoverride,200
;   strokeYoverride,200
;   strokeZoverride,180
;   originOffsetXoverride,0
;   originOffsetYoverride,0
;   originOffsetZoverride,0
;   homeXdirOverride,-1
;   homeYdirOverride,-1
;   homeZdirOverride,-1
;   flipXoverride,1
;   flipYoverride,-1
;   flipZoverride,1
;   toolheadOffsets,0,0|0,0|0,0|0,0|0,0|0,0
;   overrideFirmwareConfiguration,1
;   firmwareTypeOverride,RepRap (Marlin/Repetier/Sprinter)
;   GPXconfigOverride,r2
;   baudRateOverride,115200
;   overridePrinterModels,1
;   printerModelsOverride
;   startingGcode,G28 ; home all axes
;   layerChangeGcode,
;   retractionGcode,
;   toolChangeGcode,
;   endingGcode,G28 X0 ; home X-axis,M104 S0 ; turn off extruder,M140 S0 ; turn off bed,M84 ; disable motors
;   exportFileFormat,gcode
;   celebration,0
;   celebrationSong,Random Song
;   postProcessing,
;   defaultSpeed,3600
;   outlineUnderspeed,0.5
;   solidInfillUnderspeed,0.8
;   supportUnderspeed,0.8
;   rapidXYspeed,4800
;   rapidZspeed,1002
;   minBridgingArea,50
;   bridgingExtraInflation,0
;   bridgingExtrusionMultiplier,1
;   bridgingSpeedMultiplier,1
;   useFixedBridgingAngle,0
;   fixedBridgingAngle,0
;   applyBridgingToPerimeters,0
;   filamentDiameters,1.75|1.75|1.75|1.75|1.75|1.75
;   filamentPricesPerKg,46|46|46|46|46|46
;   filamentDensities,1.25|1.25|1.25|1.25|1.25|1.25
;   useMinPrintHeight,0
;   minPrintHeight,0
;   useMaxPrintHeight,0
;   maxPrintHeight,0
;   useDiaphragm,0
;   diaphragmLayerInterval,20
;   robustSlicing,1
;   mergeAllIntoSolid,0
;   onlyRetractWhenCrossingOutline,1
;   retractBetweenLayers,1
;   useRetractionMinTravel,0
;   retractionMinTravel,3
;   retractWhileWiping,0
;   onlyWipeOutlines,1
;   avoidCrossingOutline,0
;   maxMovementDetourFactor,3
;   toolChangeRetractionDistance,12
;   toolChangeExtraRestartDistance,-0.5
;   toolChangeRetractionSpeed,600
;   externalThinWallType,0
;   internalThinWallType,2
;   thinWallAllowedOverlapPercentage,10
;   singleExtrusionMinLength,1
;   singleExtrusionMinPrintingWidthPercentage,50
;   singleExtrusionMaxPrintingWidthPercentage,200
;   singleExtrusionEndpointExtension,0.2
;   horizontalSizeCompensation,0
G90
M82
M106 S0
M140 S100
M190 S100
M104 S225 T0
M109 S225 T0
G28 ; home all axes
; process Process1
; layer 1, Z = 0.180
T0
G92 E0.0000
G1 E-1.0000 F1800
; feature skirt
; tool H0.180 W0.400
G1 Z0.180 F1002
G1 X85.667 Y71.226 F4800
G1 E0.0000 F1800
G92 E0.0000
G1 X85.822 Y71.049 E0.0071 F1800
G1 X86.418 Y70.432 E0.0327
G1 X86.651 Y70.221 E0.0421
G1 X87.692 Y69.404 E0.0818
G1 X88.021 Y69.188 E0.0935
G1 X89.183 Y68.561 E0.1331
G1 X89.462 Y68.433 E0.1423
G1 X90.235 Y68.141 E0.1670
G1 X90.493 Y68.060 E0.1751
G1 X91.600 Y67.785 E0.2092
G1 X91.959 Y67.725 E0.2201
G1 X93.206 Y67.618 E0.2576
G1 X93.402 Y67.610 E0.2634
G1 X106.560 Y67.610 E0.6573
G1 X106.681 Y67.613 E0.6609
G1 X107.456 Y67.654 E0.6842
G1 X107.695 Y67.679 E0.6914
G1 X108.522 Y67.810 E0.7164
G1 X108.757 Y67.860 E0.7236
G1 X109.565 Y68.076 E0.7487
G1 X109.794 Y68.151 E0.7559
G1 X110.575 Y68.451 E0.7809
G1 X110.795 Y68.549 E0.7881
G1 X111.538 Y68.927 E0.8131
G1 X111.740 Y69.044 E0.8201
G1 X112.382 Y69.457 E0.8429
G1 X112.541 Y69.570 E0.8487
G1 X113.054 Y69.966 E0.8682
G1 X113.217 Y70.104 E0.8746
G1 X113.804 Y70.652 E0.8986
G1 X113.944 Y70.795 E0.9046
G1 X114.344 Y71.239 E0.9225
G1 X114.472 Y71.394 E0.9285
G1 X114.951 Y72.030 E0.9523
G1 X115.065 Y72.196 E0.9583
G1 X115.380 Y72.700 E0.9761
G1 X115.476 Y72.868 E0.9819
G1 X115.815 Y73.529 E1.0042
G1 X115.896 Y73.706 E1.0100
G1 X116.135 Y74.287 E1.0288
G1 X116.195 Y74.450 E1.0340
G1 X116.375 Y75.006 E1.0515
G1 X116.429 Y75.199 E1.0575
G1 X116.608 Y75.975 E1.0813
G1 X116.645 Y76.172 E1.0873
G1 X116.728 Y76.764 E1.1052
G1 X116.747 Y76.964 E1.1112
G1 X116.787 Y77.719 E1.1339
G1 X116.790 Y77.840 E1.1375
G1 X116.790 Y90.960 E1.5302
G1 X116.787 Y91.081 E1.5338
G1 X116.746 Y91.852 E1.5570
G1 X116.722 Y92.085 E1.5640
G1 X116.605 Y92.839 E1.5868
G1 X116.567 Y93.030 E1.5927
G1 X116.414 Y93.660 E1.6121
G1 X116.354 Y93.865 E1.6185
G1 X116.086 Y94.643 E1.6431
G1 X115.995 Y94.866 E1.6503
G1 X115.642 Y95.624 E1.6753
G1 X115.529 Y95.837 E1.6825
G1 X115.098 Y96.554 E1.7076
G1 X114.963 Y96.754 E1.7148
G1 X114.460 Y97.422 E1.7398
G1 X114.305 Y97.607 E1.7471
G1 X113.721 Y98.233 E1.7727
G1 X113.517 Y98.426 E1.7811
G1 X112.694 Y99.117 E1.8133
G1 X112.468 Y99.285 E1.8217
G1 X111.766 Y99.740 E1.8467
G1 X111.593 Y99.842 E1.8527
G1 X111.065 Y100.123 E1.8706
G1 X110.884 Y100.209 E1.8766
G1 X110.151 Y100.520 E1.9005
G1 X109.963 Y100.591 E1.9065
G1 X109.394 Y100.775 E1.9244
G1 X109.201 Y100.829 E1.9304
G1 X109.117 Y100.849 E1.9330
G1 X109.537 Y101.168 E1.9488
G1 X109.877 Y101.485 E1.9627
G1 X110.395 Y102.076 E1.9862
G1 X110.645 Y102.421 E1.9990
G1 X110.959 Y102.952 E2.0175
G1 X111.069 Y103.164 E2.0246
G1 X111.311 Y103.691 E2.0420
G1 X111.370 Y103.790 E2.0454
G1 X111.442 Y103.887 E2.0490
G1 X111.526 Y103.981 E2.0528
G1 X111.744 Y104.140 E2.0609
G1 X112.701 Y104.622 E2.0930
G1 X113.031 Y104.825 E2.1046
G1 X113.588 Y105.235 E2.1253
G1 X113.906 Y105.519 E2.1380
G1 X114.416 Y106.065 E2.1604
G1 X114.655 Y106.370 E2.1720
G1 X114.949 Y106.815 E2.1880
G1 X115.063 Y107.009 E2.1947
G1 X115.509 Y107.857 E2.2234
G1 X115.571 Y107.984 E2.2276
G1 X115.947 Y108.819 E2.2550
G1 X116.001 Y108.948 E2.2592
G1 X116.331 Y109.820 E2.2871
G1 X116.387 Y109.985 E2.2923
G1 X116.738 Y111.179 E2.3296
G1 X116.820 Y111.595 E2.3423
G1 X116.885 Y112.225 E2.3612
G1 X116.892 Y112.612 E2.3728
G1 X116.842 Y113.358 E2.3952
G1 X116.775 Y113.779 E2.4080
G1 X116.622 Y114.376 E2.4264
G1 X116.550 Y114.604 E2.4336
G1 X116.349 Y115.148 E2.4509
G1 X116.320 Y115.259 E2.4544
G1 X116.302 Y115.379 E2.4580
G1 X116.295 Y115.505 E2.4618
G1 X116.337 Y115.771 E2.4698
G1 X116.679 Y116.808 E2.5025
G1 X116.774 Y117.224 E2.5153
G1 X116.887 Y118.061 E2.5406
G1 X116.891 Y118.642 E2.5580
G1 X116.771 Y119.645 E2.5882
G1 X116.684 Y120.055 E2.6007
G1 X116.371 Y121.062 E2.6323
G1 X116.325 Y121.195 E2.6365
G1 X116.001 Y122.052 E2.6639
G1 X115.947 Y122.181 E2.6681
G1 X115.569 Y123.020 E2.6957
G1 X115.504 Y123.153 E2.7001
G1 X114.992 Y124.118 E2.7328
G1 X114.792 Y124.432 E2.7440
G1 X114.332 Y125.037 E2.7667
G1 X114.015 Y125.377 E2.7806
G1 X113.424 Y125.895 E2.8041
G1 X113.079 Y126.145 E2.8169
G1 X112.548 Y126.459 E2.8354
G1 X112.336 Y126.569 E2.8425
G1 X111.809 Y126.811 E2.8599
G1 X111.710 Y126.870 E2.8633
G1 X111.613 Y126.942 E2.8669
G1 X111.526 Y127.020 E2.8704
G1 X111.357 Y127.250 E2.8790
G1 X110.878 Y128.201 E2.9109
G1 X110.675 Y128.532 E2.9225
G1 X110.265 Y129.088 E2.9432
G1 X109.981 Y129.406 E2.9559
G1 X109.435 Y129.916 E2.9783
G1 X109.130 Y130.155 E2.9899
G1 X108.685 Y130.449 E3.0058
G1 X108.491 Y130.563 E3.0126
G1 X107.643 Y131.009 E3.0413
G1 X107.516 Y131.071 E3.0455
G1 X106.681 Y131.447 E3.0729
G1 X106.552 Y131.501 E3.0771
G1 X105.680 Y131.831 E3.1050
G1 X105.514 Y131.887 E3.1102
G1 X104.325 Y132.237 E3.1473
G1 X103.917 Y132.318 E3.1598
G1 X103.308 Y132.383 E3.1781
G1 X102.924 Y132.391 E3.1896
G1 X102.159 Y132.344 E3.2126
G1 X101.727 Y132.276 E3.2257
G1 X101.124 Y132.122 E3.2443
G1 X100.896 Y132.050 E3.2514
G1 X100.352 Y131.849 E3.2688
G1 X100.241 Y131.820 E3.2722
G1 X100.121 Y131.802 E3.2759
G1 X100.077 Y131.800 E3.2772
G1 X99.760 Y131.826 E3.2867
G1 X98.692 Y132.179 E3.3204
G1 X98.276 Y132.274 E3.3331
G1 X97.439 Y132.387 E3.3584
G1 X96.858 Y132.391 E3.3758
G1 X95.820 Y132.267 E3.4071
G1 X95.343 Y132.158 E3.4218
G1 X93.547 Y131.539 E3.4786
G1 X93.351 Y131.461 E3.4850
G1 X92.480 Y131.069 E3.5135
G1 X92.347 Y131.004 E3.5180
G1 X91.382 Y130.492 E3.5507
G1 X91.068 Y130.292 E3.5618
G1 X90.463 Y129.832 E3.5846
G1 X90.123 Y129.515 E3.5985
G1 X89.605 Y128.924 E3.6220
G1 X89.355 Y128.579 E3.6348
G1 X89.041 Y128.048 E3.6532
G1 X88.931 Y127.836 E3.6604
G1 X88.689 Y127.309 E3.6777
G1 X88.630 Y127.210 E3.6812
G1 X88.558 Y127.113 E3.6848
G1 X88.480 Y127.026 E3.6883
G1 X88.250 Y126.857 E3.6968
G1 X87.286 Y126.371 E3.7292
G1 X86.931 Y126.150 E3.7417
G1 X86.336 Y125.700 E3.7640
G1 X86.024 Y125.414 E3.7767
G1 X85.558 Y124.903 E3.7974
G1 X85.337 Y124.619 E3.8082
G1 X85.032 Y124.155 E3.8248
G1 X84.886 Y123.898 E3.8336
G1 X84.095 Y122.278 E3.8876
G1 X84.012 Y122.084 E3.8939
G1 X83.674 Y121.192 E3.9225
G1 X83.626 Y121.052 E3.9269
G1 X83.305 Y120.008 E3.9596
G1 X83.225 Y119.644 E3.9708
G1 X83.122 Y118.891 E3.9935
G1 X83.106 Y118.426 E4.0074
G1 X83.158 Y117.642 E4.0309
G1 X83.225 Y117.221 E4.0437
G1 X83.378 Y116.624 E4.0622
G1 X83.450 Y116.396 E4.0693
G1 X83.651 Y115.852 E4.0867
G1 X83.680 Y115.741 E4.0901
G1 X83.698 Y115.621 E4.0937
G1 X83.704 Y115.500 E4.0974
G1 X83.698 Y115.379 E4.1010
G1 X83.680 Y115.259 E4.1046
G1 X83.651 Y115.148 E4.1081
G1 X83.450 Y114.604 E4.1254
G1 X83.378 Y114.376 E4.1326
G1 X83.230 Y113.798 E4.1504
G1 X83.165 Y113.416 E4.1620
G1 X83.110 Y112.747 E4.1821
G1 X83.110 Y112.359 E4.1937
G1 X83.169 Y111.676 E4.2142
G1 X83.241 Y111.268 E4.2267
G1 X83.462 Y110.456 E4.2518
G1 X83.507 Y110.311 E4.2564
G1 X83.807 Y109.440 E4.2840
G1 X83.856 Y109.309 E4.2882
G1 X84.207 Y108.463 E4.3156
G1 X84.265 Y108.335 E4.3198
G1 X84.660 Y107.523 E4.3468
G1 X84.713 Y107.421 E4.3503
G1 X85.027 Y106.852 E4.3697
G1 X85.187 Y106.601 E4.3786
G1 X85.569 Y106.081 E4.3979
G1 X85.851 Y105.762 E4.4107
G1 X86.411 Y105.238 E4.4336
G1 X86.747 Y104.976 E4.4464
G1 X87.297 Y104.625 E4.4659
G1 X87.569 Y104.477 E4.4752
G1 X88.185 Y104.192 E4.4955
G1 X88.290 Y104.130 E4.4991
G1 X88.387 Y104.058 E4.5028
G1 X88.420 Y104.029 E4.5041
G1 X88.625 Y103.786 E4.5136
G1 X89.122 Y102.799 E4.5467
G1 X89.325 Y102.468 E4.5583
G1 X89.735 Y101.912 E4.5790
G1 X90.019 Y101.594 E4.5917
G1 X90.565 Y101.084 E4.6141
G1 X90.870 Y100.845 E4.6257
G1 X90.875 Y100.842 E4.6259
G1 X90.461 Y100.733 E4.6387
G1 X90.164 Y100.633 E4.6481
G1 X88.977 Y100.142 E4.6865
G1 X88.695 Y100.002 E4.6959
G1 X87.955 Y99.569 E4.7216
G1 X87.758 Y99.440 E4.7287
G1 X87.098 Y98.956 E4.7532
G1 X86.915 Y98.808 E4.7602
G1 X86.278 Y98.233 E4.7859
G1 X86.060 Y98.007 E4.7953
G1 X85.232 Y97.025 E4.8337
G1 X85.046 Y96.771 E4.8431
G1 X84.570 Y96.016 E4.8699
G1 X84.423 Y95.747 E4.8791
G1 X83.918 Y94.644 E4.9154
G1 X83.819 Y94.392 E4.9234
G1 X83.600 Y93.714 E4.9448
G1 X83.529 Y93.435 E4.9534
G1 X83.291 Y92.186 E4.9915
G1 X83.254 Y91.874 E5.0009
G1 X83.213 Y91.077 E5.0248
G1 X83.210 Y90.959 E5.0283
G1 X83.210 Y77.841 E5.4210
G1 X83.213 Y77.723 E5.4245
G1 X83.252 Y76.965 E5.4472
G1 X83.276 Y76.730 E5.4543
G1 X83.401 Y75.922 E5.4788
G1 X83.449 Y75.691 E5.4858
G1 X83.657 Y74.899 E5.5103
G1 X83.728 Y74.675 E5.5174
G1 X84.015 Y73.909 E5.5419
G1 X84.109 Y73.692 E5.5489
G1 X84.473 Y72.960 E5.5734
G1 X84.588 Y72.754 E5.5805
G1 X85.026 Y72.062 E5.6050
G1 X85.161 Y71.870 E5.6120
G1 X85.667 Y71.226 E5.6365
G92 E0.0000
G1 E-1.0000 F1800
G1 X85.975 Y71.481 F4800
G1 E0.0000 F1800
G92 E0.0000
G1 X86.117 Y71.319 E0.0064 F1800
G1 X86.696 Y70.720 E0.0314
G1 X86.909 Y70.527 E0.0400
G1 X87.926 Y69.729 E0.0787
G1 X88.226 Y69.532 E0.0894
G1 X89.361 Y68.919 E0.1281
G1 X89.616 Y68.802 E0.1365
G1 X90.365 Y68.519 E0.1604
G1 X90.601 Y68.445 E0.1678
G1 X91.681 Y68.177 E0.2011
G1 X92.009 Y68.122 E0.2111
G1 X93.231 Y68.018 E0.2478
G1 X93.410 Y68.010 E0.2532
G1 X106.555 Y68.010 E0.6466
G1 X106.665 Y68.013 E0.6499
G1 X107.424 Y68.053 E0.6727
G1 X107.643 Y68.076 E0.6793
G1 X108.449 Y68.203 E0.7037
G1 X108.664 Y68.249 E0.7103
G1 X109.452 Y68.460 E0.7347
G1 X109.661 Y68.528 E0.7413
G1 X110.422 Y68.820 E0.7657
G1 X110.623 Y68.910 E0.7723
G1 X111.347 Y69.279 E0.7966
G1 X111.532 Y69.385 E0.8030
G1 X112.158 Y69.789 E0.8253
G1 X112.303 Y69.891 E0.8306
G1 X112.802 Y70.277 E0.8495
G1 X112.951 Y70.403 E0.8553
G1 X113.524 Y70.938 E0.8788
G1 X113.653 Y71.069 E0.8843
G1 X114.041 Y71.500 E0.9017
G1 X114.158 Y71.642 E0.9071
G1 X114.627 Y72.264 E0.9305
G1 X114.730 Y72.415 E0.9359
G1 X115.036 Y72.904 E0.9532
G1 X115.124 Y73.058 E0.9585
G1 X115.455 Y73.704 E0.9803
G1 X115.530 Y73.866 E0.9856
G1 X115.762 Y74.432 E1.0039
G1 X115.817 Y74.581 E1.0086
G1 X115.992 Y75.121 E1.0256
G1 X116.041 Y75.298 E1.0311
G1 X116.216 Y76.056 E1.0544
G1 X116.250 Y76.237 E1.0599
G1 X116.331 Y76.811 E1.0773
G1 X116.348 Y76.994 E1.0828
G1 X116.387 Y77.735 E1.1050
G1 X116.390 Y77.845 E1.1083
G1 X116.390 Y90.955 E1.5007
G1 X116.387 Y91.065 E1.5040
G1 X116.347 Y91.821 E1.5267
G1 X116.325 Y92.034 E1.5331
G1 X116.211 Y92.769 E1.5554
G1 X116.176 Y92.944 E1.5607
G1 X116.027 Y93.557 E1.5796
G1 X115.972 Y93.744 E1.5854
G1 X115.711 Y94.503 E1.6095
G1 X115.629 Y94.707 E1.6160
G1 X115.284 Y95.446 E1.6405
G1 X115.181 Y95.640 E1.6470
G1 X114.761 Y96.339 E1.6714
G1 X114.638 Y96.522 E1.6780
G1 X114.147 Y97.173 E1.7024
G1 X114.005 Y97.341 E1.7090
G1 X113.437 Y97.951 E1.7340
G1 X113.251 Y98.128 E1.7417
G1 X112.446 Y98.803 E1.7731
G1 X112.240 Y98.956 E1.7808
G1 X111.556 Y99.400 E1.8052
G1 X111.398 Y99.493 E1.8107
G1 X110.885 Y99.765 E1.8281
