; G-Code generated by Simplify3D(R) Version 4.1.2
; Dec 30, 2020 at 10:24:53 PM
; Settings Summary
;   processName,Process1
;   applyToModels,Thread_Test_1_x1_Rev1
;   profileName,Monoprice Maker Select (modified)
;   profileVersion,2016-06-08 08:00:00
;   baseProfile,
;   printMaterial,ABS
;   printQuality,Medium
;   printExtruders,
;   extruderName,Primary Extruder
;   extruderToolheadNumber,0
;   extruderDiameter,0.4
;   extruderAutoWidth,0
;   extruderWidth,0.4
;   extrusionMultiplier,1
;   extruderUseRetract,1
;   extruderRetractionDistance,1
;   extruderExtraRestartDistance,0
;   extruderRetractionZLift,0
;   extruderRetractionSpeed,1800
;   extruderUseCoasting,0
;   extruderCoastingDistance,0.2
;   extruderUseWipe,0
;   extruderWipeDistance,5
;   primaryExtruder,0
;   layerHeight,0.2
;   topSolidLayers,5
;   bottomSolidLayers,5
;   perimeterOutlines,4
;   printPerimetersInsideOut,1
;   startPointOption,2
;   startPointOriginX,0
;   startPointOriginY,0
;   sequentialIslands,0
;   spiralVaseMode,0
;   firstLayerHeightPercentage,200
;   firstLayerWidthPercentage,95
;   firstLayerUnderspeed,0.2
;   useRaft,0
;   raftExtruder,0
;   raftTopLayers,3
;   raftBaseLayers,2
;   raftOffset,3
;   raftSeparationDistance,0.14
;   raftTopInfill,100
;   aboveRaftSpeedMultiplier,0.3
;   useSkirt,1
;   skirtExtruder,0
;   skirtLayers,1
;   skirtOutlines,2
;   skirtOffset,4
;   usePrimePillar,0
;   primePillarExtruder,999
;   primePillarWidth,12
;   primePillarLocation,7
;   primePillarSpeedMultiplier,1
;   useOozeShield,0
;   oozeShieldExtruder,999
;   oozeShieldOffset,2
;   oozeShieldOutlines,1
;   oozeShieldSidewallShape,1
;   oozeShieldSidewallAngle,30
;   oozeShieldSpeedMultiplier,1
;   infillExtruder,0
;   internalInfillPattern,Full Honeycomb
;   externalInfillPattern,Rectilinear
;   infillPercentage,40
;   outlineOverlapPercentage,25
;   infillExtrusionWidthPercentage,150
;   minInfillLength,5
;   infillLayerInterval,1
;   internalInfillAngles,0,120,-120
;   overlapInternalInfillAngles,0
;   externalInfillAngles,45,-45
;   generateSupport,0
;   supportExtruder,0
;   supportInfillPercentage,30
;   supportExtraInflation,0
;   supportBaseLayers,0
;   denseSupportExtruder,0
;   denseSupportLayers,0
;   denseSupportInfillPercentage,70
;   supportLayerInterval,1
;   supportHorizontalPartOffset,0.3
;   supportUpperSeparationLayers,1
;   supportLowerSeparationLayers,1
;   supportType,0
;   supportGridSpacing,4
;   maxOverhangAngle,45
;   supportAngles,0
;   temperatureName,Primary Extruder,Heated Bed
;   temperatureNumber,0,0
;   temperatureSetpointCount,1,1
;   temperatureSetpointLayers,1,1
;   temperatureSetpointTemperatures,240,109
;   temperatureStabilizeAtStartup,1,1
;   temperatureHeatedBed,0,1
;   fanLayers,1
;   fanSpeeds,0
;   blipFanToFullPower,0
;   adjustSpeedForCooling,1
;   minSpeedLayerTime,15
;   minCoolingSpeedSlowdown,20
;   increaseFanForCooling,0
;   minFanLayerTime,45
;   maxCoolingFanSpeed,100
;   increaseFanForBridging,0
;   bridgingFanSpeed,100
;   use5D,1
;   relativeEdistances,0
;   allowEaxisZeroing,1
;   independentExtruderAxes,0
;   includeM10123,0
;   stickySupport,1
;   applyToolheadOffsets,0
;   gcodeXoffset,0
;   gcodeYoffset,0
;   gcodeZoffset,0
;   overrideMachineDefinition,1
;   machineTypeOverride,0
;   strokeXoverride,200
;   strokeYoverride,200
;   strokeZoverride,180
;   originOffsetXoverride,0
;   originOffsetYoverride,0
;   originOffsetZoverride,0
;   homeXdirOverride,-1
;   homeYdirOverride,-1
;   homeZdirOverride,-1
;   flipXoverride,1
;   flipYoverride,-1
;   flipZoverride,1
;   toolheadOffsets,0,0|0,0|0,0|0,0|0,0|0,0
;   overrideFirmwareConfiguration,1
;   firmwareTypeOverride,RepRap (Marlin/Repetier/Sprinter)
;   GPXconfigOverride,r2
;   baudRateOverride,115200
;   overridePrinterModels,1
;   printerModelsOverride
;   startingGcode,G28 ; home all axes
;   layerChangeGcode,
;   retractionGcode,
;   toolChangeGcode,
;   endingGcode,G28 X0 ; home X-axis,M104 S0 ; turn off extruder,M140 S0 ; turn off bed,M84 ; disable motors
;   exportFileFormat,gcode
;   celebration,0
;   celebrationSong,Random Song
;   postProcessing,
;   defaultSpeed,2700
;   outlineUnderspeed,0.5
;   solidInfillUnderspeed,0.8
;   supportUnderspeed,0.8
;   rapidXYspeed,2700
;   rapidZspeed,1002
;   minBridgingArea,50
;   bridgingExtraInflation,0
;   bridgingExtrusionMultiplier,1
;   bridgingSpeedMultiplier,1
;   useFixedBridgingAngle,0
;   fixedBridgingAngle,0
;   applyBridgingToPerimeters,0
;   filamentDiameters,1.75|1.75|1.75|1.75|1.75|1.75
;   filamentPricesPerKg,46|46|46|46|46|46
;   filamentDensities,1.25|1.25|1.25|1.25|1.25|1.25
;   useMinPrintHeight,0
;   minPrintHeight,0
;   useMaxPrintHeight,0
;   maxPrintHeight,0
;   useDiaphragm,0
;   diaphragmLayerInterval,20
;   robustSlicing,1
;   mergeAllIntoSolid,0
;   onlyRetractWhenCrossingOutline,1
;   retractBetweenLayers,1
;   useRetractionMinTravel,0
;   retractionMinTravel,3
;   retractWhileWiping,0
;   onlyWipeOutlines,1
;   avoidCrossingOutline,0
;   maxMovementDetourFactor,3
;   toolChangeRetractionDistance,12
;   toolChangeExtraRestartDistance,-0.5
;   toolChangeRetractionSpeed,600
;   externalThinWallType,0
;   internalThinWallType,2
;   thinWallAllowedOverlapPercentage,10
;   singleExtrusionMinLength,1
;   singleExtrusionMinPrintingWidthPercentage,50
;   singleExtrusionMaxPrintingWidthPercentage,200
;   singleExtrusionEndpointExtension,0.2
;   horizontalSizeCompensation,0
G90
M82
M106 S0
M140 S109
M190 S109
M104 S240 T0
M109 S240 T0
G28 ; home all axes
; process Process1
; layer 1, Z = 0.400
T0
G92 E0.0000
G1 E-1.0000 F1800
; feature skirt
; tool H0.400 W0.380
G1 Z0.400 F1002
G1 X85.761 Y70.997 F2700
G1 E0.0000 F1800
G92 E0.0000
G1 X86.336 Y70.401 E0.0523 F540
G1 X86.507 Y70.241 E0.0671
G1 X87.126 Y69.721 E0.1182
G1 X87.280 Y69.601 E0.1305
G1 X87.747 Y69.272 E0.1667
G1 X87.878 Y69.186 E0.1765
G1 X88.366 Y68.889 E0.2127
G1 X88.537 Y68.795 E0.2250
G1 X89.288 Y68.422 E0.2780
G1 X89.560 Y68.308 E0.2966
G1 X90.663 Y67.927 E0.3704
G1 X90.920 Y67.855 E0.3872
G1 X91.626 Y67.701 E0.4329
G1 X91.803 Y67.669 E0.4442
G1 X92.381 Y67.590 E0.4811
G1 X92.576 Y67.571 E0.4935
G1 X93.325 Y67.533 E0.5408
G1 X93.441 Y67.530 E0.5482
G1 X106.560 Y67.530 E1.3772
G1 X106.679 Y67.533 E1.3848
G1 X107.465 Y67.574 E1.4345
G1 X107.703 Y67.599 E1.4496
G1 X108.539 Y67.732 E1.5031
G1 X108.773 Y67.782 E1.5183
G1 X109.591 Y68.001 E1.5717
G1 X109.818 Y68.075 E1.5869
G1 X110.608 Y68.378 E1.6404
G1 X110.827 Y68.475 E1.6555
G1 X111.574 Y68.856 E1.7084
G1 X111.767 Y68.966 E1.7225
G1 X112.365 Y69.349 E1.7674
G1 X112.522 Y69.458 E1.7795
G1 X113.092 Y69.894 E1.8248
G1 X113.263 Y70.038 E1.8389
G1 X113.862 Y70.597 E1.8907
G1 X114.002 Y70.739 E1.9033
G1 X114.406 Y71.188 E1.9415
G1 X114.533 Y71.342 E1.9541
G1 X115.018 Y71.986 E2.0050
G1 X115.131 Y72.150 E2.0177
G1 X115.447 Y72.656 E2.0553
G1 X115.537 Y72.815 E2.0669
G1 X115.855 Y73.427 E2.1104
G1 X115.936 Y73.600 E2.1225
G1 X116.204 Y74.244 E2.1666
G1 X116.268 Y74.416 E2.1782
G1 X116.452 Y74.984 E2.2159
G1 X116.506 Y75.176 E2.2285
G1 X116.687 Y75.962 E2.2795
G1 X116.723 Y76.158 E2.2921
G1 X116.808 Y76.757 E2.3303
G1 X116.827 Y76.955 E2.3429
G1 X116.867 Y77.720 E2.3913
G1 X116.870 Y77.840 E2.3989
G1 X116.870 Y90.960 E3.2280
G1 X116.867 Y91.080 E3.2356
G1 X116.826 Y91.857 E3.2847
G1 X116.804 Y92.078 E3.2988
G1 X116.698 Y92.780 E3.3436
G1 X116.661 Y92.968 E3.3558
G1 X116.495 Y93.665 E3.4011
G1 X116.433 Y93.881 E3.4152
G1 X116.160 Y94.674 E3.4682
G1 X116.070 Y94.896 E3.4834
G1 X115.712 Y95.663 E3.5369
G1 X115.600 Y95.874 E3.5520
G1 X115.164 Y96.599 E3.6055
G1 X115.030 Y96.798 E3.6206
G1 X114.521 Y97.474 E3.6741
G1 X114.367 Y97.657 E3.6892
G1 X113.803 Y98.262 E3.7414
G1 X113.661 Y98.401 E3.7540
G1 X113.212 Y98.806 E3.7922
G1 X113.058 Y98.933 E3.8048
G1 X112.398 Y99.430 E3.8571
G1 X112.200 Y99.564 E3.8722
G1 X111.457 Y100.010 E3.9269
G1 X111.209 Y100.139 E3.9446
G1 X110.233 Y100.574 E4.0121
G1 X110.010 Y100.659 E4.0272
G1 X109.416 Y100.852 E4.0667
G1 X109.297 Y100.885 E4.0745
G1 X109.592 Y101.110 E4.0980
G1 X109.930 Y101.425 E4.1272
G1 X110.461 Y102.031 E4.1781
G1 X110.709 Y102.374 E4.2048
G1 X111.032 Y102.919 E4.2448
G1 X111.142 Y103.130 E4.2599
G1 X111.382 Y103.654 E4.2963
G1 X111.436 Y103.746 E4.3030
G1 X111.503 Y103.837 E4.3102
G1 X111.589 Y103.932 E4.3183
G1 X111.777 Y104.068 E4.3329
G1 X112.744 Y104.555 E4.4014
G1 X113.072 Y104.757 E4.4257
G1 X113.641 Y105.176 E4.4704
G1 X113.958 Y105.458 E4.4971
G1 X114.481 Y106.018 E4.5456
G1 X114.718 Y106.321 E4.5699
G1 X115.019 Y106.777 E4.6044
G1 X115.133 Y106.970 E4.6186
G1 X115.581 Y107.823 E4.6795
G1 X115.642 Y107.948 E4.6883
G1 X116.021 Y108.788 E4.7465
G1 X116.074 Y108.917 E4.7553
G1 X116.410 Y109.804 E4.8152
G1 X116.471 Y109.987 E4.8274
G1 X116.870 Y111.386 E4.9194
G1 X116.958 Y112.052 E4.9619
G1 X116.940 Y113.201 E5.0344
G1 X116.868 Y113.735 E5.0685
G1 X116.697 Y114.404 E5.1122
G1 X116.626 Y114.631 E5.1272
G1 X116.425 Y115.172 E5.1636
G1 X116.398 Y115.275 E5.1704
G1 X116.381 Y115.387 E5.1775
G1 X116.375 Y115.515 E5.1856
G1 X116.411 Y115.744 E5.2003
G1 X116.757 Y116.790 E5.2699
G1 X116.852 Y117.203 E5.2967
G1 X116.956 Y117.983 E5.3464
G1 X116.974 Y118.406 E5.3731
G1 X116.938 Y119.092 E5.4166
G1 X116.894 Y119.436 E5.4385
G1 X116.788 Y119.952 E5.4718
G1 X116.732 Y120.169 E5.4859
G1 X116.446 Y121.089 E5.5468
G1 X116.401 Y121.221 E5.5556
G1 X116.074 Y122.083 E5.6139
G1 X116.021 Y122.212 E5.6227
G1 X115.641 Y123.055 E5.6812
G1 X115.576 Y123.188 E5.6905
G1 X115.060 Y124.160 E5.7601
G1 X114.861 Y124.472 E5.7834
G1 X114.390 Y125.092 E5.8327
G1 X114.075 Y125.430 E5.8619
G1 X113.469 Y125.961 E5.9128
G1 X113.126 Y126.209 E5.9395
G1 X112.581 Y126.531 E5.9795
G1 X112.370 Y126.642 E5.9945
G1 X111.846 Y126.882 E6.0310
G1 X111.754 Y126.936 E6.0377
G1 X111.663 Y127.003 E6.0449
G1 X111.585 Y127.075 E6.0516
G1 X111.425 Y127.292 E6.0686
G1 X110.945 Y128.244 E6.1360
G1 X110.744 Y128.572 E6.1603
G1 X110.324 Y129.141 E6.2050
G1 X110.043 Y129.457 E6.2318
G1 X109.482 Y129.981 E6.2802
G1 X109.179 Y130.218 E6.3045
G1 X108.694 Y130.538 E6.3413
G1 X108.439 Y130.683 E6.3598
G1 X106.808 Y131.479 E6.4745
G1 X106.615 Y131.562 E6.4877
G1 X105.705 Y131.907 E6.5493
G1 X105.539 Y131.963 E6.5603
G1 X104.339 Y132.315 E6.6394
G1 X103.946 Y132.394 E6.6647
G1 X103.350 Y132.460 E6.7026
G1 X102.969 Y132.471 E6.7267
G1 X102.161 Y132.425 E6.7778
G1 X101.720 Y132.357 E6.8060
G1 X101.096 Y132.197 E6.8468
G1 X100.869 Y132.126 E6.8618
G1 X100.328 Y131.925 E6.8982
G1 X100.225 Y131.898 E6.9050
G1 X100.113 Y131.881 E6.9121
G1 X100.007 Y131.876 E6.9188
G1 X99.741 Y131.917 E6.9358
G1 X98.710 Y132.257 E7.0045
G1 X98.297 Y132.352 E7.0312
G1 X97.517 Y132.456 E7.0809
G1 X97.094 Y132.474 E7.1077
G1 X96.408 Y132.438 E7.1511
G1 X96.064 Y132.394 E7.1730
G1 X95.538 Y132.286 E7.2070
G1 X95.301 Y132.224 E7.2224
G1 X94.195 Y131.869 E7.2958
G1 X94.072 Y131.826 E7.3041
G1 X93.401 Y131.568 E7.3495
G1 X93.283 Y131.519 E7.3576
G1 X92.445 Y131.141 E7.4157
G1 X92.312 Y131.076 E7.4250
G1 X91.339 Y130.560 E7.4946
G1 X91.028 Y130.361 E7.5180
G1 X90.408 Y129.890 E7.5672
G1 X90.070 Y129.575 E7.5964
G1 X89.539 Y128.969 E7.6473
G1 X89.291 Y128.626 E7.6740
G1 X88.969 Y128.081 E7.7140
G1 X88.858 Y127.870 E7.7291
G1 X88.618 Y127.346 E7.7655
G1 X88.564 Y127.254 E7.7723
G1 X88.497 Y127.163 E7.7794
G1 X88.472 Y127.136 E7.7817
G1 X88.242 Y126.942 E7.8007
G1 X87.247 Y126.441 E7.8711
G1 X86.904 Y126.228 E7.8966
G1 X86.311 Y125.783 E7.9435
G1 X85.999 Y125.502 E7.9700
G1 X85.505 Y124.964 E8.0162
G1 X85.277 Y124.672 E8.0396
G1 X84.975 Y124.214 E8.0743
G1 X84.852 Y124.003 E8.0897
G1 X84.321 Y122.970 E8.1631
G1 X84.264 Y122.853 E8.1713
G1 X83.972 Y122.196 E8.2168
G1 X83.924 Y122.077 E8.2249
G1 X83.598 Y121.217 E8.2830
G1 X83.550 Y121.078 E8.2923
G1 X83.227 Y120.025 E8.3619
G1 X83.147 Y119.664 E8.3853
G1 X83.042 Y118.892 E8.4345
G1 X83.026 Y118.431 E8.4637
G1 X83.079 Y117.627 E8.5146
G1 X83.146 Y117.209 E8.5413
G1 X83.303 Y116.596 E8.5813
G1 X83.374 Y116.369 E8.5963
G1 X83.575 Y115.828 E8.6328
G1 X83.602 Y115.725 E8.6395
G1 X83.619 Y115.613 E8.6467
G1 X83.624 Y115.500 E8.6538
G1 X83.619 Y115.387 E8.6610
G1 X83.602 Y115.275 E8.6681
G1 X83.575 Y115.172 E8.6749
G1 X83.374 Y114.631 E8.7113
G1 X83.303 Y114.404 E8.7263
G1 X83.151 Y113.810 E8.7651
G1 X83.087 Y113.430 E8.7894
G1 X83.030 Y112.745 E8.8329
G1 X83.030 Y112.360 E8.8572
G1 X83.090 Y111.663 E8.9014
G1 X83.162 Y111.258 E8.9274
G1 X83.385 Y110.434 E8.9814
G1 X83.430 Y110.289 E8.9910
G1 X83.732 Y109.411 E9.0496
G1 X83.781 Y109.281 E9.0584
G1 X84.134 Y108.429 E9.1167
G1 X84.191 Y108.302 E9.1255
G1 X84.590 Y107.485 E9.1829
G1 X84.643 Y107.383 E9.1902
G1 X84.960 Y106.809 E9.2316
G1 X85.118 Y106.561 E9.2502
G1 X85.509 Y106.027 E9.2920
G1 X85.790 Y105.711 E9.3188
G1 X86.364 Y105.173 E9.3685
G1 X86.698 Y104.913 E9.3952
G1 X87.261 Y104.554 E9.4375
G1 X87.532 Y104.406 E9.4569
G1 X88.148 Y104.121 E9.4999
G1 X88.246 Y104.064 E9.5070
G1 X88.337 Y103.996 E9.5142
G1 X88.415 Y103.926 E9.5208
G1 X88.575 Y103.708 E9.5379
G1 X89.055 Y102.756 E9.6053
G1 X89.256 Y102.428 E9.6296
G1 X89.676 Y101.859 E9.6743
G1 X89.957 Y101.543 E9.7010
G1 X90.518 Y101.019 E9.7495
G1 X90.698 Y100.878 E9.7640
G1 X90.482 Y100.821 E9.7781
G1 X90.275 Y100.756 E9.7918
G1 X89.623 Y100.517 E9.8357
G1 X89.450 Y100.446 E9.8475
G1 X88.813 Y100.151 E9.8919
G1 X88.619 Y100.050 E9.9057
G1 X87.910 Y99.635 E9.9576
G1 X87.715 Y99.507 E9.9724
G1 X87.046 Y99.018 E10.0247
G1 X86.865 Y98.870 E10.0395
G1 X86.250 Y98.315 E10.0918
G1 X86.085 Y98.150 E10.1066
G1 X85.543 Y97.550 E10.1577
G1 X85.418 Y97.399 E10.1701
G1 X85.061 Y96.928 E10.2074
G1 X84.950 Y96.768 E10.2197
G1 X84.502 Y96.059 E10.2727
G1 X84.361 Y95.801 E10.2913
G1 X83.870 Y94.742 E10.3651
G1 X83.772 Y94.493 E10.3820
G1 X83.540 Y93.789 E10.4288
G1 X83.481 Y93.578 E10.4427
G1 X83.305 Y92.796 E10.4933
G1 X83.270 Y92.604 E10.5056
G1 X83.190 Y92.019 E10.5430
G1 X83.171 Y91.825 E10.5553
G1 X83.133 Y91.076 E10.6027
G1 X83.130 Y90.959 E10.6101
G1 X83.130 Y77.841 E11.4390
G1 X83.133 Y77.724 E11.4464
G1 X83.172 Y76.956 E11.4951
G1 X83.196 Y76.723 E11.5099
G1 X83.323 Y75.905 E11.5622
G1 X83.371 Y75.676 E11.5770
G1 X83.581 Y74.874 E11.6293
G1 X83.651 Y74.651 E11.6441
G1 X83.942 Y73.876 E11.6964
G1 X84.035 Y73.661 E11.7112
G1 X84.404 Y72.920 E11.7636
G1 X84.518 Y72.715 E11.7784
G1 X84.961 Y72.015 E11.8307
G1 X85.096 Y71.824 E11.8455
G1 X85.607 Y71.173 E11.8978
G1 X85.761 Y70.997 E11.9126
G92 E0.0000
G1 E-1.0000 F1800
G1 X86.041 Y71.254 F2700
G1 E0.0000 F1800
G92 E0.0000
G1 X86.603 Y70.672 E0.0511 F540
G1 X86.760 Y70.526 E0.0647
G1 X87.364 Y70.016 E0.1146
G1 X87.506 Y69.907 E0.1259
G1 X87.961 Y69.586 E0.1611
G1 X88.081 Y69.507 E0.1702
G1 X88.557 Y69.218 E0.2054
G1 X88.713 Y69.132 E0.2167
G1 X89.446 Y68.768 E0.2684
G1 X89.695 Y68.663 E0.2854
G1 X90.777 Y68.290 E0.3577
G1 X91.012 Y68.224 E0.3732
G1 X91.700 Y68.074 E0.4177
G1 X91.862 Y68.045 E0.4281
G1 X92.425 Y67.967 E0.4640
G1 X92.603 Y67.951 E0.4753
G1 X93.339 Y67.913 E0.5219
G1 X93.446 Y67.910 E0.5287
G1 X106.555 Y67.910 E1.3570
G1 X106.665 Y67.913 E1.3640
G1 X107.435 Y67.953 E1.4127
G1 X107.653 Y67.976 E1.4266
G1 X108.470 Y68.106 E1.4788
G1 X108.684 Y68.151 E1.4927
G1 X109.483 Y68.365 E1.5449
G1 X109.691 Y68.433 E1.5588
G1 X110.463 Y68.729 E1.6110
G1 X110.663 Y68.818 E1.6249
G1 X111.393 Y69.190 E1.6767
G1 X111.570 Y69.292 E1.6896
G1 X112.154 Y69.664 E1.7333
G1 X112.298 Y69.765 E1.7444
G1 X112.854 Y70.190 E1.7886
G1 X113.011 Y70.323 E1.8016
G1 X113.597 Y70.869 E1.8522
G1 X113.725 Y70.999 E1.8638
G1 X114.118 Y71.436 E1.9009
G1 X114.234 Y71.577 E1.9125
G1 X114.710 Y72.208 E1.9624
G1 X114.813 Y72.359 E1.9740
G1 X115.121 Y72.851 E2.0106
G1 X115.204 Y72.996 E2.0212
G1 X115.514 Y73.595 E2.0638
G1 X115.588 Y73.754 E2.0749
G1 X115.850 Y74.383 E2.1180
G1 X115.909 Y74.541 E2.1286
G1 X116.088 Y75.093 E2.1653
G1 X116.137 Y75.270 E2.1769
G1 X116.315 Y76.039 E2.2268
G1 X116.348 Y76.219 E2.2384
G1 X116.430 Y76.801 E2.2755
G1 X116.448 Y76.983 E2.2871
G1 X116.487 Y77.735 E2.3347
G1 X116.490 Y77.845 E2.3416
G1 X116.490 Y90.955 E3.1701
G1 X116.487 Y91.065 E3.1770
G1 X116.447 Y91.828 E3.2253
