; G-Code generated by Simplify3D(R) Version 4.1.2
; Jan 11, 2021 at 4:08:35 PM
; Settings Summary
;   processName,Process1
;   applyToModels,Thread_Test_1_x1_Rev1
;   profileName,Monoprice Maker Select (modified)
;   profileVersion,2016-06-08 08:00:00
;   baseProfile,
;   printMaterial,ABS
;   printQuality,High
;   printExtruders,
;   extruderName,Primary Extruder
;   extruderToolheadNumber,0
;   extruderDiameter,0.4
;   extruderAutoWidth,0
;   extruderWidth,0.4
;   extrusionMultiplier,1.02
;   extruderUseRetract,1
;   extruderRetractionDistance,1
;   extruderExtraRestartDistance,0
;   extruderRetractionZLift,0
;   extruderRetractionSpeed,1800
;   extruderUseCoasting,0
;   extruderCoastingDistance,0.2
;   extruderUseWipe,0
;   extruderWipeDistance,5
;   primaryExtruder,0
;   layerHeight,0.2
;   topSolidLayers,5
;   bottomSolidLayers,5
;   perimeterOutlines,4
;   printPerimetersInsideOut,1
;   startPointOption,2
;   startPointOriginX,0
;   startPointOriginY,0
;   sequentialIslands,0
;   spiralVaseMode,0
;   firstLayerHeightPercentage,200
;   firstLayerWidthPercentage,150
;   firstLayerUnderspeed,0.2
;   useRaft,0
;   raftExtruder,0
;   raftTopLayers,3
;   raftBaseLayers,2
;   raftOffset,3
;   raftSeparationDistance,0.14
;   raftTopInfill,100
;   aboveRaftSpeedMultiplier,0.3
;   useSkirt,1
;   skirtExtruder,0
;   skirtLayers,2
;   skirtOutlines,3
;   skirtOffset,1.2
;   usePrimePillar,0
;   primePillarExtruder,999
;   primePillarWidth,12
;   primePillarLocation,7
;   primePillarSpeedMultiplier,1
;   useOozeShield,0
;   oozeShieldExtruder,999
;   oozeShieldOffset,2
;   oozeShieldOutlines,1
;   oozeShieldSidewallShape,1
;   oozeShieldSidewallAngle,20
;   oozeShieldSpeedMultiplier,1
;   infillExtruder,0
;   internalInfillPattern,Rectilinear
;   externalInfillPattern,Rectilinear
;   infillPercentage,40
;   outlineOverlapPercentage,25
;   infillExtrusionWidthPercentage,150
;   minInfillLength,5
;   infillLayerInterval,1
;   internalInfillAngles,45,-45
;   overlapInternalInfillAngles,0
;   externalInfillAngles,45,-45
;   generateSupport,0
;   supportExtruder,0
;   supportInfillPercentage,40
;   supportExtraInflation,0
;   supportBaseLayers,0
;   denseSupportExtruder,0
;   denseSupportLayers,0
;   denseSupportInfillPercentage,70
;   supportLayerInterval,1
;   supportHorizontalPartOffset,0.3
;   supportUpperSeparationLayers,1
;   supportLowerSeparationLayers,1
;   supportType,0
;   supportGridSpacing,4
;   maxOverhangAngle,45
;   supportAngles,0
;   temperatureName,Primary Extruder,Heated Bed
;   temperatureNumber,0,0
;   temperatureSetpointCount,1,1
;   temperatureSetpointLayers,1,1
;   temperatureSetpointTemperatures,240,109
;   temperatureStabilizeAtStartup,1,1
;   temperatureHeatedBed,0,1
;   fanLayers,1
;   fanSpeeds,0
;   blipFanToFullPower,0
;   adjustSpeedForCooling,1
;   minSpeedLayerTime,15
;   minCoolingSpeedSlowdown,20
;   increaseFanForCooling,0
;   minFanLayerTime,45
;   maxCoolingFanSpeed,100
;   increaseFanForBridging,0
;   bridgingFanSpeed,100
;   use5D,1
;   relativeEdistances,0
;   allowEaxisZeroing,1
;   independentExtruderAxes,0
;   includeM10123,0
;   stickySupport,1
;   applyToolheadOffsets,0
;   gcodeXoffset,0
;   gcodeYoffset,0
;   gcodeZoffset,0
;   overrideMachineDefinition,1
;   machineTypeOverride,0
;   strokeXoverride,190
;   strokeYoverride,195
;   strokeZoverride,180
;   originOffsetXoverride,0
;   originOffsetYoverride,0
;   originOffsetZoverride,0
;   homeXdirOverride,-1
;   homeYdirOverride,-1
;   homeZdirOverride,-1
;   flipXoverride,1
;   flipYoverride,-1
;   flipZoverride,1
;   toolheadOffsets,0,0|0,0|0,0|0,0|0,0|0,0
;   overrideFirmwareConfiguration,1
;   firmwareTypeOverride,RepRap (Marlin/Repetier/Sprinter)
;   GPXconfigOverride,r2
;   baudRateOverride,115200
;   overridePrinterModels,1
;   printerModelsOverride
;   startingGcode,G28 ; home all axes
;   layerChangeGcode,
;   retractionGcode,
;   toolChangeGcode,
;   endingGcode,G28 X0 ; home X-axis,M104 S0 ; turn off extruder,M140 S0 ; turn off bed,M84 ; disable motors
;   exportFileFormat,gcode
;   celebration,0
;   celebrationSong,Random Song
;   postProcessing,
;   defaultSpeed,3600
;   outlineUnderspeed,0.5
;   solidInfillUnderspeed,0.8
;   supportUnderspeed,0.8
;   rapidXYspeed,4800
;   rapidZspeed,1002
;   minBridgingArea,50
;   bridgingExtraInflation,0
;   bridgingExtrusionMultiplier,1
;   bridgingSpeedMultiplier,1
;   useFixedBridgingAngle,0
;   fixedBridgingAngle,0
;   applyBridgingToPerimeters,0
;   filamentDiameters,1.75|1.75|1.75|1.75|1.75|1.75
;   filamentPricesPerKg,46|46|46|46|46|46
;   filamentDensities,1.25|1.25|1.25|1.25|1.25|1.25
;   useMinPrintHeight,0
;   minPrintHeight,0
;   useMaxPrintHeight,0
;   maxPrintHeight,0
;   useDiaphragm,0
;   diaphragmLayerInterval,20
;   robustSlicing,1
;   mergeAllIntoSolid,0
;   onlyRetractWhenCrossingOutline,1
;   retractBetweenLayers,1
;   useRetractionMinTravel,0
;   retractionMinTravel,3
;   retractWhileWiping,0
;   onlyWipeOutlines,1
;   avoidCrossingOutline,0
;   maxMovementDetourFactor,3
;   toolChangeRetractionDistance,12
;   toolChangeExtraRestartDistance,-0.5
;   toolChangeRetractionSpeed,600
;   externalThinWallType,0
;   internalThinWallType,2
;   thinWallAllowedOverlapPercentage,10
;   singleExtrusionMinLength,1
;   singleExtrusionMinPrintingWidthPercentage,50
;   singleExtrusionMaxPrintingWidthPercentage,200
;   singleExtrusionEndpointExtension,0.2
;   horizontalSizeCompensation,0
G90
M82
M106 S0
M140 S109
M190 S109
M104 S240 T0
M109 S240 T0
G28 ; home all axes
; process Process1
; layer 1, Z = 0.400
T0
G92 E0.0000
G1 E-1.0000 F1800
; feature skirt
; tool H0.400 W0.600
G1 Z0.400 F1002
G1 X81.897 Y69.734 F4800
G1 E0.0000 F1800
G92 E0.0000
G1 X81.988 Y69.630 E0.0141 F720
G1 X82.511 Y69.089 E0.0907
G1 X82.612 Y68.995 E0.1048
G1 X83.179 Y68.517 E0.1802
G1 X83.270 Y68.447 E0.1919
G1 X83.699 Y68.144 E0.2454
G1 X83.796 Y68.081 E0.2571
G1 X84.446 Y67.701 E0.3337
G1 X84.590 Y67.628 E0.3501
G1 X85.478 Y67.242 E0.4487
G1 X85.608 Y67.194 E0.4628
G1 X86.119 Y67.032 E0.5174
G1 X86.231 Y67.001 E0.5291
G1 X86.942 Y66.841 E0.6034
G1 X87.056 Y66.820 E0.6151
G1 X87.576 Y66.749 E0.6686
G1 X87.691 Y66.738 E0.6803
G1 X88.396 Y66.702 E0.7522
G1 X88.465 Y66.700 E0.7592
G1 X101.535 Y66.700 E2.0895
G1 X101.606 Y66.702 E2.0967
G1 X102.339 Y66.740 E2.1713
G1 X102.480 Y66.755 E2.1857
G1 X103.240 Y66.875 E2.2641
G1 X103.378 Y66.905 E2.2785
G1 X104.121 Y67.104 E2.3568
G1 X104.256 Y67.148 E2.3712
G1 X104.974 Y67.423 E2.4495
G1 X105.103 Y67.481 E2.4639
G1 X105.778 Y67.825 E2.5410
G1 X105.881 Y67.883 E2.5530
G1 X106.336 Y68.167 E2.6076
G1 X106.433 Y68.234 E2.6196
G1 X107.038 Y68.690 E2.6967
G1 X107.146 Y68.781 E2.7111
G1 X107.701 Y69.298 E2.7882
G1 X107.783 Y69.382 E2.8002
G1 X108.142 Y69.780 E2.8548
G1 X108.217 Y69.871 E2.8668
G1 X108.680 Y70.486 E2.9451
G1 X108.771 Y70.623 E2.9619
G1 X109.266 Y71.481 E3.0627
G1 X109.331 Y71.607 E3.0770
G1 X109.554 Y72.108 E3.1329
G1 X109.597 Y72.218 E3.1449
G1 X109.844 Y72.934 E3.2220
G1 X109.882 Y73.070 E3.2364
G1 X110.053 Y73.808 E3.3135
G1 X110.074 Y73.924 E3.3255
G1 X110.149 Y74.455 E3.3801
G1 X110.160 Y74.573 E3.3921
G1 X110.198 Y75.294 E3.4656
G1 X110.200 Y75.365 E3.4728
G1 X110.200 Y88.435 E4.8031
G1 X110.198 Y88.506 E4.8103
G1 X110.160 Y89.227 E4.8838
G1 X110.149 Y89.345 E4.8958
G1 X110.074 Y89.876 E4.9504
G1 X110.053 Y89.992 E4.9624
G1 X109.882 Y90.730 E5.0395
G1 X109.844 Y90.866 E5.0539
G1 X109.593 Y91.594 E5.1322
G1 X109.540 Y91.725 E5.1466
G1 X109.215 Y92.422 E5.2249
G1 X109.148 Y92.547 E5.2393
G1 X108.752 Y93.206 E5.3176
G1 X108.673 Y93.324 E5.3320
G1 X108.210 Y93.938 E5.4103
G1 X108.119 Y94.046 E5.4247
G1 X107.602 Y94.600 E5.5018
G1 X107.518 Y94.683 E5.5138
G1 X107.120 Y95.042 E5.5684
G1 X107.029 Y95.117 E5.5804
G1 X106.424 Y95.573 E5.6575
G1 X106.306 Y95.652 E5.6719
G1 X105.657 Y96.042 E5.7490
G1 X105.553 Y96.099 E5.7610
G1 X105.071 Y96.334 E5.8156
G1 X104.963 Y96.381 E5.8276
G1 X104.267 Y96.648 E5.9035
G1 X104.155 Y96.685 E5.9155
G1 X103.628 Y96.837 E5.9713
G1 X103.490 Y96.868 E5.9857
G1 X102.515 Y97.040 E6.0865
G1 X102.351 Y97.059 E6.1033
G1 X101.606 Y97.098 E6.1792
G1 X101.535 Y97.100 E6.1864
G1 X88.466 Y97.100 E7.5166
G1 X88.396 Y97.098 E7.5236
G1 X87.679 Y97.061 E7.5967
G1 X87.542 Y97.047 E7.6108
G1 X86.798 Y96.932 E7.6874
G1 X86.662 Y96.904 E7.7015
G1 X85.934 Y96.713 E7.7781
G1 X85.802 Y96.671 E7.7922
G1 X85.097 Y96.407 E7.8688
G1 X84.970 Y96.352 E7.8829
G1 X84.296 Y96.017 E7.9595
G1 X84.176 Y95.950 E7.9735
G1 X83.539 Y95.548 E8.0502
G1 X83.426 Y95.468 E8.0642
G1 X82.825 Y94.996 E8.1420
G1 X82.705 Y94.889 E8.1584
G1 X82.011 Y94.195 E8.2582
G1 X81.904 Y94.075 E8.2746
G1 X81.432 Y93.474 E8.3524
G1 X81.353 Y93.361 E8.3665
G1 X80.944 Y92.714 E8.4443
G1 X80.866 Y92.573 E8.4607
G1 X80.445 Y91.688 E8.5605
G1 X80.385 Y91.538 E8.5769
G1 X80.141 Y90.814 E8.6547
G1 X80.104 Y90.681 E8.6688
G1 X79.941 Y89.958 E8.7442
G1 X79.920 Y89.844 E8.7559
G1 X79.849 Y89.324 E8.8094
G1 X79.838 Y89.209 E8.8211
G1 X79.802 Y88.504 E8.8930
G1 X79.800 Y88.435 E8.9001
G1 X79.800 Y75.365 E10.2302
G1 X79.802 Y75.296 E10.2372
G1 X79.839 Y74.579 E10.3103
G1 X79.853 Y74.441 E10.3244
G1 X79.968 Y73.698 E10.4010
G1 X79.996 Y73.562 E10.4151
G1 X80.187 Y72.834 E10.4917
G1 X80.229 Y72.702 E10.5058
G1 X80.493 Y71.997 E10.5824
G1 X80.548 Y71.871 E10.5964
G1 X80.883 Y71.196 E10.6731
G1 X80.950 Y71.076 E10.6871
G1 X81.353 Y70.439 E10.7638
G1 X81.432 Y70.326 E10.7778
G1 X81.897 Y69.734 E10.8544
G92 E0.0000
G1 E-1.0000 F1800
G1 X82.360 Y70.117 F4800
G1 E0.0000 F1800
G92 E0.0000
G1 X82.430 Y70.036 E0.0109 F720
G1 X82.932 Y69.517 E0.0844
G1 X83.011 Y69.444 E0.0954
G1 X83.556 Y68.984 E0.1679
G1 X83.627 Y68.929 E0.1771
G1 X84.035 Y68.641 E0.2279
G1 X84.110 Y68.593 E0.2370
G1 X84.733 Y68.228 E0.3105
G1 X84.845 Y68.172 E0.3233
G1 X85.703 Y67.799 E0.4185
G1 X85.804 Y67.761 E0.4294
G1 X86.289 Y67.607 E0.4812
G1 X86.375 Y67.584 E0.4903
G1 X87.062 Y67.429 E0.5619
G1 X87.150 Y67.413 E0.5711
G1 X87.645 Y67.345 E0.6219
G1 X87.734 Y67.336 E0.6310
G1 X88.419 Y67.301 E0.7009
G1 X88.473 Y67.300 E0.7063
G1 X101.528 Y67.300 E2.0349
G1 X101.582 Y67.301 E2.0405
G1 X102.292 Y67.339 E2.1128
G1 X102.401 Y67.350 E2.1240
G1 X103.130 Y67.466 E2.1992
G1 X103.238 Y67.488 E2.2103
G1 X103.951 Y67.679 E2.2855
G1 X104.055 Y67.713 E2.2967
G1 X104.744 Y67.978 E2.3718
G1 X104.845 Y68.023 E2.3830
G1 X105.494 Y68.354 E2.4571
G1 X105.574 Y68.399 E2.4665
G1 X106.007 Y68.669 E2.5184
G1 X106.082 Y68.721 E2.5277
G1 X106.664 Y69.160 E2.6019
G1 X106.749 Y69.230 E2.6131
G1 X107.282 Y69.727 E2.6873
G1 X107.346 Y69.793 E2.6966
G1 X107.688 Y70.172 E2.7486
G1 X107.746 Y70.243 E2.7579
G1 X108.190 Y70.832 E2.8330
G1 X108.261 Y70.939 E2.8461
G1 X108.739 Y71.767 E2.9434
G1 X108.789 Y71.865 E2.9546
G1 X109.000 Y72.340 E3.0075
G1 X109.034 Y72.425 E3.0168
G1 X109.271 Y73.114 E3.0910
G1 X109.301 Y73.220 E3.1022
G1 X109.465 Y73.930 E3.1763
G1 X109.482 Y74.020 E3.1857
G1 X109.553 Y74.526 E3.2376
G1 X109.562 Y74.617 E3.2470
G1 X109.599 Y75.318 E3.3183
G1 X109.600 Y75.372 E3.3239
G1 X109.600 Y88.427 E4.6526
G1 X109.599 Y88.482 E4.6582
G1 X109.562 Y89.183 E4.7296
G1 X109.553 Y89.274 E4.7389
G1 X109.482 Y89.780 E4.7909
G1 X109.465 Y89.870 E4.8002
G1 X109.301 Y90.580 E4.8744
G1 X109.271 Y90.685 E4.8856
G1 X109.031 Y91.383 E4.9607
G1 X108.990 Y91.485 E4.9719
G1 X108.678 Y92.154 E5.0470
G1 X108.626 Y92.251 E5.0582
G1 X108.246 Y92.884 E5.1333
G1 X108.184 Y92.975 E5.1445
G1 X107.740 Y93.564 E5.2196
G1 X107.670 Y93.649 E5.2308
G1 X107.173 Y94.182 E5.3050
G1 X107.107 Y94.246 E5.3143
G1 X106.728 Y94.588 E5.3662
G1 X106.657 Y94.646 E5.3756
G1 X106.075 Y95.084 E5.4497
G1 X105.984 Y95.146 E5.4609
G1 X105.359 Y95.521 E5.5351
G1 X105.279 Y95.565 E5.5444
G1 X104.820 Y95.789 E5.5964
G1 X104.736 Y95.825 E5.6057
G1 X104.064 Y96.083 E5.6790
G1 X103.977 Y96.112 E5.6883
G1 X103.478 Y96.256 E5.7412
G1 X103.370 Y96.280 E5.7524
G1 X102.429 Y96.446 E5.8497
G1 X102.301 Y96.461 E5.8628
G1 X101.582 Y96.499 E5.9360
G1 X101.528 Y96.500 E5.9416
G1 X88.473 Y96.500 E7.2702
G1 X88.419 Y96.499 E7.2757
G1 X87.725 Y96.463 E7.3464
G1 X87.618 Y96.452 E7.3574
G1 X86.905 Y96.342 E7.4309
G1 X86.799 Y96.320 E7.4418
G1 X86.101 Y96.137 E7.5153
G1 X85.998 Y96.104 E7.5262
G1 X85.322 Y95.851 E7.5997
G1 X85.224 Y95.808 E7.6107
G1 X84.577 Y95.487 E7.6842
G1 X84.483 Y95.434 E7.6951
G1 X83.873 Y95.048 E7.7686
G1 X83.785 Y94.986 E7.7795
G1 X83.210 Y94.535 E7.8539
G1 X83.116 Y94.452 E7.8667
G1 X82.448 Y93.784 E7.9628
G1 X82.365 Y93.690 E7.9756
G1 X81.914 Y93.115 E8.0500
G1 X81.852 Y93.027 E8.0609
G1 X81.461 Y92.409 E8.1353
G1 X81.401 Y92.299 E8.1481
G1 X80.995 Y91.446 E8.2442
G1 X80.948 Y91.330 E8.2570
G1 X80.715 Y90.637 E8.3314
G1 X80.686 Y90.534 E8.3424
G1 X80.529 Y89.838 E8.4149
G1 X80.513 Y89.750 E8.4241
G1 X80.445 Y89.255 E8.4749
G1 X80.436 Y89.166 E8.4840
G1 X80.401 Y88.481 E8.5538
G1 X80.400 Y88.427 E8.5593
G1 X80.400 Y75.373 E9.8879
G1 X80.401 Y75.319 E9.8933
G1 X80.437 Y74.625 E9.9641
G1 X80.448 Y74.518 E9.9750
G1 X80.558 Y73.805 E10.0485
G1 X80.580 Y73.699 E10.0595
G1 X80.763 Y73.001 E10.1329
G1 X80.796 Y72.898 E10.1439
G1 X81.049 Y72.222 E10.2174
G1 X81.092 Y72.124 E10.2283
G1 X81.413 Y71.477 E10.3018
G1 X81.466 Y71.383 E10.3128
G1 X81.852 Y70.773 E10.3862
G1 X81.914 Y70.685 E10.3972
G1 X82.360 Y70.117 E10.4707
G92 E0.0000
G1 E-1.0000 F1800
G1 X82.822 Y70.500 F4800
G1 E0.0000 F1800
G92 E0.0000
G1 X82.872 Y70.442 E0.0078 F720
G1 X83.353 Y69.945 E0.0782
G1 X83.409 Y69.892 E0.0860
G1 X83.933 Y69.451 E0.1557
G1 X83.983 Y69.412 E0.1622
G1 X84.370 Y69.139 E0.2104
G1 X84.424 Y69.104 E0.2169
G1 X85.021 Y68.755 E0.2873
G1 X85.101 Y68.715 E0.2964
G1 X85.928 Y68.355 E0.3882
G1 X86.000 Y68.328 E0.3961
G1 X86.458 Y68.183 E0.4449
G1 X86.520 Y68.166 E0.4514
G1 X87.182 Y68.017 E0.5205
G1 X87.245 Y68.006 E0.5270
G1 X87.714 Y67.941 E0.5752
G1 X87.778 Y67.935 E0.5817
G1 X88.442 Y67.901 E0.6495
G1 X88.481 Y67.900 E0.6534
G1 X101.520 Y67.900 E1.9804
G1 X101.559 Y67.901 E1.9844
G1 X102.245 Y67.937 E2.0543
G1 X102.323 Y67.945 E2.0623
G1 X103.021 Y68.056 E2.1343
G1 X103.098 Y68.072 E2.1423
G1 X103.780 Y68.255 E2.2142
G1 X103.855 Y68.279 E2.2222
G1 X104.515 Y68.532 E2.2941
G1 X104.586 Y68.564 E2.3021
G1 X105.210 Y68.882 E2.3733
G1 X105.267 Y68.914 E2.3800
G1 X105.678 Y69.171 E2.4293
G1 X105.732 Y69.208 E2.4359
G1 X106.291 Y69.629 E2.5072
G1 X106.351 Y69.680 E2.5152
G1 X106.863 Y70.157 E2.5864
G1 X106.909 Y70.204 E2.5931
G1 X107.233 Y70.564 E2.6424
G1 X107.275 Y70.614 E2.6490
G1 X107.700 Y71.179 E2.7209
G1 X107.750 Y71.255 E2.7303
G1 X108.211 Y72.054 E2.8241
G1 X108.247 Y72.124 E2.8321
G1 X108.447 Y72.572 E2.8821
G1 X108.471 Y72.633 E2.8887
G1 X108.699 Y73.295 E2.9600
G1 X108.720 Y73.370 E2.9680
G1 X108.878 Y74.053 E3.0392
G1 X108.890 Y74.117 E3.0459
G1 X108.957 Y74.596 E3.0952
G1 X108.963 Y74.662 E3.1018
G1 X108.999 Y75.341 E3.1711
G1 X109.000 Y75.380 E3.1751
G1 X109.000 Y88.420 E4.5022
G1 X108.999 Y88.459 E4.5062
G1 X108.963 Y89.138 E4.5754
G1 X108.957 Y89.204 E4.5821
G1 X108.890 Y89.683 E4.6314
G1 X108.878 Y89.747 E4.6380
G1 X108.720 Y90.430 E4.7093
G1 X108.699 Y90.505 E4.7173
G1 X108.469 Y91.173 E4.7892
G1 X108.439 Y91.246 E4.7972
G1 X108.141 Y91.886 E4.8691
G1 X108.104 Y91.956 E4.8771
G1 X107.740 Y92.561 E4.9490
G1 X107.696 Y92.626 E4.9570
G1 X107.271 Y93.191 E5.0289
G1 X107.220 Y93.251 E5.0369
G1 X106.743 Y93.763 E5.1082
G1 X106.696 Y93.809 E5.1148
G1 X106.336 Y94.133 E5.1641
G1 X106.286 Y94.175 E5.1708
G1 X105.727 Y94.596 E5.2420
G1 X105.661 Y94.640 E5.2500
G1 X105.061 Y95.000 E5.3213
G1 X105.004 Y95.031 E5.3279
G1 X104.569 Y95.244 E5.3772
G1 X104.509 Y95.270 E5.3839
G1 X103.861 Y95.518 E5.4544
G1 X103.799 Y95.539 E5.4611
G1 X103.327 Y95.674 E5.5111
G1 X103.251 Y95.692 E5.5191
G1 X102.342 Y95.852 E5.6129
G1 X102.251 Y95.863 E5.6222
G1 X101.559 Y95.899 E5.6928
G1 X101.520 Y95.900 E5.6968
G1 X88.481 Y95.900 E7.0239
G1 X88.442 Y95.899 E7.0278
G1 X87.771 Y95.865 E7.0962
G1 X87.695 Y95.857 E7.1040
G1 X87.012 Y95.751 E7.1743
G1 X86.936 Y95.735 E7.1822
G1 X86.268 Y95.560 E7.2525
G1 X86.195 Y95.537 E7.2603
G1 X85.547 Y95.294 E7.3307
G1 X85.477 Y95.264 E7.3385
G1 X84.858 Y94.956 E7.4089
