; G-Code generated by Simplify3D(R) Version 4.1.2
; Jan 11, 2021 at 8:57:10 PM
; Settings Summary
;   processName,Process1
;   applyToModels,z_drive_retainer_a_x2
;   profileName,Monoprice Maker Select (modified)
;   profileVersion,2016-06-08 08:00:00
;   baseProfile,
;   printMaterial,ABS
;   printQuality,High
;   printExtruders,
;   extruderName,Primary Extruder
;   extruderToolheadNumber,0
;   extruderDiameter,0.4
;   extruderAutoWidth,0
;   extruderWidth,0.4
;   extrusionMultiplier,1.02
;   extruderUseRetract,1
;   extruderRetractionDistance,1
;   extruderExtraRestartDistance,0
;   extruderRetractionZLift,0
;   extruderRetractionSpeed,1800
;   extruderUseCoasting,0
;   extruderCoastingDistance,0.2
;   extruderUseWipe,0
;   extruderWipeDistance,5
;   primaryExtruder,0
;   layerHeight,0.2
;   topSolidLayers,5
;   bottomSolidLayers,5
;   perimeterOutlines,4
;   printPerimetersInsideOut,1
;   startPointOption,2
;   startPointOriginX,0
;   startPointOriginY,0
;   sequentialIslands,0
;   spiralVaseMode,0
;   firstLayerHeightPercentage,200
;   firstLayerWidthPercentage,150
;   firstLayerUnderspeed,0.2
;   useRaft,0
;   raftExtruder,0
;   raftTopLayers,3
;   raftBaseLayers,2
;   raftOffset,3
;   raftSeparationDistance,0.14
;   raftTopInfill,100
;   aboveRaftSpeedMultiplier,0.3
;   useSkirt,1
;   skirtExtruder,0
;   skirtLayers,1
;   skirtOutlines,2
;   skirtOffset,1
;   usePrimePillar,0
;   primePillarExtruder,999
;   primePillarWidth,12
;   primePillarLocation,7
;   primePillarSpeedMultiplier,1
;   useOozeShield,0
;   oozeShieldExtruder,999
;   oozeShieldOffset,2
;   oozeShieldOutlines,1
;   oozeShieldSidewallShape,1
;   oozeShieldSidewallAngle,20
;   oozeShieldSpeedMultiplier,1
;   infillExtruder,0
;   internalInfillPattern,Rectilinear
;   externalInfillPattern,Rectilinear
;   infillPercentage,40
;   outlineOverlapPercentage,25
;   infillExtrusionWidthPercentage,150
;   minInfillLength,5
;   infillLayerInterval,1
;   internalInfillAngles,45,-45
;   overlapInternalInfillAngles,0
;   externalInfillAngles,45,-45
;   generateSupport,0
;   supportExtruder,0
;   supportInfillPercentage,40
;   supportExtraInflation,0
;   supportBaseLayers,0
;   denseSupportExtruder,0
;   denseSupportLayers,0
;   denseSupportInfillPercentage,70
;   supportLayerInterval,1
;   supportHorizontalPartOffset,0.3
;   supportUpperSeparationLayers,1
;   supportLowerSeparationLayers,1
;   supportType,0
;   supportGridSpacing,4
;   maxOverhangAngle,45
;   supportAngles,0
;   temperatureName,Primary Extruder,Heated Bed
;   temperatureNumber,0,0
;   temperatureSetpointCount,1,1
;   temperatureSetpointLayers,1,1
;   temperatureSetpointTemperatures,240,109
;   temperatureStabilizeAtStartup,1,1
;   temperatureHeatedBed,0,1
;   fanLayers,1
;   fanSpeeds,0
;   blipFanToFullPower,0
;   adjustSpeedForCooling,1
;   minSpeedLayerTime,15
;   minCoolingSpeedSlowdown,20
;   increaseFanForCooling,0
;   minFanLayerTime,45
;   maxCoolingFanSpeed,100
;   increaseFanForBridging,0
;   bridgingFanSpeed,100
;   use5D,1
;   relativeEdistances,0
;   allowEaxisZeroing,1
;   independentExtruderAxes,0
;   includeM10123,0
;   stickySupport,1
;   applyToolheadOffsets,0
;   gcodeXoffset,0
;   gcodeYoffset,0
;   gcodeZoffset,0
;   overrideMachineDefinition,1
;   machineTypeOverride,0
;   strokeXoverride,190
;   strokeYoverride,195
;   strokeZoverride,180
;   originOffsetXoverride,0
;   originOffsetYoverride,0
;   originOffsetZoverride,0
;   homeXdirOverride,-1
;   homeYdirOverride,-1
;   homeZdirOverride,-1
;   flipXoverride,1
;   flipYoverride,-1
;   flipZoverride,1
;   toolheadOffsets,0,0|0,0|0,0|0,0|0,0|0,0
;   overrideFirmwareConfiguration,1
;   firmwareTypeOverride,RepRap (Marlin/Repetier/Sprinter)
;   GPXconfigOverride,r2
;   baudRateOverride,115200
;   overridePrinterModels,1
;   printerModelsOverride
;   startingGcode,G28 ; home all axes
;   layerChangeGcode,
;   retractionGcode,
;   toolChangeGcode,
;   endingGcode,G28 X0 ; home X-axis,M104 S0 ; turn off extruder,M140 S0 ; turn off bed,M84 ; disable motors
;   exportFileFormat,gcode
;   celebration,0
;   celebrationSong,Random Song
;   postProcessing,
;   defaultSpeed,3600
;   outlineUnderspeed,0.5
;   solidInfillUnderspeed,0.8
;   supportUnderspeed,0.8
;   rapidXYspeed,4800
;   rapidZspeed,1002
;   minBridgingArea,50
;   bridgingExtraInflation,0
;   bridgingExtrusionMultiplier,1
;   bridgingSpeedMultiplier,1
;   useFixedBridgingAngle,0
;   fixedBridgingAngle,0
;   applyBridgingToPerimeters,0
;   filamentDiameters,1.75|1.75|1.75|1.75|1.75|1.75
;   filamentPricesPerKg,46|46|46|46|46|46
;   filamentDensities,1.25|1.25|1.25|1.25|1.25|1.25
;   useMinPrintHeight,0
;   minPrintHeight,0
;   useMaxPrintHeight,0
;   maxPrintHeight,0
;   useDiaphragm,0
;   diaphragmLayerInterval,20
;   robustSlicing,1
;   mergeAllIntoSolid,0
;   onlyRetractWhenCrossingOutline,1
;   retractBetweenLayers,1
;   useRetractionMinTravel,0
;   retractionMinTravel,3
;   retractWhileWiping,0
;   onlyWipeOutlines,1
;   avoidCrossingOutline,0
;   maxMovementDetourFactor,3
;   toolChangeRetractionDistance,12
;   toolChangeExtraRestartDistance,-0.5
;   toolChangeRetractionSpeed,600
;   externalThinWallType,0
;   internalThinWallType,2
;   thinWallAllowedOverlapPercentage,10
;   singleExtrusionMinLength,1
;   singleExtrusionMinPrintingWidthPercentage,50
;   singleExtrusionMaxPrintingWidthPercentage,200
;   singleExtrusionEndpointExtension,0.2
;   horizontalSizeCompensation,0
G90
M82
M106 S0
M140 S109
M190 S109
M104 S240 T0
M109 S240 T0
G28 ; home all axes
; process Process1
; layer 1, Z = 0.400
T0
G92 E0.0000
G1 E-1.0000 F1800
; feature skirt
; tool H0.400 W0.600
G1 Z0.400 F1002
G1 X62.450 Y81.177 F4800
G1 E0.0000 F1800
G92 E0.0000
G1 X63.141 Y80.690 E0.0861 F720
G1 X63.260 Y80.618 E0.1003
G1 X64.015 Y80.237 E0.1863
G1 X64.144 Y80.183 E0.2006
G1 X64.914 Y79.928 E0.2830
G1 X64.981 Y79.909 E0.2902
G1 X86.439 Y74.508 E2.5422
G1 X87.039 Y74.314 E2.6064
G1 X87.552 Y74.069 E2.6643
G1 X88.029 Y73.759 E2.7221
G1 X88.460 Y73.388 E2.7800
G1 X88.838 Y72.964 E2.8378
G1 X89.157 Y72.493 E2.8957
G1 X89.411 Y71.985 E2.9535
G1 X89.596 Y71.447 E3.0114
G1 X89.708 Y70.890 E3.0692
G1 X89.750 Y70.260 E3.1335
G1 X89.750 Y68.438 E3.3190
G1 X89.758 Y68.314 E3.3316
G1 X89.810 Y67.921 E3.3719
G1 X89.874 Y67.681 E3.3973
G1 X90.049 Y67.258 E3.4439
G1 X90.174 Y67.042 E3.4692
G1 X90.453 Y66.679 E3.5158
G1 X90.629 Y66.503 E3.5412
G1 X90.992 Y66.224 E3.5878
G1 X91.208 Y66.099 E3.6131
G1 X91.631 Y65.924 E3.6597
G1 X91.871 Y65.860 E3.6851
G1 X92.264 Y65.808 E3.7253
G1 X92.388 Y65.800 E3.7380
G1 X127.412 Y65.800 E7.3026
G1 X127.536 Y65.808 E7.3153
G1 X127.928 Y65.860 E7.3555
G1 X128.169 Y65.924 E7.3809
G1 X128.592 Y66.099 E7.4275
G1 X128.808 Y66.224 E7.4529
G1 X129.171 Y66.503 E7.4995
G1 X129.347 Y66.679 E7.5248
G1 X129.626 Y67.042 E7.5714
G1 X129.751 Y67.258 E7.5968
G1 X129.926 Y67.681 E7.6434
G1 X129.990 Y67.921 E7.6687
G1 X130.042 Y68.315 E7.7091
G1 X130.050 Y68.442 E7.7221
G1 X130.032 Y74.408 E8.3293
G1 X129.948 Y74.797 E8.3698
G1 X129.662 Y75.437 E8.4411
G1 X129.473 Y75.716 E8.4754
G1 X128.700 Y76.506 E8.5879
G1 X128.298 Y77.023 E8.6545
G1 X127.965 Y77.579 E8.7205
G1 X127.700 Y78.170 E8.7864
G1 X127.508 Y78.789 E8.8524
G1 X127.392 Y79.427 E8.9183
G1 X127.350 Y80.131 E8.9901
G1 X127.350 Y112.869 E12.3221
G1 X127.392 Y113.573 E12.3939
G1 X127.509 Y114.211 E12.4598
G1 X127.700 Y114.830 E12.5258
G1 X127.965 Y115.421 E12.5917
G1 X128.298 Y115.977 E12.6577
G1 X128.700 Y116.494 E12.7243
G1 X129.473 Y117.284 E12.8368
G1 X129.662 Y117.563 E12.8711
G1 X129.948 Y118.203 E12.9424
G1 X130.032 Y118.592 E12.9830
G1 X130.050 Y125.559 E13.6920
G1 X130.042 Y125.685 E13.7049
G1 X129.990 Y126.079 E13.7453
G1 X129.926 Y126.319 E13.7706
G1 X129.751 Y126.742 E13.8172
G1 X129.626 Y126.958 E13.8426
G1 X129.347 Y127.321 E13.8892
G1 X129.171 Y127.497 E13.9145
G1 X128.808 Y127.776 E13.9611
G1 X128.592 Y127.901 E13.9865
G1 X128.169 Y128.076 E14.0331
G1 X127.929 Y128.140 E14.0584
G1 X127.536 Y128.192 E14.0987
G1 X127.412 Y128.200 E14.1114
G1 X122.786 Y128.200 E14.5822
G1 X122.753 Y128.258 E14.5890
G1 X122.506 Y128.580 E14.6303
G1 X122.330 Y128.756 E14.6556
G1 X122.008 Y129.003 E14.6969
G1 X121.792 Y129.127 E14.7223
G1 X121.361 Y129.306 E14.7697
G1 X120.999 Y129.379 E14.8074
G1 X115.994 Y129.400 E15.3167
G1 X115.866 Y129.392 E15.3298
G1 X115.523 Y129.347 E15.3650
G1 X115.283 Y129.283 E15.3903
G1 X114.908 Y129.127 E15.4316
G1 X114.692 Y129.003 E15.4569
G1 X114.370 Y128.756 E15.4982
G1 X114.194 Y128.580 E15.5236
G1 X113.947 Y128.258 E15.5649
G1 X113.914 Y128.200 E15.5717
G1 X63.592 Y128.200 E20.6932
G1 X63.477 Y128.193 E20.7049
G1 X62.876 Y128.120 E20.7665
G1 X62.652 Y128.064 E20.7900
G1 X62.033 Y127.829 E20.8575
G1 X61.828 Y127.721 E20.8810
G1 X61.308 Y127.361 E20.9454
G1 X61.178 Y127.251 E20.9627
G1 X60.899 Y126.972 E21.0029
G1 X60.789 Y126.842 E21.0202
G1 X60.429 Y126.322 E21.0846
G1 X60.321 Y126.117 E21.1081
G1 X60.086 Y125.498 E21.1756
G1 X60.030 Y125.274 E21.1991
G1 X59.957 Y124.673 E21.2607
G1 X59.950 Y124.558 E21.2724
G1 X59.950 Y86.363 E25.1598
G1 X59.953 Y86.293 E25.1669
G1 X60.012 Y85.484 E25.2494
G1 X60.033 Y85.346 E25.2636
G1 X60.218 Y84.521 E25.3497
G1 X60.258 Y84.387 E25.3639
G1 X60.562 Y83.598 E25.4499
G1 X60.622 Y83.472 E25.4642
G1 X61.038 Y82.736 E25.5502
G1 X61.116 Y82.620 E25.5644
G1 X61.636 Y81.953 E25.6505
G1 X61.730 Y81.849 E25.6647
G1 X62.342 Y81.266 E25.7508
G1 X62.450 Y81.177 E25.7650
G92 E0.0000
G1 E-1.0000 F1800
G1 X62.814 Y81.655 F4800
G1 E0.0000 F1800
G92 E0.0000
G1 X63.468 Y81.193 E0.0816 F720
G1 X63.550 Y81.143 E0.0913
G1 X64.266 Y80.783 E0.1728
G1 X64.354 Y80.746 E0.1826
G1 X65.092 Y80.501 E0.2617
G1 X65.138 Y80.488 E0.2666
G1 X86.604 Y75.085 E2.5195
G1 X87.262 Y74.873 E2.5898
G1 X87.847 Y74.594 E2.6557
G1 X88.390 Y74.240 E2.7217
G1 X88.881 Y73.817 E2.7876
G1 X89.312 Y73.334 E2.8536
G1 X89.676 Y72.797 E2.9196
G1 X89.966 Y72.218 E2.9855
G1 X90.176 Y71.605 E3.0515
G1 X90.304 Y70.970 E3.1174
G1 X90.350 Y70.280 E3.1878
G1 X90.350 Y68.457 E3.3732
G1 X90.356 Y68.373 E3.3819
G1 X90.399 Y68.039 E3.4162
G1 X90.444 Y67.874 E3.4335
G1 X90.589 Y67.524 E3.4721
G1 X90.674 Y67.376 E3.4895
G1 X90.905 Y67.075 E3.5280
G1 X91.025 Y66.955 E3.5454
G1 X91.326 Y66.724 E3.5840
G1 X91.474 Y66.639 E3.6013
G1 X91.824 Y66.494 E3.6399
G1 X91.989 Y66.450 E3.6573
G1 X92.322 Y66.406 E3.6915
G1 X92.407 Y66.400 E3.7002
G1 X127.393 Y66.400 E7.2608
G1 X127.477 Y66.406 E7.2695
G1 X127.811 Y66.450 E7.3038
G1 X127.976 Y66.494 E7.3211
G1 X128.326 Y66.639 E7.3597
G1 X128.474 Y66.724 E7.3771
G1 X128.775 Y66.955 E7.4157
G1 X128.895 Y67.075 E7.4330
G1 X129.126 Y67.376 E7.4716
G1 X129.211 Y67.524 E7.4889
G1 X129.356 Y67.874 E7.5275
G1 X129.400 Y68.039 E7.5449
G1 X129.445 Y68.374 E7.5792
G1 X129.450 Y68.460 E7.5881
G1 X129.432 Y74.343 E8.1869
G1 X129.375 Y74.610 E8.2146
G1 X129.136 Y75.144 E8.2741
G1 X129.006 Y75.334 E8.2976
G1 X128.247 Y76.111 E8.4081
G1 X127.802 Y76.683 E8.4819
G1 X127.432 Y77.301 E8.5552
G1 X127.138 Y77.958 E8.6285
G1 X126.925 Y78.646 E8.7018
G1 X126.796 Y79.355 E8.7751
G1 X126.750 Y80.113 E8.8524
G1 X126.750 Y112.887 E12.1880
G1 X126.796 Y113.645 E12.2653
G1 X126.925 Y114.354 E12.3386
G1 X127.138 Y115.042 E12.4119
G1 X127.432 Y115.699 E12.4852
G1 X127.802 Y116.317 E12.5585
G1 X128.247 Y116.889 E12.6323
G1 X129.006 Y117.666 E12.7428
G1 X129.136 Y117.856 E12.7662
G1 X129.375 Y118.390 E12.8258
G1 X129.432 Y118.657 E12.8535
G1 X129.450 Y125.540 E13.5541
G1 X129.445 Y125.627 E13.5629
G1 X129.400 Y125.961 E13.5973
G1 X129.356 Y126.126 E13.6146
G1 X129.211 Y126.476 E13.6532
G1 X129.126 Y126.624 E13.6706
G1 X128.895 Y126.925 E13.7092
G1 X128.775 Y127.045 E13.7265
G1 X128.474 Y127.276 E13.7651
G1 X128.326 Y127.361 E13.7824
G1 X127.976 Y127.506 E13.8210
G1 X127.811 Y127.550 E13.8384
G1 X127.477 Y127.594 E13.8726
G1 X127.393 Y127.600 E13.8813
G1 X122.411 Y127.600 E14.3883
G1 X122.338 Y127.776 E14.4077
G1 X122.253 Y127.924 E14.4250
G1 X122.054 Y128.183 E14.4583
G1 X121.933 Y128.304 E14.4757
G1 X121.674 Y128.503 E14.5090
G1 X121.526 Y128.588 E14.5263
G1 X121.186 Y128.729 E14.5638
G1 X120.938 Y128.779 E14.5896
G1 X116.012 Y128.800 E15.0909
G1 X115.924 Y128.795 E15.0999
G1 X115.641 Y128.757 E15.1290
G1 X115.476 Y128.713 E15.1463
G1 X115.174 Y128.588 E15.1796
G1 X115.026 Y128.503 E15.1969
G1 X114.767 Y128.304 E15.2302
G1 X114.646 Y128.183 E15.2476
G1 X114.447 Y127.924 E15.2808
G1 X114.362 Y127.776 E15.2982
G1 X114.289 Y127.600 E15.3176
G1 X63.611 Y127.600 E20.4754
G1 X63.532 Y127.595 E20.4835
G1 X62.985 Y127.529 E20.5395
G1 X62.832 Y127.491 E20.5556
G1 X62.280 Y127.281 E20.6157
G1 X62.140 Y127.207 E20.6318
G1 X61.672 Y126.883 E20.6897
G1 X61.583 Y126.808 E20.7016
G1 X61.342 Y126.567 E20.7362
G1 X61.267 Y126.478 E20.7481
G1 X60.943 Y126.010 E20.8061
G1 X60.869 Y125.870 E20.8221
G1 X60.659 Y125.318 E20.8822
G1 X60.621 Y125.165 E20.8983
G1 X60.555 Y124.618 E20.9544
G1 X60.550 Y124.539 E20.9624
G1 X60.550 Y86.374 E24.8467
G1 X60.552 Y86.326 E24.8516
G1 X60.609 Y85.551 E24.9307
G1 X60.623 Y85.456 E24.9405
G1 X60.798 Y84.674 E25.0220
G1 X60.826 Y84.582 E25.0318
G1 X61.114 Y83.835 E25.1133
G1 X61.155 Y83.748 E25.1230
G1 X61.550 Y83.051 E25.2046
G1 X61.603 Y82.971 E25.2143
G1 X62.096 Y82.339 E25.2959
G1 X62.160 Y82.268 E25.3056
G1 X62.740 Y81.715 E25.3872
G1 X62.814 Y81.655 E25.3969
G92 E0.0000
G1 E-1.0000 F1800
; feature inner perimeter
G1 X69.283 Y82.951 F4800
G1 E0.0000 F1800
G92 E0.0000
G1 X87.543 Y78.355 E1.9164 F540
G1 X88.522 Y78.038 E2.0212
G1 X89.514 Y77.565 E2.1330
G1 X90.435 Y76.965 E2.2449
G1 X91.268 Y76.249 E2.3567
G1 X92.000 Y75.429 E2.4685
G1 X92.316 Y74.963 E2.5258
G1 X92.617 Y74.519 E2.5804
G1 X93.108 Y73.536 E2.6922
G1 X93.465 Y72.497 E2.8041
G1 X93.682 Y71.419 E2.9159
G1 X93.750 Y70.392 E3.0207
G1 X93.750 Y69.800 E3.0810
G1 X98.560 Y69.800 E3.5705
G1 X98.645 Y70.238 E3.6159
G1 X98.026 Y70.485 E3.6837
G1 X97.695 Y70.648 E3.7212
G1 X97.201 Y71.030 E3.7848
G1 X96.838 Y71.426 E3.8395
G1 X96.505 Y71.962 E3.9037
G1 X96.285 Y72.530 E3.9657
G1 X96.181 Y73.056 E4.0203
G1 X96.150 Y73.447 E4.0602
G1 X96.150 Y81.568 E4.8867
G1 X95.092 Y81.394 E4.9959
G1 X94.128 Y81.446 E5.0941
G1 X93.198 Y81.705 E5.1923
G1 X92.346 Y82.156 E5.2905
G1 X91.610 Y82.781 E5.3887
G1 X91.073 Y83.488 E5.4790
G1 X90.806 Y83.279 E5.5136
G1 X89.923 Y82.797 E5.6159
G1 X88.948 Y82.460 E5.7209
G1 X87.954 Y82.295 E5.8235
G1 X86.950 Y82.294 E5.9256
G1 X86.045 Y82.444 E6.0190
G1 X71.657 Y86.067 E7.5290
G1 X70.808 Y86.357 E7.6204
G1 X70.223 Y86.673 E7.6881
G1 X70.312 Y85.850 E7.7724
G1 X70.207 Y84.882 E7.8715
G1 X69.885 Y83.951 E7.9717
G1 X69.283 Y82.951 E8.0906
G1 X67.445 Y90.084 F4800
G92 E0.0000
G1 X67.225 Y90.957 E0.0916 F540
G1 X67.150 Y91.868 E0.1847
G1 X67.150 Y102.868 E1.3042
G1 X66.092 Y102.694 E1.4133
G1 X65.128 Y102.746 E1.5115
G1 X63.950 Y103.073 E1.6360
G1 X63.950 Y89.927 E2.9740
G1 X65.128 Y90.254 E3.0985
G1 X66.092 Y90.306 E3.1967
G1 X67.445 Y90.084 E3.3363
G92 E0.0000
G1 E-1.0000 F1800
G1 X67.150 Y111.432 F4800
G1 E0.0000 F1800
G92 E0.0000
G1 X67.150 Y115.593 E0.4235 F540
G1 X67.221 Y116.396 E0.5055
G1 X67.451 Y117.249 E0.5954
G1 X67.825 Y118.052 E0.6856
G1 X68.343 Y118.790 E0.7774
G1 X68.971 Y119.416 E0.8676
G1 X69.696 Y119.924 E0.9577
G1 X70.503 Y120.300 E1.0483
G1 X71.363 Y120.530 E1.1389
G1 X72.158 Y120.600 E1.2202
G1 X87.533 Y120.600 E2.7849
G1 X88.406 Y120.531 E2.8741
G1 X89.309 Y120.315 E2.9685
G1 X90.220 Y119.943 E3.0687
G1 X91.042 Y119.438 E3.1668
G1 X91.766 Y118.820 E3.2637
G1 X92.384 Y118.097 E3.3605
G1 X92.884 Y117.285 E3.4577
G1 X93.261 Y116.374 E3.5580
G1 X93.482 Y115.448 E3.6549
G1 X93.550 Y114.582 E3.7433
G1 X93.550 Y111.393 E4.0678
G1 X94.128 Y111.554 E4.1289
G1 X95.092 Y111.606 E4.2271
G1 X96.150 Y111.432 E4.3363
G1 X96.150 Y119.561 E5.1635
G1 X96.190 Y120.025 E5.2110
G1 X96.294 Y120.494 E5.2598
G1 X96.506 Y121.039 E5.3194
G1 X96.854 Y121.601 E5.3866
G1 X97.306 Y122.065 E5.4525
G1 X97.773 Y122.400 E5.5111
G1 X98.466 Y122.698 E5.5878
G1 X99.118 Y122.780 E5.6547
G1 X117.581 Y122.780 E7.5339
G1 X118.208 Y122.701 E7.5981
G1 X118.674 Y122.515 E7.6492
G1 X119.005 Y122.352 E7.6867
G1 X119.499 Y121.970 E7.7503
