; G-Code generated by Simplify3D(R) Version 4.1.2
; Jan 11, 2021 at 9:44:07 PM
; Settings Summary
;   processName,Process1
;   applyToModels,rail_installation_guide_center_x2,rail_installation_guide_center_x2(2)
;   profileName,Monoprice Maker Select (modified)
;   profileVersion,2016-06-08 08:00:00
;   baseProfile,
;   printMaterial,ABS
;   printQuality,High
;   printExtruders,
;   extruderName,Primary Extruder
;   extruderToolheadNumber,0
;   extruderDiameter,0.4
;   extruderAutoWidth,0
;   extruderWidth,0.4
;   extrusionMultiplier,1.02
;   extruderUseRetract,1
;   extruderRetractionDistance,1
;   extruderExtraRestartDistance,0
;   extruderRetractionZLift,0
;   extruderRetractionSpeed,1800
;   extruderUseCoasting,0
;   extruderCoastingDistance,0.2
;   extruderUseWipe,0
;   extruderWipeDistance,5
;   primaryExtruder,0
;   layerHeight,0.2
;   topSolidLayers,5
;   bottomSolidLayers,5
;   perimeterOutlines,4
;   printPerimetersInsideOut,1
;   startPointOption,2
;   startPointOriginX,0
;   startPointOriginY,0
;   sequentialIslands,0
;   spiralVaseMode,0
;   firstLayerHeightPercentage,200
;   firstLayerWidthPercentage,150
;   firstLayerUnderspeed,0.2
;   useRaft,0
;   raftExtruder,0
;   raftTopLayers,3
;   raftBaseLayers,2
;   raftOffset,3
;   raftSeparationDistance,0.14
;   raftTopInfill,100
;   aboveRaftSpeedMultiplier,0.3
;   useSkirt,1
;   skirtExtruder,0
;   skirtLayers,1
;   skirtOutlines,2
;   skirtOffset,1
;   usePrimePillar,0
;   primePillarExtruder,999
;   primePillarWidth,12
;   primePillarLocation,7
;   primePillarSpeedMultiplier,1
;   useOozeShield,0
;   oozeShieldExtruder,999
;   oozeShieldOffset,2
;   oozeShieldOutlines,1
;   oozeShieldSidewallShape,1
;   oozeShieldSidewallAngle,20
;   oozeShieldSpeedMultiplier,1
;   infillExtruder,0
;   internalInfillPattern,Rectilinear
;   externalInfillPattern,Rectilinear
;   infillPercentage,40
;   outlineOverlapPercentage,25
;   infillExtrusionWidthPercentage,150
;   minInfillLength,5
;   infillLayerInterval,1
;   internalInfillAngles,45,-45
;   overlapInternalInfillAngles,0
;   externalInfillAngles,45,-45
;   generateSupport,0
;   supportExtruder,0
;   supportInfillPercentage,40
;   supportExtraInflation,0
;   supportBaseLayers,0
;   denseSupportExtruder,0
;   denseSupportLayers,0
;   denseSupportInfillPercentage,70
;   supportLayerInterval,1
;   supportHorizontalPartOffset,0.3
;   supportUpperSeparationLayers,1
;   supportLowerSeparationLayers,1
;   supportType,0
;   supportGridSpacing,4
;   maxOverhangAngle,45
;   supportAngles,0
;   temperatureName,Primary Extruder,Heated Bed
;   temperatureNumber,0,0
;   temperatureSetpointCount,1,1
;   temperatureSetpointLayers,1,1
;   temperatureSetpointTemperatures,240,109
;   temperatureStabilizeAtStartup,1,1
;   temperatureHeatedBed,0,1
;   fanLayers,1
;   fanSpeeds,0
;   blipFanToFullPower,0
;   adjustSpeedForCooling,1
;   minSpeedLayerTime,15
;   minCoolingSpeedSlowdown,20
;   increaseFanForCooling,0
;   minFanLayerTime,45
;   maxCoolingFanSpeed,100
;   increaseFanForBridging,0
;   bridgingFanSpeed,100
;   use5D,1
;   relativeEdistances,0
;   allowEaxisZeroing,1
;   independentExtruderAxes,0
;   includeM10123,0
;   stickySupport,1
;   applyToolheadOffsets,0
;   gcodeXoffset,0
;   gcodeYoffset,0
;   gcodeZoffset,0
;   overrideMachineDefinition,1
;   machineTypeOverride,0
;   strokeXoverride,190
;   strokeYoverride,195
;   strokeZoverride,180
;   originOffsetXoverride,0
;   originOffsetYoverride,0
;   originOffsetZoverride,0
;   homeXdirOverride,-1
;   homeYdirOverride,-1
;   homeZdirOverride,-1
;   flipXoverride,1
;   flipYoverride,-1
;   flipZoverride,1
;   toolheadOffsets,0,0|0,0|0,0|0,0|0,0|0,0
;   overrideFirmwareConfiguration,1
;   firmwareTypeOverride,RepRap (Marlin/Repetier/Sprinter)
;   GPXconfigOverride,r2
;   baudRateOverride,115200
;   overridePrinterModels,1
;   printerModelsOverride
;   startingGcode,G28 ; home all axes
;   layerChangeGcode,
;   retractionGcode,
;   toolChangeGcode,
;   endingGcode,G28 X0 ; home X-axis,M104 S0 ; turn off extruder,M140 S0 ; turn off bed,M84 ; disable motors
;   exportFileFormat,gcode
;   celebration,0
;   celebrationSong,Random Song
;   postProcessing,
;   defaultSpeed,3600
;   outlineUnderspeed,0.5
;   solidInfillUnderspeed,0.8
;   supportUnderspeed,0.8
;   rapidXYspeed,4800
;   rapidZspeed,1002
;   minBridgingArea,50
;   bridgingExtraInflation,0
;   bridgingExtrusionMultiplier,1
;   bridgingSpeedMultiplier,1
;   useFixedBridgingAngle,0
;   fixedBridgingAngle,0
;   applyBridgingToPerimeters,0
;   filamentDiameters,1.75|1.75|1.75|1.75|1.75|1.75
;   filamentPricesPerKg,46|46|46|46|46|46
;   filamentDensities,1.25|1.25|1.25|1.25|1.25|1.25
;   useMinPrintHeight,0
;   minPrintHeight,0
;   useMaxPrintHeight,0
;   maxPrintHeight,0
;   useDiaphragm,0
;   diaphragmLayerInterval,20
;   robustSlicing,1
;   mergeAllIntoSolid,0
;   onlyRetractWhenCrossingOutline,1
;   retractBetweenLayers,1
;   useRetractionMinTravel,0
;   retractionMinTravel,3
;   retractWhileWiping,0
;   onlyWipeOutlines,1
;   avoidCrossingOutline,0
;   maxMovementDetourFactor,3
;   toolChangeRetractionDistance,12
;   toolChangeExtraRestartDistance,-0.5
;   toolChangeRetractionSpeed,600
;   externalThinWallType,0
;   internalThinWallType,2
;   thinWallAllowedOverlapPercentage,10
;   singleExtrusionMinLength,1
;   singleExtrusionMinPrintingWidthPercentage,50
;   singleExtrusionMaxPrintingWidthPercentage,200
;   singleExtrusionEndpointExtension,0.2
;   horizontalSizeCompensation,0
G90
M82
M106 S0
M140 S109
M190 S109
M104 S240 T0
M109 S240 T0
G28 ; home all axes
; process Process1
; layer 1, Z = 0.400
T0
G92 E0.0000
G1 E-1.0000 F1800
; feature skirt
; tool H0.400 W0.600
G1 Z0.400 F1002
G1 X81.854 Y74.587 F4800
G1 E0.0000 F1800
G92 E0.0000
G1 X81.983 Y74.456 E0.0186 F720
G1 X82.724 Y73.836 E0.1170
G1 X82.864 Y73.739 E0.1344
G1 X83.490 Y73.382 E0.2077
G1 X83.629 Y73.317 E0.2233
G1 X84.413 Y73.026 E0.3084
G1 X84.576 Y72.981 E0.3256
G1 X85.405 Y72.832 E0.4113
G1 X85.573 Y72.817 E0.4285
G1 X104.027 Y72.800 E2.3066
G1 X104.084 Y72.802 E2.3125
G1 X104.626 Y72.834 E2.3677
G1 X104.754 Y72.850 E2.3809
G1 X105.440 Y72.986 E2.4520
G1 X105.572 Y73.022 E2.4660
G1 X106.224 Y73.252 E2.5363
G1 X106.341 Y73.302 E2.5493
G1 X106.849 Y73.563 E2.6074
G1 X106.946 Y73.620 E2.6188
G1 X107.412 Y73.934 E2.6761
G1 X107.502 Y74.003 E2.6875
G1 X107.923 Y74.365 E2.7441
G1 X107.994 Y74.433 E2.7541
G1 X108.296 Y74.753 E2.7989
G1 X108.360 Y74.829 E2.8090
G1 X108.697 Y75.271 E2.8655
G1 X108.760 Y75.364 E2.8770
G1 X109.046 Y75.848 E2.9342
G1 X109.097 Y75.949 E2.9457
G1 X109.324 Y76.463 E3.0030
G1 X109.363 Y76.569 E3.0144
G1 X109.527 Y77.107 E3.0717
G1 X109.554 Y77.217 E3.0831
G1 X109.653 Y77.770 E3.1404
G1 X109.667 Y77.882 E3.1519
G1 X109.698 Y78.416 E3.2062
G1 X109.700 Y78.472 E3.2120
G1 X109.700 Y95.787 E4.9742
G1 X108.587 Y96.900 E5.1344
G1 X104.513 Y96.900 E5.5491
G1 X103.400 Y95.787 E5.7093
G1 X103.400 Y86.600 E6.6443
G1 X99.013 Y86.600 E7.0908
G1 X97.900 Y85.487 E7.2510
G1 X97.900 Y80.100 E7.7992
G1 X92.100 Y80.100 E8.3895
G1 X92.100 Y85.487 E8.9378
G1 X90.987 Y86.600 E9.0980
G1 X86.600 Y86.600 E9.5445
G1 X86.600 Y95.787 E10.4795
G1 X85.487 Y96.900 E10.6397
G1 X81.413 Y96.900 E11.0544
G1 X80.300 Y95.786 E11.2146
G1 X80.307 Y78.218 E13.0027
G1 X80.313 Y78.106 E13.0141
G1 X80.382 Y77.534 E13.0728
G1 X80.408 Y77.395 E13.0871
G1 X80.623 Y76.609 E13.1701
G1 X80.670 Y76.476 E13.1844
G1 X80.903 Y75.949 E13.2431
G1 X80.954 Y75.848 E13.2545
G1 X81.247 Y75.352 E13.3132
G1 X81.328 Y75.236 E13.3275
G1 X81.854 Y74.587 E13.4127
G92 E0.0000
G1 E-1.0000 F1800
G1 X82.302 Y74.987 F4800
G1 E0.0000 F1800
G92 E0.0000
G1 X82.390 Y74.898 E0.0128 F720
G1 X83.089 Y74.313 E0.1055
G1 X83.184 Y74.247 E0.1173
G1 X83.766 Y73.916 E0.1854
G1 X83.861 Y73.871 E0.1961
G1 X84.597 Y73.598 E0.2760
G1 X84.708 Y73.567 E0.2878
G1 X85.485 Y73.427 E0.3681
G1 X85.600 Y73.417 E0.3799
G1 X104.018 Y73.400 E2.2544
G1 X104.057 Y73.401 E2.2584
G1 X104.570 Y73.432 E2.3106
G1 X104.658 Y73.443 E2.3196
G1 X105.302 Y73.570 E2.3865
G1 X105.393 Y73.595 E2.3960
G1 X106.005 Y73.811 E2.4621
G1 X106.085 Y73.846 E2.4710
G1 X106.559 Y74.089 E2.5252
G1 X106.625 Y74.128 E2.5330
G1 X107.062 Y74.422 E2.5867
G1 X107.124 Y74.469 E2.5945
G1 X107.519 Y74.810 E2.6477
G1 X107.568 Y74.856 E2.6545
G1 X107.849 Y75.154 E2.6961
G1 X107.892 Y75.205 E2.7030
G1 X108.209 Y75.620 E2.7562
G1 X108.252 Y75.684 E2.7640
G1 X108.520 Y76.138 E2.8177
G1 X108.555 Y76.207 E2.8255
G1 X108.768 Y76.689 E2.8791
G1 X108.795 Y76.761 E2.8870
G1 X108.948 Y77.265 E2.9406
G1 X108.966 Y77.340 E2.9485
G1 X109.060 Y77.859 E3.0021
G1 X109.069 Y77.935 E3.0099
G1 X109.099 Y78.442 E3.0616
G1 X109.100 Y78.481 E3.0655
G1 X109.100 Y95.538 E4.8016
G1 X108.338 Y96.300 E4.9112
G1 X104.762 Y96.300 E5.2753
G1 X104.000 Y95.538 E5.3849
G1 X104.000 Y86.000 E6.3557
G1 X99.262 Y86.000 E6.8379
G1 X98.500 Y85.238 E6.9475
G1 X98.500 Y79.500 E7.5316
G1 X91.500 Y79.500 E8.2440
G1 X91.500 Y85.238 E8.8280
G1 X90.738 Y86.000 E8.9376
G1 X86.000 Y86.000 E9.4199
G1 X86.000 Y95.538 E10.3907
G1 X85.238 Y96.300 E10.5003
G1 X81.661 Y96.300 E10.8644
G1 X80.900 Y95.538 E10.9740
G1 X80.907 Y78.236 E12.7349
G1 X80.911 Y78.159 E12.7428
G1 X80.975 Y77.627 E12.7974
G1 X80.993 Y77.532 E12.8072
G1 X81.196 Y76.789 E12.8856
G1 X81.228 Y76.698 E12.8954
G1 X81.445 Y76.207 E12.9500
G1 X81.480 Y76.138 E12.9579
G1 X81.753 Y75.676 E13.0125
G1 X81.808 Y75.597 E13.0223
G1 X82.302 Y74.987 E13.1022
G92 E0.0000
G1 E-1.0000 F1800
G1 X85.405 Y98.332 F4800
G1 E0.0000 F1800
G92 E0.0000
G1 X85.573 Y98.317 E0.0172 F720
G1 X104.027 Y98.300 E1.8953
G1 X104.084 Y98.302 E1.9011
G1 X104.626 Y98.334 E1.9564
G1 X104.754 Y98.350 E1.9695
G1 X105.440 Y98.486 E2.0407
G1 X105.572 Y98.522 E2.0546
G1 X106.224 Y98.752 E2.1249
G1 X106.341 Y98.802 E2.1380
G1 X106.849 Y99.063 E2.1960
G1 X106.946 Y99.120 E2.2075
G1 X107.412 Y99.434 E2.2647
G1 X107.502 Y99.503 E2.2762
G1 X107.923 Y99.865 E2.3327
G1 X107.994 Y99.933 E2.3428
G1 X108.296 Y100.253 E2.3876
G1 X108.360 Y100.329 E2.3976
G1 X108.697 Y100.771 E2.4542
G1 X108.760 Y100.864 E2.4656
G1 X109.046 Y101.348 E2.5229
G1 X109.097 Y101.449 E2.5344
G1 X109.324 Y101.963 E2.5916
G1 X109.363 Y102.069 E2.6031
G1 X109.527 Y102.607 E2.6603
G1 X109.554 Y102.717 E2.6718
G1 X109.653 Y103.270 E2.7290
G1 X109.667 Y103.382 E2.7405
G1 X109.698 Y103.916 E2.7949
G1 X109.700 Y103.972 E2.8006
G1 X109.700 Y121.287 E4.5629
G1 X108.587 Y122.400 E4.7231
G1 X104.513 Y122.400 E5.1377
G1 X103.400 Y121.287 E5.2979
G1 X103.400 Y112.100 E6.2329
G1 X99.013 Y112.100 E6.6794
G1 X97.900 Y110.987 E6.8396
G1 X97.900 Y105.600 E7.3879
G1 X92.100 Y105.600 E7.9782
G1 X92.100 Y110.987 E8.5265
G1 X90.987 Y112.100 E8.6867
G1 X86.600 Y112.100 E9.1332
G1 X86.600 Y121.287 E10.0682
G1 X85.487 Y122.400 E10.2284
G1 X81.413 Y122.400 E10.6430
G1 X80.300 Y121.286 E10.8033
G1 X80.307 Y103.718 E12.5913
G1 X80.313 Y103.606 E12.6027
G1 X80.382 Y103.034 E12.6614
G1 X80.408 Y102.895 E12.6757
G1 X80.623 Y102.109 E12.7587
G1 X80.670 Y101.976 E12.7730
G1 X80.903 Y101.449 E12.8317
G1 X80.954 Y101.348 E12.8432
G1 X81.247 Y100.852 E12.9019
G1 X81.328 Y100.736 E12.9162
G1 X81.854 Y100.087 E13.0013
G1 X81.983 Y99.956 E13.0200
G1 X82.724 Y99.336 E13.1183
G1 X82.864 Y99.239 E13.1357
G1 X83.490 Y98.882 E13.2090
G1 X83.629 Y98.817 E13.2246
G1 X84.413 Y98.526 E13.3097
G1 X84.576 Y98.481 E13.3269
G1 X85.405 Y98.332 E13.4127
G92 E0.0000
G1 E-1.0000 F1800
G1 X85.485 Y98.927 F4800
G1 E0.0000 F1800
G92 E0.0000
G1 X85.600 Y98.917 E0.0117 F720
G1 X104.018 Y98.900 E1.8863
G1 X104.057 Y98.901 E1.8902
G1 X104.570 Y98.932 E1.9425
G1 X104.658 Y98.943 E1.9515
G1 X105.302 Y99.070 E2.0184
G1 X105.393 Y99.095 E2.0279
G1 X106.005 Y99.311 E2.0940
G1 X106.085 Y99.346 E2.1029
G1 X106.559 Y99.588 E2.1571
G1 X106.625 Y99.628 E2.1649
G1 X107.062 Y99.922 E2.2185
G1 X107.124 Y99.969 E2.2264
G1 X107.519 Y100.310 E2.2795
G1 X107.568 Y100.356 E2.2864
G1 X107.849 Y100.654 E2.3280
G1 X107.892 Y100.705 E2.3349
G1 X108.209 Y101.120 E2.3881
G1 X108.252 Y101.184 E2.3959
G1 X108.520 Y101.638 E2.4495
G1 X108.555 Y101.707 E2.4574
G1 X108.768 Y102.189 E2.5110
G1 X108.795 Y102.261 E2.5188
G1 X108.948 Y102.765 E2.5725
G1 X108.966 Y102.840 E2.5803
G1 X109.060 Y103.359 E2.6340
G1 X109.069 Y103.435 E2.6418
G1 X109.099 Y103.942 E2.6935
G1 X109.100 Y103.981 E2.6974
G1 X109.100 Y121.038 E4.4335
G1 X108.338 Y121.800 E4.5431
G1 X104.762 Y121.800 E4.9071
G1 X104.000 Y121.038 E5.0167
G1 X104.000 Y111.500 E5.9875
G1 X99.262 Y111.500 E6.4698
G1 X98.500 Y110.738 E6.5794
G1 X98.500 Y105.000 E7.1634
G1 X91.500 Y105.000 E7.8759
G1 X91.500 Y110.738 E8.4599
G1 X90.738 Y111.500 E8.5695
G1 X86.000 Y111.500 E9.0518
G1 X86.000 Y121.038 E10.0226
G1 X85.238 Y121.800 E10.1322
G1 X81.661 Y121.800 E10.4962
G1 X80.900 Y121.038 E10.6059
G1 X80.907 Y103.736 E12.3668
G1 X80.911 Y103.659 E12.3746
G1 X80.975 Y103.127 E12.4292
G1 X80.993 Y103.032 E12.4390
G1 X81.196 Y102.289 E12.5175
G1 X81.228 Y102.198 E12.5273
G1 X81.445 Y101.707 E12.5819
G1 X81.480 Y101.638 E12.5897
G1 X81.753 Y101.176 E12.6444
G1 X81.808 Y101.097 E12.6542
G1 X82.302 Y100.487 E12.7341
G1 X82.390 Y100.398 E12.7468
G1 X83.089 Y99.813 E12.8395
G1 X83.184 Y99.747 E12.8514
G1 X83.766 Y99.416 E12.9195
G1 X83.861 Y99.371 E12.9302
G1 X84.597 Y99.098 E13.0101
G1 X84.708 Y99.067 E13.0218
G1 X85.485 Y98.927 E13.1022
G92 E0.0000
G1 E-1.0000 F1800
; feature inner perimeter
G1 X84.771 Y77.330 F4800
G1 E0.0000 F1800
G92 E0.0000
G1 X84.942 Y77.173 E0.0237 F540
G1 X85.066 Y77.081 E0.0393
G1 X85.122 Y77.046 E0.0461
G1 X85.268 Y76.969 E0.0629
G1 X85.409 Y76.908 E0.0785
G1 X85.550 Y76.864 E0.0936
G1 X85.700 Y76.829 E0.1092
G1 X85.847 Y76.810 E0.1243
G1 X86.052 Y76.800 E0.1452
G1 X88.100 Y76.800 E0.3536
G1 X88.100 Y82.600 E0.9439
G1 X84.305 Y82.600 E1.3302
G1 X84.307 Y78.400 E1.7577
G1 X84.332 Y78.189 E1.7793
G1 X84.364 Y78.050 E1.7938
G1 X84.405 Y77.922 E1.8075
G1 X84.491 Y77.726 E1.8292
G1 X84.600 Y77.541 E1.8511
G1 X84.683 Y77.429 E1.8653
G1 X84.771 Y77.330 E1.8788
G1 X101.900 Y76.800 F4800
G92 E0.0000
G1 X103.938 Y76.800 E0.2074 F540
G1 X104.232 Y76.817 E0.2374
G1 X104.281 Y76.825 E0.2424
G1 X104.450 Y76.864 E0.2600
G1 X104.608 Y76.914 E0.2770
G1 X104.655 Y76.933 E0.2822
G1 X104.862 Y77.039 E0.3058
G1 X105.028 Y77.151 E0.3262
G1 X105.192 Y77.292 E0.3482
G1 X105.276 Y77.382 E0.3607
G1 X105.407 Y77.553 E0.3827
G1 X105.509 Y77.726 E0.4031
G1 X105.590 Y77.910 E0.4236
G1 X105.649 Y78.102 E0.4440
G1 X105.684 Y78.300 E0.4644
G1 X105.700 Y78.562 E0.4912
G1 X105.700 Y82.600 E0.9021
G1 X101.900 Y82.600 E1.2889
G1 X101.900 Y76.800 E1.8792
G1 X101.300 Y76.200 F4800
G92 E0.0000
G1 X103.955 Y76.200 E0.2703 F540
G1 X104.294 Y76.220 E0.3048
G1 X104.393 Y76.235 E0.3149
G1 X104.608 Y76.284 E0.3374
G1 X104.812 Y76.349 E0.3592
G1 X104.905 Y76.387 E0.3695
G1 X105.167 Y76.521 E0.3994
G1 X105.393 Y76.673 E0.4271
G1 X105.607 Y76.858 E0.4559
G1 X105.734 Y76.993 E0.4748
G1 X105.906 Y77.218 E0.5035
G1 X106.044 Y77.452 E0.5312
G1 X106.154 Y77.701 E0.5589
G1 X106.233 Y77.961 E0.5866
G1 X106.281 Y78.228 E0.6142
G1 X106.300 Y78.544 E0.6465
G1 X106.300 Y83.200 E1.1203
G1 X101.300 Y83.200 E1.6292
G1 X101.300 Y76.200 E2.3416
G1 X88.700 Y76.200 F4800
G92 E0.0000
G1 X88.700 Y83.200 E0.7124 F540
G1 X83.705 Y83.200 E1.2208
G1 X83.707 Y78.364 E1.7130
G1 X83.740 Y78.086 E1.7415
G1 X83.784 Y77.892 E1.7618
G1 X83.843 Y77.709 E1.7813
G1 X83.956 Y77.452 E1.8099
G1 X84.099 Y77.209 E1.8386
G1 X84.217 Y77.051 E1.8587
G1 X84.343 Y76.909 E1.8780
G1 X84.560 Y76.710 E1.9080
G1 X84.727 Y76.586 E1.9291
G1 X84.821 Y76.526 E1.9405
G1 X85.010 Y76.426 E1.9622
G1 X85.200 Y76.345 E1.9833
G1 X85.392 Y76.284 E2.0038
G1 X85.594 Y76.238 E2.0248
G1 X85.793 Y76.212 E2.0453
G1 X86.037 Y76.200 E2.0701
G1 X88.700 Y76.200 E2.3412
G1 X89.300 Y77.300 F4800
G92 E0.0000
G1 X89.300 Y83.800 E0.6615 F540
G1 X83.800 Y83.800 E1.2213
G1 X83.800 Y94.100 E2.2696
G1 X83.100 Y94.100 E2.3408
G1 X83.107 Y78.329 E3.9460
G1 X83.148 Y77.983 E3.9814
G1 X83.205 Y77.733 E4.0075
G1 X83.281 Y77.497 E4.0327
G1 X83.421 Y77.177 E4.0682
G1 X83.599 Y76.877 E4.1038
G1 X83.750 Y76.672 E4.1297
G1 X83.915 Y76.487 E4.1549
G1 X84.178 Y76.246 E4.1912
